app/src/main/assets/luts/Bleach_Bypass.cube
TITLE "Bleach Bypass"
# Generated by editclips.online — free to use
DOMAIN_MIN 0.0 0.0 0.0
DOMAIN_MAX 1.0 1.0 1.0
LUT_3D_SIZE 9
0.000000 0.000000 0.000000
0.000000 0.000000 0.000000
0.000000 0.000000 0.000000
0.083268 0.000000 0.000000
0.186024 0.000000 0.000000
0.288780 0.000000 0.000000
0.391536 0.000000 0.000000
0.494292 0.000000 0.000000
0.597048 0.000000 0.000000
0.000000 0.000000 0.000000
0.000000 0.000000 0.000000
0.051809 0.000000 0.000000
0.154565 0.000000 0.000000
0.257321 0.012633 0.000000
0.360077 0.033827 0.000000
0.462833 0.055020 0.000000
0.565589 0.076214 0.000000
0.668345 0.097407 0.015845
0.000000 0.080718 0.000000
0.020349 0.101912 0.000000
0.123105 0.123105 0.000000
0.225861 0.144299 0.000000
0.328617 0.165492 0.002367
0.431373 0.186686 0.023561
0.534129 0.207879 0.044754
0.636885 0.229073 0.065948
0.739642 0.250267 0.087141
0.000000 0.233577 0.000000
0.091646 0.254771 0.010083
0.194402 0.275964 0.031277
0.297158 0.297158 0.052470
0.399914 0.318351 0.073664
0.502670 0.339545 0.094857
0.605426 0.360738 0.116051
0.708182 0.381932 0.137244
0.810938 0.403126 0.158438
0.060186 0.386436 0.060186
0.162942 0.407630 0.081380
0.265698 0.428823 0.102573
0.368454 0.450017 0.123767
0.471210 0.471210 0.144960
0.573966 0.492404 0.166154
0.676722 0.513597 0.187347
0.779478 0.534791 0.208541
0.882235 0.555985 0.229735
0.131482 0.539295 0.131482
0.234239 0.560489 0.152676
0.336995 0.581682 0.173870
0.439751 0.602876 0.195063
0.542507 0.624069 0.216257
0.645263 0.645263 0.237450
0.748019 0.666456 0.258644
0.850775 0.687650 0.279837
0.953531 0.708843 0.301031
0.202779 0.692154 0.202779
0.305535 0.713348 0.223973
0.408291 0.734541 0.245166
0.511047 0.755735 0.266360
0.613803 0.776928 0.287553
0.716559 0.798122 0.308747
0.819315 0.819315 0.329940
0.922071 0.840509 0.351134
1.000000 0.861702 0.372327
0.274075 0.845013 0.274075
0.376832 0.866207 0.295269
0.479588 0.887400 0.316463
0.582344 0.908594 0.337656
0.685100 0.929787 0.358850
0.787856 0.950981 0.380043
0.890612 0.972174 0.401237
0.993368 0.993368 0.422430
1.000000 1.000000 0.443624
0.345372 0.997872 0.345372
0.448128 1.000000 0.366566
0.550884 1.000000 0.387759
0.653640 1.000000 0.408953
0.756396 1.000000 0.430146
0.859152 1.000000 0.451340
0.961908 1.000000 0.472533
1.000000 1.000000 0.493727
1.000000 1.000000 0.514920
0.000000 0.000000 0.000000
0.000000 0.000000 0.000000
0.000000 0.000000 0.000000
0.090466 0.000000 0.000000
0.193222 0.000000 0.000000
0.295978 0.000000 0.000000
0.398734 0.000000 0.000000
0.501490 0.000000 0.012115
0.604246 0.000000 0.033308
0.000000 0.000000 0.000000
0.000000 0.000000 0.000000
0.059006 0.000000 0.000000
0.161762 0.000000 0.000000
0.264518 0.019831 0.019831
0.367274 0.041024 0.041024
0.470030 0.062218 0.062218
0.572786 0.083411 0.083411
0.675542 0.104605 0.104605
0.000000 0.087915 0.006353
0.027547 0.109109 0.027547
0.130303 0.130303 0.048740
0.233059 0.151496 0.069934
0.335815 0.172690 0.091127
0.438571 0.193883 0.112321
0.541327 0.215077 0.133514
0.644083 0.236270 0.154708
0.746839 0.257464 0.175901
0.000000 0.240774 0.077649
0.098843 0.261968 0.098843
0.201599 0.283162 0.120037
0.304355 0.304355 0.141230
0.407111 0.325549 0.162424
0.509867 0.346742 0.183617
0.612623 0.367936 0.204811
0.715379 0.389129 0.226004
0.818135 0.410323 0.247198
0.067383 0.393633 0.148946
0.170139 0.414827 0.170139
0.272896 0.436021 0.191333
0.375652 0.457214 0.212527
0.478408 0.478408 0.233720
0.581164 0.499601 0.254914
0.683920 0.520795 0.276107
0.786676 0.541988 0.297301
0.889432 0.563182 0.318494
0.138680 0.546492 0.220242
0.241436 0.567686 0.241436
0.344192 0.588880 0.262630
0.446948 0.610073 0.283823
0.549704 0.631267 0.305017
0.652460 0.652460 0.326210
0.755216 0.673654 0.347404
0.857972 0.694847 0.368597
0.960728 0.716041 0.389791
0.209976 0.699351 0.291539
0.312732 0.720545 0.312732
0.415489 0.741739 0.333926
0.518245 0.762932 0.355120
0.621001 0.784126 0.376313
0.723757 0.805319 0.397507
0.826513 0.826513 0.418700
0.929269 0.847706 0.439894
1.000000 0.868900 0.461087
0.281273 0.852210 0.362835
0.384029 0.873404 0.384029
0.486785 0.894598 0.405223
0.589541 0.915791 0.426416
0.692297 0.936985 0.447610
0.795053 0.958178 0.468803
0.897809 0.979372 0.489997
1.000000 1.000000 0.511190
1.000000 1.000000 0.532384
0.352569 1.000000 0.434132
0.455325 1.000000 0.455325
0.558082 1.000000 0.476519
0.660838 1.000000 0.497713
0.763594 1.000000 0.518906
0.866350 1.000000 0.540100
0.969106 1.000000 0.561293
1.000000 1.000000 0.582487
1.000000 1.000000 0.603680
0.000000 0.000000 0.000000
0.000000 0.000000 0.000000
0.000000 0.000000 0.000000
0.097663 0.000000 0.016101
0.200419 0.000000 0.037294
0.303175 0.000000 0.058488
0.405931 0.000000 0.079681
0.508687 0.000000 0.100875
0.611443 0.000000 0.122068
0.000000 0.000000 0.023816
0.000000 0.000000 0.045010
0.066204 0.000000 0.066204
0.168960 0.005835 0.087397
0.271716 0.027028 0.108591
0.374472 0.048222 0.129784
0.477228 0.069415 0.150978
0.579984 0.090609 0.172171
0.682740 0.111802 0.193365
0.000000 0.095113 0.095113
0.034744 0.116306 0.116306
0.137500 0.137500 0.137500
0.240256 0.158694 0.158694
0.343012 0.179887 0.179887
0.445768 0.201081 0.201081
0.548524 0.222274 0.222274
0.651280 0.243468 0.243468
0.754036 0.264661 0.264661
0.003284 0.247972 0.166409
0.106040 0.269165 0.187603
0.208797 0.290359 0.208797
0.311553 0.311553 0.229990
0.414309 0.332746 0.251184
0.517065 0.353940 0.272377
0.619821 0.375133 0.293571
0.722577 0.396327 0.314764
0.825333 0.417520 0.335958
0.074581 0.400831 0.237706
0.177337 0.422024 0.258899
0.280093 0.443218 0.280093
0.382849 0.464412 0.301287
0.485605 0.485605 0.322480
0.588361 0.506799 0.343674
0.691117 0.527992 0.364867
0.793873 0.549186 0.386061
0.896629 0.570379 0.407254
0.145877 0.553690 0.309002
0.248633 0.574883 0.330196
0.351389 0.596077 0.351389
0.454146 0.617271 0.372583
0.556902 0.638464 0.393777
0.659658 0.659658 0.414970
0.762414 0.680851 0.436164
0.865170 0.702045 0.457357
0.967926 0.723238 0.478551
0.217174 0.706549 0.380299
0.319930 0.727742 0.401492
0.422686 0.748936 0.422686
0.525442 0.770130 0.443880
0.628198 0.791323 0.465073
0.730954 0.812517 0.486267
0.833710 0.833710 0.507460
0.936466 0.854904 0.528654
1.000000 0.876097 0.549847
0.288470 0.859408 0.451595
0.391226 0.880601 0.472789
0.493982 0.901795 0.493982
0.596739 0.922989 0.515176
0.699495 0.944182 0.536370
0.802251 0.965376 0.557563
0.905007 0.986569 0.578757
1.000000 1.000000 0.599950
1.000000 1.000000 0.621144
0.359767 1.000000 0.522892
0.462523 1.000000 0.544085
0.565279 1.000000 0.565279
0.668035 1.000000 0.586473
0.770791 1.000000 0.607666
0.873547 1.000000 0.628860
0.976303 1.000000 0.650053
1.000000 1.000000 0.671247
1.000000 1.000000 0.692440
0.000000 0.000000 0.041280
0.000000 0.000000 0.062473
0.002104 0.000000 0.083667
0.104861 0.000000 0.104861
0.207617 0.000000 0.126054
0.310373 0.000000 0.147248
0.413129 0.000000 0.168441
0.515885 0.000000 0.189635
0.618641 0.000000 0.210828
0.000000 0.000000 0.112576
0.000000 0.000000 0.133770
0.073401 0.000000 0.154963
0.176157 0.013032 0.176157
0.278913 0.034226 0.197351
0.381669 0.055419 0.218544
0.484425 0.076613 0.239738
0.587181 0.097806 0.260931
0.689937 0.119000 0.282125
0.000000 0.102310 0.183873
0.041941 0.123504 0.205066
0.144697 0.144697 0.226260
0.247453 0.165891 0.247453
0.350210 0.187085 0.268647
0.452966 0.208278 0.289841
0.555722 0.229472 0.311034
0.658478 0.250665 0.332228
0.761234 0.271859 0.353421
0.010482 0.255169 0.255169
0.113238 0.276363 0.276363
0.215994 0.297556 0.297556
0.318750 0.318750 0.318750
0.421506 0.339944 0.339944
0.524262 0.361137 0.361137
0.627018 0.382331 0.382331
0.729774 0.403524 0.403524
0.832530 0.424718 0.424718
0.081778 0.408028 0.326466
0.184534 0.429222 0.347659
0.287290 0.450415 0.368853
0.390046 0.471609 0.390046
0.492803 0.492803 0.411240
0.595559 0.513996 0.432434
0.698315 0.535190 0.453627
0.801071 0.556383 0.474821
0.903827 0.577577 0.496014
0.153075 0.560887 0.397762
0.255831 0.582081 0.418956
0.358587 0.603274 0.440149
0.461343 0.624468 0.461343
0.564099 0.645662 0.482537
0.666855 0.666855 0.503730
0.769611 0.688049 0.524924
0.872367 0.709242 0.546117
0.975123 0.730436 0.567311
0.224371 0.713746 0.469059
0.327127 0.734940 0.490252
0.429883 0.756133 0.511446
0.532640 0.777327 0.532640
0.635396 0.798521 0.553833
0.738152 0.819714 0.575027
0.840908 0.840908 0.596220
0.943664 0.862101 0.617414
1.000000 0.883295 0.638607
0.295668 0.866605 0.540355
0.398424 0.887799 0.561549
0.501180 0.908992 0.582742
0.603936 0.930186 0.603936
0.706692 0.951380 0.625130
0.809448 0.972573 0.646323
0.912204 0.993767 0.667517
1.000000 1.000000 0.688710
1.000000 1.000000 0.709904
0.366964 1.000000 0.611652
0.469720 1.000000 0.632845
0.572476 1.000000 0.654039
0.675232 1.000000 0.675232
0.777989 1.000000 0.696426
0.880745 1.000000 0.717620
0.983501 1.000000 0.738813
1.000000 1.000000 0.760007
1.000000 1.000000 0.781200
0.000000 0.000000 0.130040
0.000000 0.000000 0.151233
0.009302 0.000000 0.172427
0.112058 0.000000 0.193620
0.214814 0.000000 0.214814
0.317570 0.000000 0.236008
0.420326 0.000000 0.257201
0.523082 0.000000 0.278395
0.625838 0.000000 0.299588
0.000000 0.000000 0.201336
0.000000 0.000000 0.222530
0.080598 0.000000 0.243723
0.183354 0.020229 0.264917
0.286110 0.041423 0.286110
0.388867 0.062617 0.307304
0.491623 0.083810 0.328498
0.594379 0.105004 0.349691
0.697135 0.126197 0.370885
0.000000 0.109508 0.272633
0.049139 0.130701 0.293826
0.151895 0.151895 0.315020
0.254651 0.173088 0.336213
0.357407 0.194282 0.357407
0.460163 0.215476 0.378601
0.562919 0.236669 0.399794
0.665675 0.257863 0.420988
0.768431 0.279056 0.442181
0.017679 0.262367 0.343929
0.120435 0.283560 0.365123
0.223191 0.304754 0.386316
0.325947 0.325947 0.407510
0.428704 0.347141 0.428704
0.531460 0.368335 0.449897
0.634216 0.389528 0.471091
0.736972 0.410722 0.492284
0.839728 0.431915 0.513478
0.088976 0.415226 0.415226
0.191732 0.436419 0.436419
0.294488 0.457613 0.457613
0.397244 0.478806 0.478806
0.500000 0.500000 0.500000
0.602756 0.521194 0.521194
0.705512 0.542387 0.542387
0.808268 0.563581 0.563581
0.911024 0.584774 0.584774
0.160272 0.568085 0.486522
0.263028 0.589278 0.507716
0.365784 0.610472 0.528909
0.468540 0.631665 0.550103
0.571296 0.652859 0.571296
0.674053 0.674053 0.592490
0.776809 0.695246 0.613684
0.879565 0.716440 0.634877
0.982321 0.737633 0.656071
0.231569 0.720944 0.557819
0.334325 0.742137 0.579012
0.437081 0.763331 0.600206
0.539837 0.784524 0.621399
0.642593 0.805718 0.642593
0.745349 0.826912 0.663787
0.848105 0.848105 0.684980
0.950861 0.869299 0.706174
1.000000 0.890492 0.727367
0.302865 0.873803 0.629115
0.405621 0.894996 0.650309
0.508377 0.916190 0.671502
0.611133 0.937383 0.692696
0.713890 0.958577 0.713890
0.816646 0.979771 0.735083
0.919402 1.000000 0.756277
1.000000 1.000000 0.777470
1.000000 1.000000 0.798664
0.374162 1.000000 0.700412
0.476918 1.000000 0.721605
0.579674 1.000000 0.742799
0.682430 1.000000 0.763992
0.785186 1.000000 0.785186
0.887942 1.000000 0.806380
0.990698 1.000000 0.827573
1.000000 1.000000 0.848767
1.000000 1.000000 0.869960
0.000000 0.000000 0.218800
0.000000 0.000000 0.239993
0.016499 0.000000 0.261187
0.119255 0.000000 0.282380
0.222011 0.000000 0.303574
0.324767 0.000000 0.324767
0.427524 0.000000 0.345961
0.530280 0.000000 0.367155
0.633036 0.000000 0.388348
0.000000 0.000000 0.290096
0.000000 0.000000 0.311290
0.087796 0.006233 0.332483
0.190552 0.027427 0.353677
0.293308 0.048620 0.374870
0.396064 0.069814 0.396064
0.498820 0.091008 0.417258
0.601576 0.112201 0.438451
0.704332 0.133395 0.459645
0.000000 0.116705 0.361393
0.056336 0.137899 0.382586
0.159092 0.159092 0.403780
0.261848 0.180286 0.424973
0.364604 0.201479 0.446167
0.467361 0.222673 0.467361
0.570117 0.243867 0.488554
0.672873 0.265060 0.509748
0.775629 0.286254 0.530941
0.024877 0.269564 0.432689
0.127633 0.290758 0.453883
0.230389 0.311951 0.475076
0.333145 0.333145 0.496270
0.435901 0.354338 0.517463
0.538657 0.375532 0.538657
0.641413 0.396726 0.559851
0.744169 0.417919 0.581044
0.846925 0.439113 0.602238
0.096173 0.422423 0.503986
0.198929 0.443617 0.525179
0.301685 0.464810 0.546373
0.404441 0.486004 0.567566
0.507197 0.507197 0.588760
0.609953 0.528391 0.609953
0.712710 0.549585 0.631147
0.815466 0.570778 0.652341
0.918222 0.591972 0.673534
0.167470 0.575282 0.575282
0.270226 0.596476 0.596476
0.372982 0.617669 0.617669
0.475738 0.638863 0.638863
0.578494 0.660056 0.660056
0.681250 0.681250 0.681250
0.784006 0.702444 0.702444
0.886762 0.723637 0.723637
0.989518 0.744831 0.744831
0.238766 0.728141 0.646579
0.341522 0.749335 0.667772
0.444278 0.770528 0.688966
0.547034 0.791722 0.710159
0.649790 0.812915 0.731353
0.752547 0.834109 0.752547
0.855303 0.855303 0.773740
0.958059 0.876496 0.794934
1.000000 0.897690 0.816127
0.310063 0.881000 0.717875
0.412819 0.902194 0.739069
0.515575 0.923387 0.760262
0.618331 0.944581 0.781456
0.721087 0.965774 0.802649
0.823843 0.986968 0.823843
0.926599 1.000000 0.845037
1.000000 1.000000 0.866230
1.000000 1.000000 0.887424
0.381359 1.000000 0.789172
0.484115 1.000000 0.810365
0.586871 1.000000 0.831559
0.689627 1.000000 0.852752
0.792383 1.000000 0.873946
0.895139 1.000000 0.895139
0.997896 1.000000 0.916333
1.000000 1.000000 0.937527
1.000000 1.000000 0.958720
0.000000 0.000000 0.307560
0.000000 0.000000 0.328753
0.023697 0.000000 0.349947
0.126453 0.000000 0.371140
0.229209 0.000000 0.392334
0.331965 0.000000 0.413527
0.434721 0.000000 0.434721
0.537477 0.000000 0.455915
0.640233 0.000000 0.477108
0.000000 0.000000 0.378856
0.000000 0.000000 0.400050
0.094993 0.013431 0.421243
0.197749 0.034624 0.442437
0.300505 0.055818 0.463630
0.403261 0.077011 0.484824
0.506018 0.098205 0.506018
0.608774 0.119399 0.527211
0.711530 0.140592 0.548405
0.000000 0.123903 0.450153
0.063534 0.145096 0.471346
0.166290 0.166290 0.492540
0.269046 0.187483 0.513733
0.371802 0.208677 0.534927
0.474558 0.229870 0.556120
0.577314 0.251064 0.577314
0.680070 0.272258 0.598508
0.782826 0.293451 0.619701
0.032074 0.276762 0.521449
0.134830 0.297955 0.542643
0.237586 0.319149 0.563836
0.340342 0.340342 0.585030
0.443098 0.361536 0.606223
0.545854 0.382729 0.627417
0.648610 0.403923 0.648610
0.751367 0.425117 0.669804
0.854123 0.446310 0.690998
0.103371 0.429621 0.592746
0.206127 0.450814 0.613939
0.308883 0.472008 0.635133
0.411639 0.493201 0.656326
0.514395 0.514395 0.677520
0.617151 0.535588 0.698713
0.719907 0.556782 0.719907
0.822663 0.577976 0.741101
0.925419 0.599169 0.762294
0.174667 0.582480 0.664042
0.277423 0.603673 0.685236
0.380179 0.624867 0.706429
0.482935 0.646060 0.727623
0.585691 0.667254 0.748816
0.688447 0.688447 0.770010
0.791203 0.709641 0.791203
0.893960 0.730835 0.812397
0.996716 0.752028 0.833591
0.245964 0.735339 0.735339
0.348720 0.756532 0.756532
0.451476 0.777726 0.777726
0.554232 0.798919 0.798919
0.656988 0.820113 0.820113
0.759744 0.841306 0.841306
0.862500 0.862500 0.862500
0.965256 0.883694 0.883694
1.000000 0.904887 0.904887
0.317260 0.888198 0.806635
0.420016 0.909391 0.827829
0.522772 0.930585 0.849022
0.625528 0.951778 0.870216
0.728284 0.972972 0.891409
0.831040 0.994165 0.912603
0.933796 1.000000 0.933796
1.000000 1.000000 0.954990
1.000000 1.000000 0.976184
0.388557 1.000000 0.877932
0.491313 1.000000 0.899125
0.594069 1.000000 0.920319
0.696825 1.000000 0.941512
0.799581 1.000000 0.962706
0.902337 1.000000 0.983899
1.000000 1.000000 1.000000
1.000000 1.000000 1.000000
1.000000 1.000000 1.000000
0.000000 0.000000 0.396320
0.000000 0.000000 0.417513
0.030894 0.000000 0.438707
0.133650 0.000000 0.459900
0.236406 0.000000 0.481094
0.339162 0.000000 0.502287
0.441918 0.000000 0.523481
0.544674 0.000000 0.544674
0.647431 0.000000 0.565868
0.000000 0.000000 0.467616
0.000000 0.000000 0.488810
0.102191 0.020628 0.510003
0.204947 0.041822 0.531197
0.307703 0.063015 0.552390
0.410459 0.084209 0.573584
0.513215 0.105402 0.594777
0.615971 0.126596 0.615971
0.718727 0.147790 0.637165
0.000000 0.131100 0.538913
0.070731 0.152294 0.560106
0.173487 0.173487 0.581300
0.276243 0.194681 0.602493
0.378999 0.215874 0.623687
0.481755 0.237068 0.644880
0.584511 0.258261 0.666074
0.687267 0.279455 0.687267
0.790024 0.300649 0.708461
0.039272 0.283959 0.610209
0.142028 0.305153 0.631403
0.244784 0.326346 0.652596
0.347540 0.347540 0.673790
0.450296 0.368733 0.694983
0.553052 0.389927 0.716177
0.655808 0.411120 0.737370
0.758564 0.432314 0.758564
0.861320 0.453508 0.779758
0.110568 0.436818 0.681506
0.213324 0.458012 0.702699
0.316080 0.479205 0.723893
0.418836 0.500399 0.745086
0.521592 0.521592 0.766280
0.624348 0.542786 0.787473
0.727104 0.563979 0.808667
0.829860 0.585173 0.829860
0.932617 0.606367 0.851054
0.181865 0.589677 0.752802
0.284621 0.610871 0.773996
0.387377 0.632064 0.795189
0.490133 0.653258 0.816383
0.592889 0.674451 0.837576
0.695645 0.695645 0.858770
0.798401 0.716838 0.879963
0.901157 0.738032 0.901157
1.000000 0.759226 0.922351
0.253161 0.742536 0.824099
0.355917 0.763730 0.845292
0.458673 0.784923 0.866486
0.561429 0.806117 0.887679
0.664185 0.827310 0.908873
0.766941 0.848504 0.930066
0.869697 0.869697 0.951260
0.972453 0.890891 0.972453
1.000000 0.912085 0.993647
0.324458 0.895395 0.895395
0.427214 0.916589 0.916589
0.529970 0.937782 0.937782
0.632726 0.958976 0.958976
0.735482 0.980169 0.980169
0.838238 1.000000 1.000000
0.940994 1.000000 1.000000
1.000000 1.000000 1.000000
1.000000 1.000000 1.000000
0.395754 1.000000 0.966692
0.498510 1.000000 0.987885
0.601266 1.000000 1.000000
0.704022 1.000000 1.000000
0.806778 1.000000 1.000000
0.909534 1.000000 1.000000
1.000000 1.000000 1.000000
1.000000 1.000000 1.000000
1.000000 1.000000 1.000000
0.000000 0.000000 0.485079
0.000000 0.000000 0.506273
0.038092 0.000000 0.527467
0.140848 0.000000 0.548660
0.243604 0.000000 0.569854
0.346360 0.000000 0.591047
0.449116 0.000000 0.612241
0.551872 0.000000 0.633434
0.654628 0.002128 0.654628
0.000000 0.000000 0.556376
0.006632 0.006632 0.577570
0.109388 0.027826 0.598763
0.212144 0.049019 0.619957
0.314900 0.070213 0.641150
0.417656 0.091406 0.662344
0.520412 0.112600 0.683537
0.623168 0.133793 0.704731
0.725924 0.154987 0.725924
0.000000 0.138298 0.627672
0.077929 0.159491 0.648866
0.180685 0.180685 0.670060
0.283441 0.201878 0.691253
0.386197 0.223072 0.712447
0.488953 0.244265 0.733640
0.591709 0.265459 0.754834
0.694465 0.286652 0.776027
0.797221 0.307846 0.797221
0.046469 0.291157 0.698969
0.149225 0.312350 0.720163
0.251981 0.333544 0.741356
0.354737 0.354737 0.762550
0.457493 0.375931 0.783743
0.560249 0.397124 0.804937
0.663005 0.418318 0.826130
0.765761 0.439511 0.847324
0.868518 0.460705 0.868518
0.117766 0.444015 0.770266
0.220522 0.465209 0.791459
0.323278 0.486403 0.812653
0.426034 0.507596 0.833846
0.528790 0.528790 0.855040
0.631546 0.549983 0.876233
0.734302 0.571177 0.897427
0.837058 0.592370 0.918620
0.939814 0.613564 0.939814
0.189062 0.596875 0.841562
0.291818 0.618068 0.862756
0.394574 0.639262 0.883949
0.497330 0.660455 0.905143
0.600086 0.681649 0.926336
0.702842 0.702842 0.947530
0.805598 0.724036 0.968723
0.908354 0.745229 0.989917
1.000000 0.766423 1.000000
0.260359 0.749734 0.912859
0.363115 0.770927 0.934052
0.465871 0.792121 0.955246
0.568627 0.813314 0.976439
0.671383 0.834508 0.997633
0.774139 0.855701 1.000000
0.876895 0.876895 1.000000
0.979651 0.898088 1.000000
1.000000 0.919282 1.000000
0.331655 0.902592 0.984155
0.434411 0.923786 1.000000
0.537167 0.944980 1.000000
0.639923 0.966173 1.000000
0.742679 0.987367 1.000000
0.845435 1.000000 1.000000
0.948191 1.000000 1.000000
1.000000 1.000000 1.000000
1.000000 1.000000 1.000000
0.402952 1.000000 1.000000
0.505708 1.000000 1.000000
0.608464 1.000000 1.000000
0.711220 1.000000 1.000000
0.813976 1.000000 1.000000
0.916732 1.000000 1.000000
1.000000 1.000000 1.000000
1.000000 1.000000 1.000000
1.000000 1.000000 1.000000
