app/src/main/assets/luts/Bleach_Bypass.cube
TITLE "Bleach Bypass"
# Generated by editclips.online — free to use
DOMAIN_MIN 0.0 0.0 0.0
DOMAIN_MAX 1.0 1.0 1.0
LUT_3D_SIZE 5
0.000000 0.000000 0.000000
0.000000 0.000000 0.000000
0.186024 0.000000 0.000000
0.391536 0.000000 0.000000
0.597048 0.000000 0.000000
0.000000 0.080718 0.000000
0.123105 0.123105 0.000000
0.328617 0.165492 0.002367
0.534129 0.207879 0.044754
0.739642 0.250267 0.087141
0.060186 0.386436 0.060186
0.265698 0.428823 0.102573
0.471210 0.471210 0.144960
0.676722 0.513597 0.187347
0.882235 0.555985 0.229735
0.202779 0.692154 0.202779
0.408291 0.734541 0.245166
0.613803 0.776928 0.287553
0.819315 0.819315 0.329940
1.000000 0.861702 0.372327
0.345372 0.997872 0.345372
0.550884 1.000000 0.387759
0.756396 1.000000 0.430146
0.961908 1.000000 0.472533
1.000000 1.000000 0.514920
0.000000 0.000000 0.000000
0.000000 0.000000 0.000000
0.200419 0.000000 0.037294
0.405931 0.000000 0.079681
0.611443 0.000000 0.122068
0.000000 0.095113 0.095113
0.137500 0.137500 0.137500
0.343012 0.179887 0.179887
0.548524 0.222274 0.222274
0.754036 0.264661 0.264661
0.074581 0.400831 0.237706
0.280093 0.443218 0.280093
0.485605 0.485605 0.322480
0.691117 0.527992 0.364867
0.896629 0.570379 0.407254
0.217174 0.706549 0.380299
0.422686 0.748936 0.422686
0.628198 0.791323 0.465073
0.833710 0.833710 0.507460
1.000000 0.876097 0.549847
0.359767 1.000000 0.522892
0.565279 1.000000 0.565279
0.770791 1.000000 0.607666
0.976303 1.000000 0.650053
1.000000 1.000000 0.692440
0.000000 0.000000 0.130040
0.009302 0.000000 0.172427
0.214814 0.000000 0.214814
0.420326 0.000000 0.257201
0.625838 0.000000 0.299588
0.000000 0.109508 0.272633
0.151895 0.151895 0.315020
0.357407 0.194282 0.357407
0.562919 0.236669 0.399794
0.768431 0.279056 0.442181
0.088976 0.415226 0.415226
0.294488 0.457613 0.457613
0.500000 0.500000 0.500000
0.705512 0.542387 0.542387
0.911024 0.584774 0.584774
0.231569 0.720944 0.557819
0.437081 0.763331 0.600206
0.642593 0.805718 0.642593
0.848105 0.848105 0.684980
1.000000 0.890492 0.727367
0.374162 1.000000 0.700412
0.579674 1.000000 0.742799
0.785186 1.000000 0.785186
0.990698 1.000000 0.827573
1.000000 1.000000 0.869960
0.000000 0.000000 0.307560
0.023697 0.000000 0.349947
0.229209 0.000000 0.392334
0.434721 0.000000 0.434721
0.640233 0.000000 0.477108
0.000000 0.123903 0.450153
0.166290 0.166290 0.492540
0.371802 0.208677 0.534927
0.577314 0.251064 0.577314
0.782826 0.293451 0.619701
0.103371 0.429621 0.592746
0.308883 0.472008 0.635133
0.514395 0.514395 0.677520
0.719907 0.556782 0.719907
0.925419 0.599169 0.762294
0.245964 0.735339 0.735339
0.451476 0.777726 0.777726
0.656988 0.820113 0.820113
0.862500 0.862500 0.862500
1.000000 0.904887 0.904887
0.388557 1.000000 0.877932
0.594069 1.000000 0.920319
0.799581 1.000000 0.962706
1.000000 1.000000 1.000000
1.000000 1.000000 1.000000
0.000000 0.000000 0.485079
0.038092 0.000000 0.527467
0.243604 0.000000 0.569854
0.449116 0.000000 0.612241
0.654628 0.002128 0.654628
0.000000 0.138298 0.627672
0.180685 0.180685 0.670060
0.386197 0.223072 0.712447
0.591709 0.265459 0.754834
0.797221 0.307846 0.797221
0.117766 0.444015 0.770266
0.323278 0.486403 0.812653
0.528790 0.528790 0.855040
0.734302 0.571177 0.897427
0.939814 0.613564 0.939814
0.260359 0.749734 0.912859
0.465871 0.792121 0.955246
0.671383 0.834508 0.997633
0.876895 0.876895 1.000000
1.000000 0.919282 1.000000
0.402952 1.000000 1.000000
0.608464 1.000000 1.000000
0.813976 1.000000 1.000000
1.000000 1.000000 1.000000
1.000000 1.000000 1.000000
