app/src/main/assets/luts/Bleach_Bypass.cube
TITLE "Bleach Bypass"
# Generated by editclips.online — free to use
DOMAIN_MIN 0.0 0.0 0.0
DOMAIN_MAX 1.0 1.0 1.0
LUT_3D_SIZE 33
0.000000 0.000000 0.000000
0.000000 0.000000 0.000000
0.000000 0.000000 0.000000
0.000000 0.000000 0.000000
0.000000 0.000000 0.000000
0.000000 0.000000 0.000000
0.000000 0.000000 0.000000
0.000000 0.000000 0.000000
0.000000 0.000000 0.000000
0.006201 0.000000 0.000000
0.031890 0.000000 0.000000
0.057579 0.000000 0.000000
0.083268 0.000000 0.000000
0.108957 0.000000 0.000000
0.134646 0.000000 0.000000
0.160335 0.000000 0.000000
0.186024 0.000000 0.000000
0.211713 0.000000 0.000000
0.237402 0.000000 0.000000
0.263091 0.000000 0.000000
0.288780 0.000000 0.000000
0.314469 0.000000 0.000000
0.340158 0.000000 0.000000
0.365847 0.000000 0.000000
0.391536 0.000000 0.000000
0.417225 0.000000 0.000000
0.442914 0.000000 0.000000
0.468603 0.000000 0.000000
0.494292 0.000000 0.000000
0.519981 0.000000 0.000000
0.545670 0.000000 0.000000
0.571359 0.000000 0.000000
0.597048 0.000000 0.000000
0.000000 0.000000 0.000000
0.000000 0.000000 0.000000
0.000000 0.000000 0.000000
0.000000 0.000000 0.000000
0.000000 0.000000 0.000000
0.000000 0.000000 0.000000
0.000000 0.000000 0.000000
0.000000 0.000000 0.000000
0.000000 0.000000 0.000000
0.024025 0.000000 0.000000
0.049714 0.000000 0.000000
0.075403 0.000000 0.000000
0.101092 0.000000 0.000000
0.126781 0.000000 0.000000
0.152470 0.000000 0.000000
0.178159 0.000000 0.000000
0.203848 0.000000 0.000000
0.229537 0.000000 0.000000
0.255226 0.000000 0.000000
0.280915 0.000000 0.000000
0.306604 0.000000 0.000000
0.332293 0.000000 0.000000
0.357982 0.000000 0.000000
0.383671 0.000000 0.000000
0.409361 0.000000 0.000000
0.435050 0.000000 0.000000
0.460739 0.000000 0.000000
0.486428 0.000000 0.000000
0.512117 0.000000 0.000000
0.537806 0.000000 0.000000
0.563495 0.000000 0.000000
0.589184 0.000000 0.000000
0.614873 0.000000 0.000000
0.000000 0.000000 0.000000
0.000000 0.000000 0.000000
0.000000 0.000000 0.000000
0.000000 0.000000 0.000000
0.000000 0.000000 0.000000
0.000000 0.000000 0.000000
0.000000 0.000000 0.000000
0.000000 0.000000 0.000000
0.016160 0.000000 0.000000
0.041849 0.000000 0.000000
0.067538 0.000000 0.000000
0.093227 0.000000 0.000000
0.118916 0.000000 0.000000
0.144605 0.000000 0.000000
0.170294 0.000000 0.000000
0.195983 0.000000 0.000000
0.221672 0.000000 0.000000
0.247362 0.000000 0.000000
0.273051 0.000000 0.000000
0.298740 0.000000 0.000000
0.324429 0.000000 0.000000
0.350118 0.000000 0.000000
0.375807 0.000000 0.000000
0.401496 0.000000 0.000000
0.427185 0.000000 0.000000
0.452874 0.000000 0.000000
0.478563 0.000000 0.000000
0.504252 0.000000 0.000000
0.529941 0.000000 0.000000
0.555630 0.005083 0.000000
0.581319 0.010381 0.000000
0.607008 0.015680 0.000000
0.632697 0.020978 0.000000
0.000000 0.000000 0.000000
0.000000 0.000000 0.000000
0.000000 0.000000 0.000000
0.000000 0.000000 0.000000
0.000000 0.000000 0.000000
0.000000 0.000000 0.000000
0.000000 0.000000 0.000000
0.008295 0.000000 0.000000
0.033985 0.000000 0.000000
0.059674 0.000000 0.000000
0.085363 0.000000 0.000000
0.111052 0.000000 0.000000
0.136741 0.000000 0.000000
0.162430 0.000000 0.000000
0.188119 0.000000 0.000000
0.213808 0.000000 0.000000
0.239497 0.000000 0.000000
0.265186 0.000000 0.000000
0.290875 0.000000 0.000000
0.316564 0.000000 0.000000
0.342253 0.000000 0.000000
0.367942 0.000910 0.000000
0.393631 0.006209 0.000000
0.419320 0.011507 0.000000
0.445009 0.016806 0.000000
0.470698 0.022104 0.000000
0.496387 0.027402 0.000000
0.522076 0.032701 0.000000
0.547765 0.037999 0.000000
0.573454 0.043298 0.000000
0.599143 0.048596 0.000000
0.624832 0.053894 0.000000
0.650521 0.059193 0.000000
0.000000 0.000000 0.000000
0.000000 0.000000 0.000000
0.000000 0.000000 0.000000
0.000000 0.000000 0.000000
0.000000 0.000000 0.000000
0.000000 0.000000 0.000000
0.000431 0.000000 0.000000
0.026120 0.000000 0.000000
0.051809 0.000000 0.000000
0.077498 0.000000 0.000000
0.103187 0.000000 0.000000
0.128876 0.000000 0.000000
0.154565 0.000000 0.000000
0.180254 0.000000 0.000000
0.205943 0.002036 0.000000
0.231632 0.007335 0.000000
0.257321 0.012633 0.000000
0.283010 0.017932 0.000000
0.308699 0.023230 0.000000
0.334388 0.028528 0.000000
0.360077 0.033827 0.000000
0.385766 0.039125 0.000000
0.411455 0.044424 0.000000
0.437144 0.049722 0.000000
0.462833 0.055020 0.000000
0.488522 0.060319 0.000000
0.514211 0.065617 0.000000
0.539900 0.070916 0.000000
0.565589 0.076214 0.000000
0.591278 0.081512 0.000000
0.616967 0.086811 0.005248
0.642656 0.092109 0.010547
0.668345 0.097407 0.015845
0.000000 0.000000 0.000000
0.000000 0.000000 0.000000
0.000000 0.000000 0.000000
0.000000 0.000000 0.000000
0.000000 0.000000 0.000000
0.000000 0.000000 0.000000
0.018255 0.000000 0.000000
0.043944 0.003162 0.000000
0.069633 0.008461 0.000000
0.095322 0.013759 0.000000
0.121011 0.019058 0.000000
0.146700 0.024356 0.000000
0.172389 0.029654 0.000000
0.198078 0.034953 0.000000
0.223767 0.040251 0.000000
0.249456 0.045550 0.000000
0.275145 0.050848 0.000000
0.300834 0.056146 0.000000
0.326523 0.061445 0.000000
0.352212 0.066743 0.000000
0.377901 0.072042 0.000000
0.403590 0.077340 0.000000
0.429279 0.082638 0.000000
0.454968 0.087937 0.000000
0.480657 0.093235 0.000000
0.506346 0.098534 0.000000
0.532035 0.103832 0.001879
0.557724 0.109130 0.007177
0.583413 0.114429 0.012476
0.609102 0.119727 0.017774
0.634791 0.125025 0.023072
0.660480 0.130324 0.028371
0.686169 0.135622 0.033669
0.000000 0.004289 0.000000
0.000000 0.009587 0.000000
0.000000 0.014885 0.000000
0.000000 0.020184 0.000000
0.000000 0.025482 0.000000
0.010390 0.030780 0.000000
0.036079 0.036079 0.000000
0.061768 0.041377 0.000000
0.087457 0.046676 0.000000
0.113146 0.051974 0.000000
0.138835 0.057272 0.000000
0.164524 0.062571 0.000000
0.190213 0.067869 0.000000
0.215902 0.073168 0.000000
0.241591 0.078466 0.000000
0.267280 0.083764 0.000000
0.292969 0.089063 0.000000
0.318658 0.094361 0.000000
0.344347 0.099660 0.000000
0.370036 0.104958 0.000000
0.395725 0.110256 0.000000
0.421414 0.115555 0.000000
0.447103 0.120853 0.000000
0.472792 0.126151 0.003808
0.498481 0.131450 0.009106
0.524170 0.136748 0.014405
0.549859 0.142047 0.019703
0.575548 0.147345 0.025001
0.601237 0.152643 0.030300
0.626926 0.157942 0.035598
0.652615 0.163240 0.040896
0.678304 0.168539 0.046195
0.703993 0.173837 0.051493
0.000000 0.042503 0.000000
0.000000 0.047802 0.000000
0.000000 0.053100 0.000000
0.000000 0.058398 0.000000
0.002525 0.063697 0.000000
0.028214 0.068995 0.000000
0.053903 0.074294 0.000000
0.079592 0.079592 0.000000
0.105281 0.084890 0.000000
0.130970 0.090189 0.000000
0.156659 0.095487 0.000000
0.182348 0.100786 0.000000
0.208037 0.106084 0.000000
0.233726 0.111382 0.000000
0.259415 0.116681 0.000000
0.285104 0.121979 0.000000
0.310793 0.127277 0.000000
0.336482 0.132576 0.000000
0.362171 0.137874 0.000000
0.387860 0.143173 0.000438
0.413549 0.148471 0.005737
0.439238 0.153769 0.011035
0.464927 0.159068 0.016333
0.490616 0.164366 0.021632
0.516305 0.169665 0.026930
0.541994 0.174963 0.032229
0.567683 0.180261 0.037527
0.593372 0.185560 0.042825
0.619061 0.190858 0.048124
0.644750 0.196157 0.053422
0.670439 0.201455 0.058721
0.696128 0.206753 0.064019
0.721817 0.212052 0.069317
0.000000 0.080718 0.000000
0.000000 0.086016 0.000000
0.000000 0.091315 0.000000
0.000000 0.096613 0.000000
0.020349 0.101912 0.000000
0.046038 0.107210 0.000000
0.071727 0.112508 0.000000
0.097416 0.117807 0.000000
0.123105 0.123105 0.000000
0.148794 0.128404 0.000000
0.174483 0.133702 0.000000
0.200172 0.139000 0.000000
0.225861 0.144299 0.000000
0.251550 0.149597 0.000000
0.277239 0.154895 0.000000
0.302928 0.160194 0.000000
0.328617 0.165492 0.002367
0.354306 0.170791 0.007666
0.379995 0.176089 0.012964
0.405684 0.181387 0.018262
0.431373 0.186686 0.023561
0.457062 0.191984 0.028859
0.482751 0.197283 0.034158
0.508440 0.202581 0.039456
0.534129 0.207879 0.044754
0.559818 0.213178 0.050053
0.585507 0.218476 0.055351
0.611196 0.223775 0.060650
0.636885 0.229073 0.065948
0.662574 0.234371 0.071246
0.688263 0.239670 0.076545
0.713952 0.244968 0.081843
0.739642 0.250267 0.087141
0.000000 0.118933 0.000000
0.000000 0.124231 0.000000
0.000000 0.129530 0.000000
0.012484 0.134828 0.000000
0.038173 0.140126 0.000000
0.063862 0.145425 0.000000
0.089551 0.150723 0.000000
0.115240 0.156021 0.000000
0.140929 0.161320 0.000000
0.166618 0.166618 0.000000
0.192307 0.171917 0.000000
0.217996 0.177215 0.000000
0.243685 0.182513 0.000000
0.269374 0.187812 0.004296
0.295063 0.193110 0.009595
0.320752 0.198409 0.014893
0.346441 0.203707 0.020191
0.372130 0.209005 0.025490
0.397819 0.214304 0.030788
0.423508 0.219602 0.036087
0.449197 0.224901 0.041385
0.474886 0.230199 0.046683
0.500575 0.235497 0.051982
0.526264 0.240796 0.057280
0.551953 0.246094 0.062579
0.577643 0.251393 0.067877
0.603332 0.256691 0.073175
0.629021 0.261989 0.078474
0.654710 0.267288 0.083772
0.680399 0.272586 0.089070
0.706088 0.277884 0.094369
0.731777 0.283183 0.099667
0.757466 0.288481 0.104966
0.000000 0.157147 0.000000
0.000000 0.162446 0.000000
0.004619 0.167744 0.000000
0.030308 0.173043 0.000000
0.055997 0.178341 0.000000
0.081686 0.183639 0.000000
0.107375 0.188938 0.000000
0.133064 0.194236 0.000000
0.158753 0.199535 0.000000
0.184442 0.204833 0.000927
0.210131 0.210131 0.006225
0.235820 0.215430 0.011524
0.261509 0.220728 0.016822
0.287198 0.226027 0.022120
0.312887 0.231325 0.027419
0.338576 0.236623 0.032717
0.364265 0.241922 0.038016
0.389955 0.247220 0.043314
0.415644 0.252519 0.048612
0.441333 0.257817 0.053911
0.467022 0.263115 0.059209
0.492711 0.268414 0.064507
0.518400 0.273712 0.069806
0.544089 0.279010 0.075104
0.569778 0.284309 0.080403
0.595467 0.289607 0.085701
0.621156 0.294906 0.090999
0.646845 0.300204 0.096298
0.672534 0.305502 0.101596
0.698223 0.310801 0.106895
0.723912 0.316099 0.112193
0.749601 0.321398 0.117491
0.775290 0.326696 0.122790
0.000000 0.195362 0.000000
0.000000 0.200661 0.000000
0.022443 0.205959 0.000000
0.048132 0.211257 0.000000
0.073821 0.216556 0.000000
0.099510 0.221854 0.000000
0.125199 0.227153 0.002856
0.150888 0.232451 0.008154
0.176577 0.237749 0.013452
0.202267 0.243048 0.018751
0.227956 0.248346 0.024049
0.253645 0.253645 0.029348
0.279334 0.258943 0.034646
0.305023 0.264241 0.039944
0.330712 0.269540 0.045243
0.356401 0.274838 0.050541
0.382090 0.280136 0.055840
0.407779 0.285435 0.061138
0.433468 0.290733 0.066436
0.459157 0.296032 0.071735
0.484846 0.301330 0.077033
0.510535 0.306628 0.082332
0.536224 0.311927 0.087630
0.561913 0.317225 0.092928
0.587602 0.322524 0.098227
0.613291 0.327822 0.103525
0.638980 0.333120 0.108824
0.664669 0.338419 0.114122
0.690358 0.343717 0.119420
0.716047 0.349016 0.124719
0.741736 0.354314 0.130017
0.767425 0.359612 0.135315
0.793114 0.364911 0.140614
0.000000 0.233577 0.000000
0.014579 0.238875 0.000000
0.040268 0.244174 0.000000
0.065957 0.249472 0.004785
0.091646 0.254771 0.010083
0.117335 0.260069 0.015381
0.143024 0.265367 0.020680
0.168713 0.270666 0.025978
0.194402 0.275964 0.031277
0.220091 0.281263 0.036575
0.245780 0.286561 0.041873
0.271469 0.291859 0.047172
0.297158 0.297158 0.052470
0.322847 0.302456 0.057769
0.348536 0.307754 0.063067
0.374225 0.313053 0.068365
0.399914 0.318351 0.073664
0.425603 0.323650 0.078962
0.451292 0.328948 0.084261
0.476981 0.334246 0.089559
0.502670 0.339545 0.094857
0.528359 0.344843 0.100156
0.554048 0.350142 0.105454
0.579737 0.355440 0.110752
0.605426 0.360738 0.116051
0.631115 0.366037 0.121349
0.656804 0.371335 0.126648
0.682493 0.376634 0.131946
0.708182 0.381932 0.137244
0.733871 0.387230 0.142543
0.759560 0.392529 0.147841
0.785249 0.397827 0.153140
0.810938 0.403126 0.158438
0.006714 0.271792 0.006714
0.032403 0.277090 0.012012
0.058092 0.282389 0.017310
0.083781 0.287687 0.022609
0.109470 0.292985 0.027907
0.135159 0.298284 0.033206
0.160848 0.303582 0.038504
0.186537 0.308880 0.043802
0.212226 0.314179 0.049101
0.237915 0.319477 0.054399
0.263604 0.324776 0.059698
0.289293 0.330074 0.064996
0.314982 0.335372 0.070294
0.340671 0.340671 0.075593
0.366360 0.345969 0.080891
0.392049 0.351268 0.086189
0.417738 0.356566 0.091488
0.443427 0.361864 0.096786
0.469116 0.367163 0.102085
0.494805 0.372461 0.107383
0.520494 0.377760 0.112681
0.546183 0.383058 0.117980
0.571872 0.388356 0.123278
0.597561 0.393655 0.128577
0.623250 0.398953 0.133875
0.648939 0.404252 0.139173
0.674628 0.409550 0.144472
0.700317 0.414848 0.149770
0.726006 0.420147 0.155069
0.751695 0.425445 0.160367
0.777384 0.430743 0.165665
0.803073 0.436042 0.170964
0.828762 0.441340 0.176262
0.024538 0.310006 0.024538
0.050227 0.315305 0.029836
0.075916 0.320603 0.035135
0.101605 0.325902 0.040433
0.127294 0.331200 0.045731
0.152983 0.336498 0.051030
0.178672 0.341797 0.056328
0.204361 0.347095 0.061626
0.230050 0.352394 0.066925
0.255739 0.357692 0.072223
0.281428 0.362990 0.077522
0.307117 0.368289 0.082820
0.332806 0.373587 0.088118
0.358495 0.378886 0.093417
0.384184 0.384184 0.098715
0.409873 0.389482 0.104014
0.435562 0.394781 0.109312
0.461251 0.400079 0.114610
0.486940 0.405378 0.119909
0.512629 0.410676 0.125207
0.538318 0.415974 0.130506
0.564007 0.421273 0.135804
0.589696 0.426571 0.141102
0.615385 0.431869 0.146401
0.641074 0.437168 0.151699
0.666763 0.442466 0.156998
0.692452 0.447765 0.162296
0.718141 0.453063 0.167594
0.743830 0.458361 0.172893
0.769519 0.463660 0.178191
0.795208 0.468958 0.183489
0.820897 0.474257 0.188788
0.846586 0.479555 0.194086
0.042362 0.348221 0.042362
0.068051 0.353520 0.047660
0.093740 0.358818 0.052959
0.119429 0.364116 0.058257
0.145118 0.369415 0.063555
0.170807 0.374713 0.068854
0.196496 0.380012 0.074152
0.222185 0.385310 0.079451
0.247874 0.390608 0.084749
0.273563 0.395907 0.090047
0.299252 0.401205 0.095346
0.324941 0.406504 0.100644
0.350630 0.411802 0.105943
0.376319 0.417100 0.111241
0.402008 0.422399 0.116539
0.427697 0.427697 0.121838
0.453386 0.432996 0.127136
0.479075 0.438294 0.132435
0.504764 0.443592 0.137733
0.530453 0.448891 0.143031
0.556142 0.454189 0.148330
0.581831 0.459487 0.153628
0.607520 0.464786 0.158926
0.633209 0.470084 0.164225
0.658898 0.475383 0.169523
0.684587 0.480681 0.174822
0.710276 0.485979 0.180120
0.735965 0.491278 0.185418
0.761654 0.496576 0.190717
0.787343 0.501875 0.196015
0.813032 0.507173 0.201314
0.838721 0.512471 0.206612
0.864410 0.517770 0.211910
0.060186 0.386436 0.060186
0.085875 0.391734 0.065484
0.111564 0.397033 0.070783
0.137253 0.402331 0.076081
0.162942 0.407630 0.081380
0.188631 0.412928 0.086678
0.214320 0.418226 0.091976
0.240009 0.423525 0.097275
0.265698 0.428823 0.102573
0.291387 0.434122 0.107872
0.317076 0.439420 0.113170
0.342765 0.444718 0.118468
0.368454 0.450017 0.123767
0.394143 0.455315 0.129065
0.419832 0.460613 0.134363
0.445521 0.465912 0.139662
0.471210 0.471210 0.144960
0.496899 0.476509 0.150259
0.522588 0.481807 0.155557
0.548277 0.487105 0.160855
0.573966 0.492404 0.166154
0.599655 0.497702 0.171452
0.625344 0.503001 0.176751
0.651033 0.508299 0.182049
0.676722 0.513597 0.187347
0.702411 0.518896 0.192646
0.728100 0.524194 0.197944
0.753789 0.529493 0.203243
0.779478 0.534791 0.208541
0.805167 0.540089 0.213839
0.830856 0.545388 0.219138
0.856545 0.550686 0.224436
0.882235 0.555985 0.229735
0.078010 0.424651 0.078010
0.103699 0.429949 0.083309
0.129388 0.435248 0.088607
0.155077 0.440546 0.093905
0.180766 0.445844 0.099204
0.206455 0.451143 0.104502
0.232144 0.456441 0.109800
0.257833 0.461739 0.115099
0.283522 0.467038 0.120397
0.309211 0.472336 0.125696
0.334900 0.477635 0.130994
0.360589 0.482933 0.136292
0.386278 0.488231 0.141591
0.411967 0.493530 0.146889
0.437656 0.498828 0.152188
0.463345 0.504127 0.157486
0.489034 0.509425 0.162784
0.514723 0.514723 0.168083
0.540412 0.520022 0.173381
0.566101 0.525320 0.178680
0.591790 0.530619 0.183978
0.617479 0.535917 0.189276
0.643168 0.541215 0.194575
0.668857 0.546514 0.199873
0.694546 0.551812 0.205172
0.720236 0.557111 0.210470
0.745925 0.562409 0.215768
0.771614 0.567707 0.221067
0.797303 0.573006 0.226365
0.822992 0.578304 0.231663
0.848681 0.583602 0.236962
0.874370 0.588901 0.242260
0.900059 0.594199 0.247559
0.095834 0.462865 0.095834
0.121523 0.468164 0.101133
0.147212 0.473462 0.106431
0.172901 0.478761 0.111729
0.198590 0.484059 0.117028
0.224279 0.489357 0.122326
0.249968 0.494656 0.127625
0.275657 0.499954 0.132923
0.301346 0.505253 0.138221
0.327035 0.510551 0.143520
0.352724 0.515849 0.148818
0.378413 0.521148 0.154117
0.404102 0.526446 0.159415
0.429791 0.531745 0.164713
0.455480 0.537043 0.170012
0.481169 0.542341 0.175310
0.506858 0.547640 0.180608
0.532548 0.552938 0.185907
0.558237 0.558237 0.191205
0.583926 0.563535 0.196504
0.609615 0.568833 0.201802
0.635304 0.574132 0.207100
0.660993 0.579430 0.212399
0.686682 0.584728 0.217697
0.712371 0.590027 0.222996
0.738060 0.595325 0.228294
0.763749 0.600624 0.233592
0.789438 0.605922 0.238891
0.815127 0.611220 0.244189
0.840816 0.616519 0.249488
0.866505 0.621817 0.254786
0.892194 0.627116 0.260084
0.917883 0.632414 0.265383
0.113658 0.501080 0.113658
0.139347 0.506379 0.118957
0.165036 0.511677 0.124255
0.190725 0.516975 0.129554
0.216414 0.522274 0.134852
0.242103 0.527572 0.140150
0.267792 0.532871 0.145449
0.293481 0.538169 0.150747
0.319171 0.543467 0.156045
0.344860 0.548766 0.161344
0.370549 0.554064 0.166642
0.396238 0.559363 0.171941
0.421927 0.564661 0.177239
0.447616 0.569959 0.182537
0.473305 0.575258 0.187836
0.498994 0.580556 0.193134
0.524683 0.585854 0.198433
0.550372 0.591153 0.203731
0.576061 0.596451 0.209029
0.601750 0.601750 0.214328
0.627439 0.607048 0.219626
0.653128 0.612346 0.224925
0.678817 0.617645 0.230223
0.704506 0.622943 0.235521
0.730195 0.628242 0.240820
0.755884 0.633540 0.246118
0.781573 0.638838 0.251417
0.807262 0.644137 0.256715
0.832951 0.649435 0.262013
0.858640 0.654734 0.267312
0.884329 0.660032 0.272610
0.910018 0.665330 0.277908
0.935707 0.670629 0.283207
0.131482 0.539295 0.131482
0.157172 0.544593 0.136781
0.182861 0.549892 0.142079
0.208550 0.555190 0.147378
0.234239 0.560489 0.152676
0.259928 0.565787 0.157974
0.285617 0.571085 0.163273
0.311306 0.576384 0.168571
0.336995 0.581682 0.173870
0.362684 0.586981 0.179168
0.388373 0.592279 0.184466
0.414062 0.597577 0.189765
0.439751 0.602876 0.195063
0.465440 0.608174 0.200362
0.491129 0.613472 0.205660
0.516818 0.618771 0.210958
0.542507 0.624069 0.216257
0.568196 0.629368 0.221555
0.593885 0.634666 0.226854
0.619574 0.639964 0.232152
0.645263 0.645263 0.237450
0.670952 0.650561 0.242749
0.696641 0.655860 0.248047
0.722330 0.661158 0.253345
0.748019 0.666456 0.258644
0.773708 0.671755 0.263942
0.799397 0.677053 0.269241
0.825086 0.682352 0.274539
0.850775 0.687650 0.279837
0.876464 0.692948 0.285136
0.902153 0.698247 0.290434
0.927842 0.703545 0.295733
0.953531 0.708843 0.301031
0.149307 0.577510 0.149307
0.174996 0.582808 0.154605
0.200685 0.588107 0.159903
0.226374 0.593405 0.165202
0.252063 0.598703 0.170500
0.277752 0.604002 0.175799
0.303441 0.609300 0.181097
0.329130 0.614598 0.186395
0.354819 0.619897 0.191694
0.380508 0.625195 0.196992
0.406197 0.630494 0.202291
0.431886 0.635792 0.207589
0.457575 0.641090 0.212887
0.483264 0.646389 0.218186
0.508953 0.651687 0.223484
0.534642 0.656986 0.228782
0.560331 0.662284 0.234081
0.586020 0.667582 0.239379
0.611709 0.672881 0.244678
0.637398 0.678179 0.249976
0.663087 0.683478 0.255274
0.688776 0.688776 0.260573
0.714465 0.694074 0.265871
0.740154 0.699373 0.271170
0.765843 0.704671 0.276468
0.791532 0.709970 0.281766
0.817221 0.715268 0.287065
0.842910 0.720566 0.292363
0.868599 0.725865 0.297662
0.894288 0.731163 0.302960
0.919977 0.736461 0.308258
0.945666 0.741760 0.313557
0.971355 0.747058 0.318855
0.167131 0.615724 0.167131
0.192820 0.621023 0.172429
0.218509 0.626321 0.177728
0.244198 0.631620 0.183026
0.269887 0.636918 0.188324
0.295576 0.642216 0.193623
0.321265 0.647515 0.198921
0.346954 0.652813 0.204219
0.372643 0.658112 0.209518
0.398332 0.663410 0.214816
0.424021 0.668708 0.220115
0.449710 0.674007 0.225413
0.475399 0.679305 0.230711
0.501088 0.684604 0.236010
0.526777 0.689902 0.241308
0.552466 0.695200 0.246607
0.578155 0.700499 0.251905
0.603844 0.705797 0.257203
0.629533 0.711096 0.262502
0.655222 0.716394 0.267800
0.680911 0.721692 0.273099
0.706600 0.726991 0.278397
0.732289 0.732289 0.283695
0.757978 0.737587 0.288994
0.783667 0.742886 0.294292
0.809356 0.748184 0.299591
0.835045 0.753483 0.304889
0.860734 0.758781 0.310187
0.886423 0.764079 0.315486
0.912112 0.769378 0.320784
0.937801 0.774676 0.326082
0.963490 0.779975 0.331381
0.989179 0.785273 0.336679
0.184955 0.653939 0.184955
0.210644 0.659238 0.190253
0.236333 0.664536 0.195552
0.262022 0.669834 0.200850
0.287711 0.675133 0.206148
0.313400 0.680431 0.211447
0.339089 0.685730 0.216745
0.364778 0.691028 0.222044
0.390467 0.696326 0.227342
0.416156 0.701625 0.232640
0.441845 0.706923 0.237939
0.467534 0.712222 0.243237
0.493223 0.717520 0.248536
0.518912 0.722818 0.253834
0.544601 0.728117 0.259132
0.570290 0.733415 0.264431
0.595979 0.738713 0.269729
0.621668 0.744012 0.275028
0.647357 0.749310 0.280326
0.673046 0.754609 0.285624
0.698735 0.759907 0.290923
0.724424 0.765205 0.296221
0.750113 0.770504 0.301519
0.775802 0.775802 0.306818
0.801491 0.781101 0.312116
0.827180 0.786399 0.317415
0.852869 0.791697 0.322713
0.878558 0.796996 0.328011
0.904247 0.802294 0.333310
0.929936 0.807593 0.338608
0.955625 0.812891 0.343907
0.981314 0.818189 0.349205
1.000000 0.823488 0.354503
0.202779 0.692154 0.202779
0.228468 0.697452 0.208077
0.254157 0.702751 0.213376
0.279846 0.708049 0.218674
0.305535 0.713348 0.223973
0.331224 0.718646 0.229271
0.356913 0.723944 0.234569
0.382602 0.729243 0.239868
0.408291 0.734541 0.245166
0.433980 0.739840 0.250465
0.459669 0.745138 0.255763
0.485358 0.750436 0.261061
0.511047 0.755735 0.266360
0.536736 0.761033 0.271658
0.562425 0.766331 0.276956
0.588114 0.771630 0.282255
0.613803 0.776928 0.287553
0.639492 0.782227 0.292852
0.665181 0.787525 0.298150
0.690870 0.792823 0.303448
0.716559 0.798122 0.308747
0.742248 0.803420 0.314045
0.767937 0.808719 0.319344
0.793626 0.814017 0.324642
0.819315 0.819315 0.329940
0.845004 0.824614 0.335239
0.870693 0.829912 0.340537
0.896382 0.835211 0.345836
0.922071 0.840509 0.351134
0.947760 0.845807 0.356432
0.973449 0.851106 0.361731
0.999138 0.856404 0.367029
1.000000 0.861702 0.372327
0.220603 0.730369 0.220603
0.246292 0.735667 0.225902
0.271981 0.740966 0.231200
0.297670 0.746264 0.236498
0.323359 0.751562 0.241797
0.349048 0.756861 0.247095
0.374737 0.762159 0.252393
0.400426 0.767457 0.257692
0.426115 0.772756 0.262990
0.451804 0.778054 0.268289
0.477493 0.783353 0.273587
0.503182 0.788651 0.278885
0.528871 0.793949 0.284184
0.554560 0.799248 0.289482
0.580249 0.804546 0.294781
0.605938 0.809845 0.300079
0.631627 0.815143 0.305377
0.657316 0.820441 0.310676
0.683005 0.825740 0.315974
0.708694 0.831038 0.321273
0.734383 0.836337 0.326571
0.760072 0.841635 0.331869
0.785761 0.846933 0.337168
0.811450 0.852232 0.342466
0.837139 0.857530 0.347764
0.862829 0.862829 0.353063
0.888518 0.868127 0.358361
0.914207 0.873425 0.363660
0.939896 0.878724 0.368958
0.965585 0.884022 0.374256
0.991274 0.889320 0.379555
1.000000 0.894619 0.384853
1.000000 0.899917 0.390152
0.238427 0.768583 0.238427
0.264116 0.773882 0.243726
0.289805 0.779180 0.249024
0.315494 0.784479 0.254322
0.341183 0.789777 0.259621
0.366872 0.795075 0.264919
0.392561 0.800374 0.270218
0.418250 0.805672 0.275516
0.443939 0.810971 0.280814
0.469628 0.816269 0.286113
0.495317 0.821567 0.291411
0.521006 0.826866 0.296710
0.546695 0.832164 0.302008
0.572384 0.837463 0.307306
0.598073 0.842761 0.312605
0.623762 0.848059 0.317903
0.649451 0.853358 0.323202
0.675141 0.858656 0.328500
0.700830 0.863955 0.333798
0.726519 0.869253 0.339097
0.752208 0.874551 0.344395
0.777897 0.879850 0.349693
0.803586 0.885148 0.354992
0.829275 0.890446 0.360290
0.854964 0.895745 0.365589
0.880653 0.901043 0.370887
