app/src/main/assets/luts/Cool_Film.cube
TITLE "Cool Film"
# Generated by editclips.online — free to use
DOMAIN_MIN 0.0 0.0 0.0
DOMAIN_MAX 1.0 1.0 1.0
LUT_3D_SIZE 5
0.000000 0.011619 0.028719
0.192063 0.014057 0.031157
0.452034 0.016934 0.034034
0.712004 0.019810 0.036910
0.932349 0.022249 0.039349
0.000000 0.237727 0.036921
0.200265 0.240165 0.039359
0.460236 0.243042 0.042236
0.720206 0.245919 0.045113
0.940551 0.248357 0.047551
0.000000 0.504499 0.046599
0.209943 0.506937 0.049037
0.469914 0.509814 0.051914
0.729884 0.512690 0.054790
0.950229 0.515129 0.057229
0.000000 0.771270 0.056276
0.219621 0.773708 0.058714
0.479591 0.776585 0.061591
0.739562 0.779462 0.064468
0.959906 0.781900 0.066906
0.007479 0.997379 0.064479
0.227823 0.999817 0.066917
0.487794 1.000000 0.069794
0.747764 1.000000 0.072670
0.968109 1.000000 0.075109
0.000000 0.012447 0.247453
0.192891 0.014885 0.249891
0.452862 0.017762 0.252768
0.712832 0.020638 0.255645
0.933177 0.023077 0.258083
0.000000 0.238555 0.255655
0.201094 0.240994 0.258094
0.461064 0.243870 0.260970
0.721035 0.246747 0.263847
0.941379 0.249185 0.266285
0.000000 0.505327 0.265333
0.210771 0.507765 0.267771
0.470742 0.510642 0.270648
0.730712 0.513518 0.273525
0.951057 0.515957 0.275963
0.000104 0.772098 0.275010
0.220449 0.774536 0.277449
0.480419 0.777413 0.280325
0.740390 0.780290 0.283202
0.960734 0.782728 0.285640
0.008307 0.998207 0.283213
0.228651 1.000000 0.285651
0.488622 1.000000 0.288528
0.748592 1.000000 0.291405
0.968937 1.000000 0.293843
0.000000 0.013424 0.505524
0.193868 0.015862 0.507962
0.453839 0.018739 0.510839
0.713809 0.021615 0.513715
0.934154 0.024054 0.516154
0.000000 0.239532 0.513726
0.202070 0.241970 0.516164
0.462041 0.244847 0.519041
0.722011 0.247724 0.521918
0.942356 0.250162 0.524356
0.000000 0.506304 0.523404
0.211748 0.508742 0.525842
0.471719 0.511619 0.528719
0.731689 0.514495 0.531595
0.952034 0.516934 0.534034
0.001081 0.773075 0.533081
0.221426 0.775513 0.535519
0.481396 0.778390 0.538396
0.741367 0.781267 0.541273
0.961711 0.783705 0.543711
0.009284 0.999184 0.541284
0.229628 1.000000 0.543722
0.489599 1.000000 0.546599
0.749569 1.000000 0.549475
0.969914 1.000000 0.551914
0.000000 0.014400 0.763594
0.194845 0.016839 0.766032
0.454815 0.019715 0.768909
0.714786 0.022592 0.771786
0.935130 0.025030 0.774224
0.000000 0.240509 0.771797
0.203047 0.242947 0.774235
0.463018 0.245824 0.777112
0.722988 0.248701 0.779988
0.943333 0.251139 0.782427
0.000000 0.507280 0.781474
0.212725 0.509719 0.783912
0.472695 0.512595 0.786789
0.732666 0.515472 0.789666
0.953010 0.517910 0.792104
0.002058 0.774052 0.791152
0.222403 0.776490 0.793590
0.482373 0.779367 0.796467
0.742344 0.782244 0.799344
0.962688 0.784682 0.801782
0.010260 1.000000 0.799354
0.230605 1.000000 0.801792
0.490575 1.000000 0.804669
0.750546 1.000000 0.807546
0.970890 1.000000 0.809984
0.000000 0.015229 0.982329
0.195673 0.017667 0.984767
0.455644 0.020544 0.987644
0.715614 0.023420 0.990520
0.935959 0.025859 0.992959
0.000000 0.241337 0.990531
0.203875 0.243775 0.992969
0.463846 0.246652 0.995846
0.723816 0.249529 0.998723
0.944161 0.251967 1.000000
0.000000 0.508109 1.000000
0.213553 0.510547 1.000000
0.473524 0.513424 1.000000
0.733494 0.516300 1.000000
0.953839 0.518739 1.000000
0.002886 0.774880 1.000000
0.223231 0.777318 1.000000
0.483201 0.780195 1.000000
0.743172 0.783072 1.000000
0.963516 0.785510 1.000000
0.011089 1.000000 1.000000
0.231433 1.000000 1.000000
0.491404 1.000000 1.000000
0.751374 1.000000 1.000000
0.971719 1.000000 1.000000
