app/src/main/assets/luts/Cool_Film.cube
TITLE "Cool Film"
# Generated by editclips.online — free to use
DOMAIN_MIN 0.0 0.0 0.0
DOMAIN_MAX 1.0 1.0 1.0
LUT_3D_SIZE 33
0.000000 0.011619 0.028719
0.000000 0.011884 0.028984
0.020923 0.012163 0.029263
0.047189 0.012454 0.029554
0.074461 0.012755 0.029855
0.102662 0.013067 0.030167
0.131714 0.013389 0.030489
0.161540 0.013719 0.030819
0.192063 0.014057 0.031157
0.223205 0.014401 0.031501
0.254889 0.014752 0.031852
0.287037 0.015108 0.032208
0.319572 0.015468 0.032568
0.352416 0.015831 0.032931
0.385493 0.016197 0.033297
0.418725 0.016565 0.033665
0.452034 0.016934 0.034034
0.485342 0.017302 0.034402
0.518574 0.017670 0.034770
0.551651 0.018036 0.035136
0.584495 0.018399 0.035499
0.617030 0.018759 0.035859
0.649178 0.019115 0.036215
0.680862 0.019466 0.036566
0.712004 0.019810 0.036910
0.742527 0.020148 0.037248
0.772353 0.020478 0.037578
0.801405 0.020800 0.037900
0.829606 0.021112 0.038212
0.856878 0.021413 0.038513
0.883144 0.021704 0.038804
0.908327 0.021983 0.039083
0.932349 0.022249 0.039349
0.000000 0.036269 0.029613
0.000000 0.036534 0.029879
0.021817 0.036813 0.030157
0.048083 0.037104 0.030448
0.075355 0.037405 0.030750
0.103556 0.037718 0.031062
0.132608 0.038039 0.031383
0.162434 0.038369 0.031713
0.192957 0.038707 0.032051
0.224099 0.039051 0.032396
0.255783 0.039402 0.032746
0.287931 0.039758 0.033102
0.320466 0.040118 0.033462
0.353310 0.040481 0.033825
0.386387 0.040847 0.034191
0.419619 0.041215 0.034559
0.452928 0.041584 0.034928
0.486237 0.041952 0.035296
0.519468 0.042320 0.035664
0.552545 0.042686 0.036030
0.585390 0.043049 0.036394
0.617925 0.043409 0.036754
0.650073 0.043765 0.037109
0.681756 0.044116 0.037460
0.712898 0.044460 0.037804
0.743421 0.044798 0.038142
0.773247 0.045128 0.038472
0.802299 0.045450 0.038794
0.830500 0.045762 0.039106
0.857773 0.046063 0.039408
0.884039 0.046354 0.039698
0.909221 0.046633 0.039977
0.933243 0.046899 0.040243
0.000000 0.062110 0.030550
0.000000 0.062376 0.030816
0.022754 0.062654 0.031095
0.049020 0.062945 0.031385
0.076293 0.063247 0.031687
0.104493 0.063559 0.031999
0.133546 0.063880 0.032321
0.163372 0.064210 0.032651
0.193895 0.064548 0.032988
0.225037 0.064893 0.033333
0.256720 0.065243 0.033684
0.288868 0.065599 0.034039
0.321403 0.065959 0.034399
0.354248 0.066323 0.034763
0.387325 0.066689 0.035129
0.420556 0.067056 0.035497
0.453865 0.067425 0.035865
0.487174 0.067793 0.036234
0.520406 0.068161 0.036601
0.553482 0.068527 0.036968
0.586327 0.068891 0.037331
0.618862 0.069251 0.037691
0.651010 0.069606 0.038047
0.682694 0.069957 0.038397
0.713836 0.070302 0.038742
0.744358 0.070639 0.039080
0.774185 0.070969 0.039410
0.803237 0.071291 0.039731
0.831438 0.071603 0.040043
0.858710 0.071905 0.040345
0.884976 0.072195 0.040636
0.910159 0.072474 0.040914
0.934180 0.072740 0.041180
0.000000 0.089063 0.031528
0.000000 0.089329 0.031794
0.023732 0.089607 0.032072
0.049998 0.089898 0.032363
0.077270 0.090200 0.032665
0.105471 0.090512 0.032977
0.134523 0.090833 0.033298
0.164350 0.091164 0.033628
0.194872 0.091501 0.033966
0.226014 0.091846 0.034311
0.257698 0.092196 0.034661
0.289846 0.092552 0.035017
0.322381 0.092912 0.035377
0.355226 0.093276 0.035741
0.388302 0.093642 0.036107
0.421534 0.094009 0.036474
0.454843 0.094378 0.036843
0.488152 0.094747 0.037212
0.521383 0.095114 0.037579
0.554460 0.095480 0.037945
0.587305 0.095844 0.038309
0.619840 0.096204 0.038669
0.651988 0.096560 0.039024
0.683672 0.096910 0.039375
0.714813 0.097255 0.039720
0.745336 0.097593 0.040057
0.775162 0.097923 0.040387
0.804215 0.098244 0.040709
0.832416 0.098556 0.041021
0.859688 0.098858 0.041323
0.885954 0.099149 0.041613
0.911136 0.099427 0.041892
0.935158 0.099693 0.042158
0.000000 0.117049 0.032543
0.000000 0.117314 0.032809
0.024747 0.117593 0.033088
0.051013 0.117884 0.033378
0.078286 0.118186 0.033680
0.106486 0.118498 0.033992
0.135539 0.118819 0.034314
0.165365 0.119149 0.034644
0.195888 0.119487 0.034981
0.227030 0.119831 0.035326
0.258713 0.120182 0.035677
0.290861 0.120538 0.036032
0.323396 0.120898 0.036392
0.356241 0.121261 0.036756
0.389318 0.121627 0.037122
0.422549 0.121995 0.037490
0.455858 0.122364 0.037858
0.489167 0.122732 0.038227
0.522399 0.123100 0.038594
0.555475 0.123466 0.038960
0.588320 0.123829 0.039324
0.620855 0.124189 0.039684
0.653003 0.124545 0.040040
0.684687 0.124896 0.040390
0.715829 0.125240 0.040735
0.746351 0.125578 0.041073
0.776178 0.125908 0.041403
0.805230 0.126230 0.041724
0.833431 0.126542 0.042036
0.860703 0.126844 0.042338
0.886969 0.127134 0.042629
0.912152 0.127413 0.042907
0.936173 0.127679 0.043173
0.000000 0.145987 0.033593
0.000615 0.146253 0.033859
0.025797 0.146532 0.034137
0.052063 0.146822 0.034428
0.079335 0.147124 0.034730
0.107536 0.147436 0.035042
0.136589 0.147758 0.035363
0.166415 0.148088 0.035693
0.196937 0.148426 0.036031
0.228079 0.148770 0.036376
0.259763 0.149121 0.036726
0.291911 0.149476 0.037082
0.324446 0.149837 0.037442
0.357291 0.150200 0.037806
0.390367 0.150566 0.038172
0.423599 0.150934 0.038539
0.456908 0.151302 0.038908
0.490217 0.151671 0.039277
0.523448 0.152039 0.039644
0.556525 0.152405 0.040010
0.589370 0.152768 0.040374
0.621905 0.153128 0.040734
0.654053 0.153484 0.041089
0.685737 0.153834 0.041440
0.716878 0.154179 0.041785
0.747401 0.154517 0.042122
0.777227 0.154847 0.042453
0.806280 0.155168 0.042774
0.834481 0.155480 0.043086
0.861753 0.155782 0.043388
0.888019 0.156073 0.043678
0.913201 0.156351 0.043957
0.937223 0.156617 0.044223
0.000000 0.175800 0.034674
0.001696 0.176065 0.034940
0.026879 0.176344 0.035219
0.053145 0.176635 0.035510
0.080417 0.176936 0.035811
0.108618 0.177249 0.036123
0.137670 0.177570 0.036445
0.167496 0.177900 0.036775
0.198019 0.178238 0.037113
0.229161 0.178582 0.037457
0.260845 0.178933 0.037808
0.292993 0.179289 0.038164
0.325528 0.179649 0.038524
0.358372 0.180012 0.038887
0.391449 0.180378 0.039253
0.424680 0.180746 0.039621
0.457989 0.181115 0.039989
0.491298 0.181483 0.040358
0.524530 0.181851 0.040726
0.557607 0.182217 0.041092
0.590451 0.182580 0.041455
0.622986 0.182940 0.041815
0.655134 0.183296 0.042171
0.686818 0.183647 0.042522
0.717960 0.183991 0.042866
0.748483 0.184329 0.043204
0.778309 0.184659 0.043534
0.807361 0.184981 0.043855
0.835562 0.185293 0.044168
0.862834 0.185594 0.044469
0.889100 0.185885 0.044760
0.914283 0.186164 0.045039
0.938304 0.186430 0.045304
0.000000 0.206406 0.035785
0.002806 0.206672 0.036051
0.027989 0.206950 0.036329
0.054255 0.207241 0.036620
0.081527 0.207543 0.036922
0.109728 0.207855 0.037234
0.138780 0.208176 0.037555
0.168606 0.208506 0.037885
0.199129 0.208844 0.038223
0.230271 0.209189 0.038568
0.261955 0.209539 0.038918
0.294103 0.209895 0.039274
0.326638 0.210255 0.039634
0.359482 0.210619 0.039997
0.392559 0.210985 0.040363
0.425791 0.211352 0.040731
0.459100 0.211721 0.041100
0.492409 0.212090 0.041468
0.525640 0.212457 0.041836
0.558717 0.212823 0.042202
0.591562 0.213187 0.042566
0.624097 0.213547 0.042926
0.656245 0.213903 0.043281
0.687928 0.214253 0.043632
0.719070 0.214598 0.043976
0.749593 0.214935 0.044314
0.779419 0.215266 0.044644
0.808471 0.215587 0.044966
0.836672 0.215899 0.045278
0.863945 0.216201 0.045580
0.890211 0.216492 0.045870
0.915393 0.216770 0.046149
0.939415 0.217036 0.046415
0.000000 0.237727 0.036921
0.003943 0.237993 0.037187
0.029125 0.238272 0.037465
0.055391 0.238562 0.037756
0.082663 0.238864 0.038058
0.110864 0.239176 0.038370
0.139917 0.239498 0.038691
0.169743 0.239828 0.039021
0.200265 0.240165 0.039359
0.231407 0.240510 0.039704
0.263091 0.240861 0.040054
0.295239 0.241216 0.040410
0.327774 0.241576 0.040770
0.360619 0.241940 0.041134
0.393695 0.242306 0.041500
0.426927 0.242674 0.041867
0.460236 0.243042 0.042236
0.493545 0.243411 0.042605
0.526776 0.243779 0.042972
0.559853 0.244145 0.043338
0.592698 0.244508 0.043702
0.625233 0.244868 0.044062
0.657381 0.245224 0.044418
0.689065 0.245574 0.044768
0.720206 0.245919 0.045113
0.750729 0.246257 0.045450
0.780555 0.246587 0.045781
0.809608 0.246908 0.046102
0.837809 0.247220 0.046414
0.865081 0.247522 0.046716
0.891347 0.247813 0.047006
0.916529 0.248091 0.047285
0.940551 0.248357 0.047551
0.000000 0.269684 0.038080
0.005102 0.269950 0.038346
0.030284 0.270228 0.038625
0.056550 0.270519 0.038915
0.083823 0.270821 0.039217
0.112024 0.271133 0.039529
0.141076 0.271454 0.039851
0.170902 0.271784 0.040181
0.201425 0.272122 0.040519
0.232567 0.272467 0.040863
0.264250 0.272817 0.041214
0.296398 0.273173 0.041569
0.328933 0.273533 0.041929
0.361778 0.273896 0.042293
0.394855 0.274262 0.042659
0.428086 0.274630 0.043027
0.461395 0.274999 0.043395
0.494704 0.275367 0.043764
0.527936 0.275735 0.044132
0.561013 0.276101 0.044498
0.593857 0.276465 0.044861
0.626392 0.276825 0.045221
0.658540 0.277180 0.045577
0.690224 0.277531 0.045927
0.721366 0.277876 0.046272
0.751888 0.278213 0.046610
0.781715 0.278543 0.046940
0.810767 0.278865 0.047261
0.838968 0.279177 0.047573
0.866240 0.279479 0.047875
0.892506 0.279769 0.048166
0.917689 0.280048 0.048444
0.941710 0.280314 0.048710
0.000000 0.302196 0.039260
0.006281 0.302462 0.039526
0.031464 0.302741 0.039804
0.057730 0.303031 0.040095
0.085002 0.303333 0.040397
0.113203 0.303645 0.040709
0.142255 0.303967 0.041030
0.172081 0.304297 0.041360
0.202604 0.304635 0.041698
0.233746 0.304979 0.042043
0.265430 0.305330 0.042393
0.297578 0.305686 0.042749
0.330113 0.306046 0.043109
0.362957 0.306409 0.043472
0.396034 0.306775 0.043838
0.429266 0.307143 0.044206
0.462575 0.307511 0.044575
0.495884 0.307880 0.044943
0.529115 0.308248 0.045311
0.562192 0.308614 0.045677
0.595037 0.308977 0.046040
0.627572 0.309337 0.046400
0.659720 0.309693 0.046756
0.691403 0.310043 0.047107
0.722545 0.310388 0.047451
0.753068 0.310726 0.047789
0.782894 0.311056 0.048119
0.811946 0.311377 0.048441
0.840147 0.311689 0.048753
0.867419 0.311991 0.049055
0.893686 0.312282 0.049345
0.918868 0.312560 0.049624
0.942890 0.312826 0.049890
0.000000 0.335185 0.040456
0.007478 0.335451 0.040722
0.032661 0.335730 0.041001
0.058927 0.336020 0.041292
0.086199 0.336322 0.041593
0.114400 0.336634 0.041905
0.143452 0.336956 0.042227
0.173278 0.337286 0.042557
0.203801 0.337624 0.042895
0.234943 0.337968 0.043239
0.266627 0.338319 0.043590
0.298775 0.338675 0.043946
0.331310 0.339035 0.044306
0.364154 0.339398 0.044669
0.397231 0.339764 0.045035
0.430462 0.340132 0.045403
0.463771 0.340500 0.045771
0.497080 0.340869 0.046140
0.530312 0.341237 0.046508
0.563389 0.341603 0.046874
0.596233 0.341966 0.047237
0.628768 0.342326 0.047597
0.660916 0.342682 0.047953
0.692600 0.343032 0.048304
0.723742 0.343377 0.048648
0.754265 0.343715 0.048986
0.784091 0.344045 0.049316
0.813143 0.344366 0.049637
0.841344 0.344678 0.049950
0.868616 0.344980 0.050251
0.894882 0.345271 0.050542
0.920065 0.345550 0.050821
0.944086 0.345815 0.051086
0.000000 0.368571 0.041668
0.008689 0.368837 0.041933
0.033872 0.369116 0.042212
0.060138 0.369407 0.042503
0.087410 0.369708 0.042804
0.115611 0.370020 0.043117
0.144663 0.370342 0.043438
0.174489 0.370672 0.043768
0.205012 0.371010 0.044106
0.236154 0.371354 0.044450
0.267838 0.371705 0.044801
0.299986 0.372061 0.045157
0.332521 0.372421 0.045517
0.365365 0.372784 0.045880
0.398442 0.373150 0.046246
0.431674 0.373518 0.046614
0.464983 0.373886 0.046983
0.498292 0.374255 0.047351
0.531523 0.374623 0.047719
0.564600 0.374989 0.048085
0.597444 0.375352 0.048448
0.629979 0.375712 0.048808
0.662127 0.376068 0.049164
0.693811 0.376419 0.049515
0.724953 0.376763 0.049859
0.755476 0.377101 0.050197
0.785302 0.377431 0.050527
0.814354 0.377752 0.050849
0.842555 0.378065 0.051161
0.869827 0.378366 0.051462
0.896093 0.378657 0.051753
0.921276 0.378936 0.052032
0.945298 0.379201 0.052298
0.000000 0.402275 0.042890
0.009912 0.402541 0.043156
0.035094 0.402820 0.043435
0.061360 0.403110 0.043725
0.088633 0.403412 0.044027
0.116834 0.403724 0.044339
0.145886 0.404046 0.044661
0.175712 0.404376 0.044991
0.206235 0.404714 0.045328
0.237377 0.405058 0.045673
0.269060 0.405409 0.046024
0.301208 0.405764 0.046379
0.333743 0.406124 0.046739
0.366588 0.406488 0.047103
0.399665 0.406854 0.047469
0.432896 0.407222 0.047837
0.466205 0.407590 0.048205
0.499514 0.407959 0.048574
0.532746 0.408327 0.048942
0.565822 0.408693 0.049308
0.598667 0.409056 0.049671
0.631202 0.409416 0.050031
0.663350 0.409772 0.050387
0.695034 0.410122 0.050737
0.726176 0.410467 0.051082
0.756698 0.410805 0.051420
0.786525 0.411135 0.051750
0.815577 0.411456 0.052071
0.843778 0.411768 0.052383
0.871050 0.412070 0.052685
0.897316 0.412361 0.052976
0.922499 0.412639 0.053254
0.946520 0.412905 0.053520
0.000000 0.436217 0.044122
0.011143 0.436483 0.044387
0.036326 0.436762 0.044666
0.062592 0.437052 0.044957
0.089864 0.437354 0.045258
0.118065 0.437666 0.045570
0.147117 0.437988 0.045892
0.176943 0.438318 0.046222
0.207466 0.438656 0.046560
0.238608 0.439000 0.046904
0.270292 0.439351 0.047255
0.302440 0.439707 0.047611
0.334975 0.440067 0.047971
0.367819 0.440430 0.048334
0.400896 0.440796 0.048700
0.434128 0.441164 0.049068
0.467437 0.441532 0.049437
0.500745 0.441901 0.049805
0.533977 0.442269 0.050173
0.567054 0.442635 0.050539
0.599898 0.442998 0.050902
0.632433 0.443358 0.051262
0.664581 0.443714 0.051618
0.696265 0.444064 0.051969
0.727407 0.444409 0.052313
0.757930 0.444747 0.052651
0.787756 0.445077 0.052981
0.816808 0.445398 0.053303
0.845009 0.445710 0.053615
0.872281 0.446012 0.053916
0.898547 0.446303 0.054207
0.923730 0.446581 0.054486
0.947752 0.446847 0.054752
0.000000 0.470318 0.045359
0.012380 0.470584 0.045624
0.037563 0.470863 0.045903
0.063829 0.471153 0.046194
0.091101 0.471455 0.046495
0.119302 0.471767 0.046808
0.148354 0.472089 0.047129
0.178180 0.472419 0.047459
0.208703 0.472756 0.047797
0.239845 0.473101 0.048141
0.271529 0.473452 0.048492
0.303677 0.473807 0.048848
0.336212 0.474167 0.049208
0.369056 0.474531 0.049571
0.402133 0.474897 0.049937
0.435365 0.475265 0.050305
0.468674 0.475633 0.050674
0.501983 0.476002 0.051042
0.535214 0.476370 0.051410
0.568291 0.476736 0.051776
0.601135 0.477099 0.052139
0.633670 0.477459 0.052499
0.665818 0.477815 0.052855
0.697502 0.478165 0.053206
0.728644 0.478510 0.053550
0.759167 0.478848 0.053888
0.788993 0.479178 0.054218
0.818045 0.479499 0.054540
0.846246 0.479811 0.054852
0.873518 0.480113 0.055153
0.899784 0.480404 0.055444
0.924967 0.480682 0.055723
0.948989 0.480948 0.055989
0.000000 0.504499 0.046599
0.013620 0.504764 0.046864
0.038803 0.505043 0.047143
0.065069 0.505334 0.047434
0.092341 0.505635 0.047735
0.120542 0.505947 0.048047
0.149594 0.506269 0.048369
0.179420 0.506599 0.048699
0.209943 0.506937 0.049037
0.241085 0.507281 0.049381
0.272769 0.507632 0.049732
0.304917 0.507988 0.050088
0.337452 0.508348 0.050448
0.370296 0.508711 0.050811
0.403373 0.509077 0.051177
0.436605 0.509445 0.051545
0.469914 0.509814 0.051914
0.503222 0.510182 0.052282
0.536454 0.510550 0.052650
0.569531 0.510916 0.053016
0.602375 0.511279 0.053379
0.634910 0.511639 0.053739
0.667058 0.511995 0.054095
0.698742 0.512346 0.054446
0.729884 0.512690 0.054790
0.760407 0.513028 0.055128
0.790233 0.513358 0.055458
0.819285 0.513680 0.055780
0.847486 0.513992 0.056092
0.874758 0.514293 0.056393
0.901024 0.514584 0.056684
0.926207 0.514863 0.056963
0.950229 0.515129 0.057229
0.000000 0.538679 0.047838
0.014860 0.538945 0.048104
0.040043 0.539223 0.048383
0.066309 0.539514 0.048674
0.093581 0.539816 0.048975
0.121782 0.540128 0.049287
0.150834 0.540449 0.049609
0.180660 0.540779 0.049939
0.211183 0.541117 0.050277
0.242325 0.541462 0.050621
0.274009 0.541812 0.050972
0.306157 0.542168 0.051328
0.338692 0.542528 0.051688
0.371536 0.542892 0.052051
0.404613 0.543258 0.052417
0.437845 0.543625 0.052785
0.471153 0.543994 0.053153
0.504462 0.544362 0.053522
0.537694 0.544730 0.053890
0.570771 0.545096 0.054256
0.603615 0.545460 0.054619
0.636150 0.545820 0.054979
0.668298 0.546175 0.055335
0.699982 0.546526 0.055686
0.731124 0.546871 0.056030
0.761647 0.547208 0.056368
0.791473 0.547538 0.056698
0.820525 0.547860 0.057019
0.848726 0.548172 0.057332
0.875998 0.548474 0.057633
0.902264 0.548764 0.057924
0.927447 0.549043 0.058203
0.951468 0.549309 0.058468
0.000000 0.572780 0.049076
0.016097 0.573046 0.049341
0.041280 0.573324 0.049620
0.067546 0.573615 0.049911
0.094818 0.573917 0.050212
0.123019 0.574229 0.050525
0.152071 0.574550 0.050846
0.181897 0.574880 0.051176
0.212420 0.575218 0.051514
0.243562 0.575563 0.051858
0.275246 0.575913 0.052209
0.307394 0.576269 0.052565
0.339929 0.576629 0.052925
0.372773 0.576992 0.053288
0.405850 0.577358 0.053654
0.439082 0.577726 0.054022
0.472391 0.578095 0.054391
0.505699 0.578463 0.054759
0.538931 0.578831 0.055127
0.572008 0.579197 0.055493
0.604852 0.579561 0.055856
0.637387 0.579921 0.056216
0.669535 0.580276 0.056572
0.701219 0.580627 0.056923
0.732361 0.580971 0.057267
0.762884 0.581309 0.057605
0.792710 0.581639 0.057935
0.821762 0.581961 0.058257
0.849963 0.582273 0.058569
0.877235 0.582575 0.058870
0.903501 0.582865 0.059161
0.928684 0.583144 0.059440
0.952706 0.583410 0.059706
0.000000 0.606722 0.050307
0.017328 0.606988 0.050573
0.042511 0.607266 0.050851
0.068777 0.607557 0.051142
0.096049 0.607859 0.051444
0.124250 0.608171 0.051756
0.153302 0.608492 0.052077
0.183129 0.608822 0.052407
0.213651 0.609160 0.052745
0.244793 0.609505 0.053090
0.276477 0.609855 0.053440
0.308625 0.610211 0.053796
0.341160 0.610571 0.054156
0.374005 0.610934 0.054519
0.407081 0.611300 0.054886
0.440313 0.611668 0.055253
0.473622 0.612037 0.055622
0.506931 0.612405 0.055990
0.540162 0.612773 0.056358
0.573239 0.613139 0.056724
0.606084 0.613503 0.057088
0.638619 0.613863 0.057448
0.670767 0.614218 0.057803
0.702450 0.614569 0.058154
0.733592 0.614914 0.058499
0.764115 0.615251 0.058836
0.793941 0.615581 0.059166
0.822994 0.615903 0.059488
0.851194 0.616215 0.059800
0.878467 0.616517 0.060102
0.904733 0.616807 0.060392
0.929915 0.617086 0.060671
0.953937 0.617352 0.060937
0.000000 0.640426 0.051529
0.018551 0.640691 0.051795
0.043734 0.640970 0.052074
0.070000 0.641261 0.052365
0.097272 0.641562 0.052666
0.125473 0.641875 0.052978
0.154525 0.642196 0.053300
0.184351 0.642526 0.053630
0.214874 0.642864 0.053968
0.246016 0.643208 0.054312
0.277700 0.643559 0.054663
0.309848 0.643915 0.055019
0.342383 0.644275 0.055379
0.375227 0.644638 0.055742
0.408304 0.645004 0.056108
0.441536 0.645372 0.056476
0.474844 0.645741 0.056844
0.508153 0.646109 0.057213
0.541385 0.646477 0.057581
0.574462 0.646843 0.057947
0.607306 0.647206 0.058310
0.639841 0.647566 0.058670
0.671989 0.647922 0.059026
0.703673 0.648273 0.059377
0.734815 0.648617 0.059721
0.765338 0.648955 0.060059
0.795164 0.649285 0.060389
0.824216 0.649607 0.060711
0.852417 0.649919 0.061023
0.879689 0.650220 0.061324
0.905955 0.650511 0.061615
0.931138 0.650790 0.061894
0.955159 0.651056 0.062159
0.000000 0.673812 0.052741
0.019762 0.674078 0.053006
0.044945 0.674356 0.053285
0.071211 0.674647 0.053576
0.098483 0.674949 0.053878
0.126684 0.675261 0.054190
0.155736 0.675582 0.054511
0.185562 0.675912 0.054841
0.216085 0.676250 0.055179
0.247227 0.676595 0.055523
0.278911 0.676945 0.055874
0.311059 0.677301 0.056230
0.343594 0.677661 0.056590
0.376438 0.678024 0.056953
0.409515 0.678390 0.057319
0.442747 0.678758 0.057687
0.476056 0.679127 0.058056
0.509365 0.679495 0.058424
0.542596 0.679863 0.058792
0.575673 0.680229 0.059158
0.608517 0.680592 0.059521
0.641053 0.680953 0.059881
0.673201 0.681308 0.060237
0.704884 0.681659 0.060588
0.736026 0.682003 0.060932
0.766549 0.682341 0.061270
0.796375 0.682671 0.061600
0.825427 0.682993 0.061922
0.853628 0.683305 0.062234
0.880900 0.683607 0.062535
0.907166 0.683897 0.062826
0.932349 0.684176 0.063105
0.956371 0.684442 0.063371
0.000000 0.706801 0.053937
0.020959 0.707067 0.054203
0.046141 0.707345 0.054482
0.072408 0.707636 0.054772
0.099680 0.707938 0.055074
0.127881 0.708250 0.055386
0.156933 0.708571 0.055708
0.186759 0.708901 0.056038
0.217282 0.709239 0.056376
0.248424 0.709584 0.056720
0.280107 0.709934 0.057071
0.312255 0.710290 0.057427
0.344790 0.710650 0.057787
0.377635 0.711013 0.058150
0.410712 0.711379 0.058516
0.443943 0.711747 0.058884
0.477252 0.712116 0.059252
0.510561 0.712484 0.059621
0.543793 0.712852 0.059989
0.576870 0.713218 0.060355
0.609714 0.713582 0.060718
0.642249 0.713942 0.061078
0.674397 0.714297 0.061434
0.706081 0.714648 0.061784
0.737223 0.714992 0.062129
0.767746 0.715330 0.062467
0.797572 0.715660 0.062797
0.826624 0.715982 0.063118
0.854825 0.716294 0.063430
0.882097 0.716596 0.063732
0.908363 0.716886 0.064023
0.933546 0.717165 0.064302
0.957567 0.717431 0.064567
0.000000 0.739313 0.055117
0.022138 0.739579 0.055383
0.047321 0.739858 0.055661
0.073587 0.740148 0.055952
0.100859 0.740450 0.056254
0.129060 0.740762 0.056566
0.158112 0.741084 0.056887
0.187939 0.741414 0.057217
0.218461 0.741751 0.057555
0.249603 0.742096 0.057900
0.281287 0.742447 0.058250
0.313435 0.742802 0.058606
0.345970 0.743162 0.058966
0.378815 0.743526 0.059329
0.411891 0.743892 0.059695
0.445123 0.744260 0.060063
0.478432 0.744628 0.060432
0.511741 0.744997 0.060800
0.544972 0.745365 0.061168
0.578049 0.745731 0.061534
0.610894 0.746094 0.061898
0.643429 0.746454 0.062258
0.675577 0.746810 0.062613
0.707260 0.747160 0.062964
0.738402 0.747505 0.063309
0.768925 0.747843 0.063646
0.798751 0.748173 0.063976
0.827803 0.748494 0.064298
0.856004 0.748806 0.064610
0.883277 0.749108 0.064912
0.909543 0.749399 0.065202
0.934725 0.749677 0.065481
0.958747 0.749943 0.065747
0.000000 0.771270 0.056276
0.023298 0.771536 0.056542
0.048480 0.771814 0.056821
0.074746 0.772105 0.057111
0.102018 0.772407 0.057413
0.130219 0.772719 0.057725
0.159272 0.773040 0.058047
0.189098 0.773370 0.058377
0.219621 0.773708 0.058714
0.250762 0.774053 0.059059
0.282446 0.774403 0.059410
0.314594 0.774759 0.059765
0.347129 0.775119 0.060125
0.379974 0.775482 0.060489
0.413051 0.775849 0.060855
0.446282 0.776216 0.061222
0.479591 0.776585 0.061591
0.512900 0.776953 0.061960
0.546132 0.777321 0.062327
0.579208 0.777687 0.062693
0.612053 0.778051 0.063057
0.644588 0.778411 0.063417
0.676736 0.778766 0.063773
0.708420 0.779117 0.064123
0.739562 0.779462 0.064468
0.770084 0.779799 0.064806
0.799911 0.780129 0.065136
0.828963 0.780451 0.065457
0.857164 0.780763 0.065769
0.884436 0.781065 0.066071
0.910702 0.781355 0.066362
0.935884 0.781634 0.066640
0.959906 0.781900 0.066906
0.000412 0.802591 0.057412
0.024434 0.802857 0.057678
0.049616 0.803136 0.057957
0.075882 0.803426 0.058247
0.103155 0.803728 0.058549
0.131356 0.804040 0.058861
0.160408 0.804361 0.059183
0.190234 0.804692 0.059513
0.220757 0.805029 0.059851
0.251899 0.805374 0.060195
0.283582 0.805725 0.060546
0.315730 0.806080 0.060901
0.348265 0.806440 0.061262
0.381110 0.806804 0.061625
0.414187 0.807170 0.061991
0.447418 0.807537 0.062359
0.480727 0.807906 0.062727
0.514036 0.808275 0.063096
0.547268 0.808642 0.063464
0.580345 0.809008 0.063830
0.613189 0.809372 0.064193
0.645724 0.809732 0.064553
0.677872 0.810088 0.064909
0.709556 0.810438 0.065259
0.740698 0.810783 0.065604
0.771221 0.811121 0.065942
0.801047 0.811451 0.066272
0.830099 0.811772 0.066593
0.858300 0.812084 0.066905
0.885572 0.812386 0.067207
0.911838 0.812677 0.067498
0.937021 0.812955 0.067776
0.961042 0.813221 0.068042
0.001523 0.833197 0.058523
0.025544 0.833463 0.058788
0.050727 0.833742 0.059067
0.076993 0.834033 0.059358
0.104265 0.834334 0.059660
0.132466 0.834646 0.059972
0.161518 0.834968 0.060293
0.191344 0.835298 0.060623
0.221867 0.835636 0.060961
0.253009 0.835980 0.061305
0.284693 0.836331 0.061656
0.316841 0.836687 0.062012
0.349376 0.837047 0.062372
0.382220 0.837410 0.062735
0.415297 0.837776 0.063101
0.448529 0.838144 0.063469
0.481838 0.838512 0.063838
0.515147 0.838881 0.064206
0.548378 0.839249 0.064574
0.581455 0.839615 0.064940
0.614299 0.839978 0.065303
0.646834 0.840338 0.065663
0.678983 0.840694 0.066019
0.710666 0.841045 0.066370
0.741808 0.841389 0.066714
0.772331 0.841727 0.067052
