app/src/main/assets/luts/Cool_Film.cube
TITLE "Cool Film"
# Generated by editclips.online — free to use
DOMAIN_MIN 0.0 0.0 0.0
DOMAIN_MAX 1.0 1.0 1.0
LUT_3D_SIZE 9
0.000000 0.011619 0.028719
0.074461 0.012755 0.029855
0.192063 0.014057 0.031157
0.319572 0.015468 0.032568
0.452034 0.016934 0.034034
0.584495 0.018399 0.035499
0.712004 0.019810 0.036910
0.829606 0.021112 0.038212
0.932349 0.022249 0.039349
0.000000 0.117049 0.032543
0.078286 0.118186 0.033680
0.195888 0.119487 0.034981
0.323396 0.120898 0.036392
0.455858 0.122364 0.037858
0.588320 0.123829 0.039324
0.715829 0.125240 0.040735
0.833431 0.126542 0.042036
0.936173 0.127679 0.043173
0.000000 0.237727 0.036921
0.082663 0.238864 0.038058
0.200265 0.240165 0.039359
0.327774 0.241576 0.040770
0.460236 0.243042 0.042236
0.592698 0.244508 0.043702
0.720206 0.245919 0.045113
0.837809 0.247220 0.046414
0.940551 0.248357 0.047551
0.000000 0.368571 0.041668
0.087410 0.369708 0.042804
0.205012 0.371010 0.044106
0.332521 0.372421 0.045517
0.464983 0.373886 0.046983
0.597444 0.375352 0.048448
0.724953 0.376763 0.049859
0.842555 0.378065 0.051161
0.945298 0.379201 0.052298
0.000000 0.504499 0.046599
0.092341 0.505635 0.047735
0.209943 0.506937 0.049037
0.337452 0.508348 0.050448
0.469914 0.509814 0.051914
0.602375 0.511279 0.053379
0.729884 0.512690 0.054790
0.847486 0.513992 0.056092
0.950229 0.515129 0.057229
0.000000 0.640426 0.051529
0.097272 0.641562 0.052666
0.214874 0.642864 0.053968
0.342383 0.644275 0.055379
0.474844 0.645741 0.056844
0.607306 0.647206 0.058310
0.734815 0.648617 0.059721
0.852417 0.649919 0.061023
0.955159 0.651056 0.062159
0.000000 0.771270 0.056276
0.102018 0.772407 0.057413
0.219621 0.773708 0.058714
0.347129 0.775119 0.060125
0.479591 0.776585 0.061591
0.612053 0.778051 0.063057
0.739562 0.779462 0.064468
0.857164 0.780763 0.065769
0.959906 0.781900 0.066906
0.003654 0.891948 0.060654
0.106396 0.893085 0.061791
0.223998 0.894387 0.063092
0.351507 0.895798 0.064503
0.483969 0.897263 0.065969
0.616431 0.898729 0.067435
0.743939 0.900140 0.068846
0.861541 0.901441 0.070147
0.964284 0.902578 0.071284
0.007479 0.997379 0.064479
0.110221 0.998515 0.065615
0.227823 0.999817 0.066917
0.355332 1.000000 0.068328
0.487794 1.000000 0.069794
0.620255 1.000000 0.071259
0.747764 1.000000 0.072670
0.865366 1.000000 0.073972
0.968109 1.000000 0.075109
0.000000 0.012005 0.130710
0.074847 0.013142 0.131847
0.192449 0.014443 0.133148
0.319958 0.015854 0.134559
0.452420 0.017320 0.136025
0.584881 0.018785 0.137491
0.712390 0.020196 0.138902
0.829992 0.021498 0.140203
0.932735 0.022635 0.141340
0.000000 0.117435 0.134535
0.078672 0.118572 0.135672
0.196274 0.119873 0.136973
0.323782 0.121284 0.138384
0.456244 0.122750 0.139850
0.588706 0.124216 0.141316
0.716215 0.125626 0.142726
0.833817 0.126928 0.144028
0.936559 0.128065 0.145165
0.000000 0.238113 0.138913
0.083049 0.239250 0.140049
0.200652 0.240552 0.141351
0.328160 0.241963 0.142762
0.460622 0.243428 0.144228
0.593084 0.244894 0.145693
0.720593 0.246305 0.147104
0.838195 0.247606 0.148406
0.940937 0.248743 0.149543
0.000000 0.368958 0.143659
0.087796 0.370094 0.144796
0.205398 0.371396 0.146097
0.332907 0.372807 0.147508
0.465369 0.374273 0.148974
0.597831 0.375738 0.150440
0.725339 0.377149 0.151851
0.842941 0.378451 0.153152
0.945684 0.379588 0.154289
0.000000 0.504885 0.148590
0.092727 0.506022 0.149727
0.210329 0.507323 0.151028
0.337838 0.508734 0.152439
0.470300 0.510200 0.153905
0.602761 0.511665 0.155371
0.730270 0.513076 0.156782
0.847872 0.514378 0.158083
0.950615 0.515515 0.159220
0.000000 0.640812 0.153521
0.097658 0.641949 0.154658
0.215260 0.643250 0.155959
0.342769 0.644661 0.157370
0.475231 0.646127 0.158836
0.607692 0.647592 0.160302
0.735201 0.649003 0.161713
0.852803 0.650305 0.163014
0.955546 0.651442 0.164151
0.000000 0.771656 0.158268
0.102405 0.772793 0.159405
0.220007 0.774094 0.160706
0.347515 0.775505 0.162117
0.479977 0.776971 0.163583
0.612439 0.778437 0.165048
0.739948 0.779848 0.166459
0.857550 0.781149 0.167761
0.960292 0.782286 0.168898
0.004040 0.892335 0.162645
0.106782 0.893471 0.163782
0.224384 0.894773 0.165084
0.351893 0.896184 0.166495
0.484355 0.897650 0.167960
0.616817 0.899115 0.169426
0.744325 0.900526 0.170837
0.861928 0.901828 0.172139
0.964670 0.902965 0.173275
0.007865 0.997765 0.166470
0.110607 0.998902 0.167607
0.228209 1.000000 0.168908
0.355718 1.000000 0.170319
0.488180 1.000000 0.171785
0.620641 1.000000 0.173251
0.748150 1.000000 0.174662
0.865752 1.000000 0.175963
0.968495 1.000000 0.177100
0.000000 0.012447 0.247453
0.075289 0.013583 0.248590
0.192891 0.014885 0.249891
0.320400 0.016296 0.251302
0.452862 0.017762 0.252768
0.585323 0.019227 0.254234
0.712832 0.020638 0.255645
0.830434 0.021940 0.256946
0.933177 0.023077 0.258083
0.000000 0.117877 0.251277
0.079114 0.119014 0.252414
0.196716 0.120315 0.253716
0.324224 0.121726 0.255127
0.456686 0.123192 0.256592
0.589148 0.124657 0.258058
0.716657 0.126068 0.259469
0.834259 0.127370 0.260771
0.937001 0.128507 0.261907
0.000000 0.238555 0.255655
0.083491 0.239692 0.256792
0.201094 0.240994 0.258094
0.328602 0.242404 0.259504
0.461064 0.243870 0.260970
0.593526 0.245336 0.262436
0.721035 0.246747 0.263847
0.838637 0.248048 0.265148
0.941379 0.249185 0.266285
0.000000 0.369400 0.260402
0.088238 0.370536 0.261539
0.205840 0.371838 0.262840
0.333349 0.373249 0.264251
0.465811 0.374715 0.265717
0.598272 0.376180 0.267183
0.725781 0.377591 0.268594
0.843383 0.378893 0.269895
0.946126 0.380030 0.271032
0.000000 0.505327 0.265333
0.093169 0.506463 0.266470
0.210771 0.507765 0.267771
0.338280 0.509176 0.269182
0.470742 0.510642 0.270648
0.603203 0.512107 0.272114
0.730712 0.513518 0.273525
0.848314 0.514820 0.274826
0.951057 0.515957 0.275963
0.000000 0.641254 0.270264
0.098100 0.642391 0.271401
0.215702 0.643692 0.272702
0.343211 0.645103 0.274113
0.475673 0.646569 0.275579
0.608134 0.648034 0.277045
0.735643 0.649445 0.278456
0.853245 0.650747 0.279757
0.955988 0.651884 0.280894
0.000104 0.772098 0.275010
0.102846 0.773235 0.276147
0.220449 0.774536 0.277449
0.347957 0.775947 0.278860
0.480419 0.777413 0.280325
0.612881 0.778879 0.281791
0.740390 0.780290 0.283202
0.857992 0.781591 0.284503
0.960734 0.782728 0.285640
0.004482 0.892776 0.279388
0.107224 0.893913 0.280525
0.224826 0.895215 0.281826
0.352335 0.896626 0.283237
0.484797 0.898091 0.284703
0.617259 0.899557 0.286169
0.744767 0.900968 0.287580
0.862370 0.902270 0.288881
0.965112 0.903406 0.290018
0.008307 0.998207 0.283213
0.111049 0.999343 0.284350
0.228651 1.000000 0.285651
0.356160 1.000000 0.287062
0.488622 1.000000 0.288528
0.621083 1.000000 0.289994
0.748592 1.000000 0.291405
0.866194 1.000000 0.292706
0.968937 1.000000 0.293843
0.000000 0.012926 0.374030
0.075768 0.014063 0.375167
0.193370 0.015364 0.376468
0.320879 0.016775 0.377879
0.453341 0.018241 0.379345
0.585803 0.019707 0.380810
0.713311 0.021117 0.382221
0.830913 0.022419 0.383523
0.933656 0.023556 0.384660
0.000000 0.118356 0.377854
0.079593 0.119493 0.378991
0.197195 0.120794 0.380293
0.324704 0.122205 0.381704
0.457165 0.123671 0.383169
0.589627 0.125137 0.384635
0.717136 0.126548 0.386046
0.834738 0.127849 0.387347
0.937480 0.128986 0.388484
0.000000 0.239034 0.382232
0.083971 0.240171 0.383369
0.201573 0.241473 0.384670
0.329081 0.242884 0.386081
0.461543 0.244349 0.387547
0.594005 0.245815 0.389013
0.721514 0.247226 0.390424
0.839116 0.248528 0.391725
0.941858 0.249664 0.392862
0.000000 0.369879 0.386979
0.088717 0.371016 0.388116
0.206319 0.372317 0.389417
0.333828 0.373728 0.390828
0.466290 0.375194 0.392294
0.598752 0.376659 0.393759
0.726260 0.378070 0.395170
0.843862 0.379372 0.396472
0.946605 0.380509 0.397609
0.000000 0.505806 0.391910
0.093648 0.506943 0.393047
0.211250 0.508244 0.394348
0.338759 0.509655 0.395759
0.471221 0.511121 0.397225
0.603683 0.512587 0.398690
0.731191 0.513997 0.400101
0.848793 0.515299 0.401403
0.951536 0.516436 0.402540
0.000000 0.641733 0.396841
0.098579 0.642870 0.397978
0.216181 0.644171 0.399279
0.343690 0.645582 0.400690
0.476152 0.647048 0.402156
0.608614 0.648514 0.403621
0.736122 0.649925 0.405032
0.853724 0.651226 0.406334
0.956467 0.652363 0.407471
0.000583 0.772577 0.401587
0.103326 0.773714 0.402724
0.220928 0.775015 0.404025
0.348436 0.776426 0.405436
0.480898 0.777892 0.406902
0.613360 0.779358 0.408368
0.740869 0.780769 0.409779
0.858471 0.782070 0.411080
0.961213 0.783207 0.412217
0.004961 0.893256 0.405965
0.107703 0.894393 0.407102
0.225306 0.895694 0.408403
0.352814 0.897105 0.409814
0.485276 0.898571 0.411280
0.617738 0.900036 0.412746
0.745247 0.901447 0.414157
0.862849 0.902749 0.415458
0.965591 0.903886 0.416595
0.008786 0.998686 0.409790
0.111528 0.999823 0.410927
0.229130 1.000000 0.412228
0.356639 1.000000 0.413639
0.489101 1.000000 0.415105
0.621563 1.000000 0.416570
0.749071 1.000000 0.417981
0.866673 1.000000 0.419283
0.969416 1.000000 0.420420
0.000000 0.013424 0.505524
0.076266 0.014560 0.506660
0.193868 0.015862 0.507962
0.321377 0.017273 0.509373
0.453839 0.018739 0.510839
0.586300 0.020204 0.512304
0.713809 0.021615 0.513715
0.831411 0.022917 0.515017
0.934154 0.024054 0.516154
0.000000 0.118854 0.509348
0.080091 0.119991 0.510485
0.197693 0.121292 0.511786
0.325201 0.122703 0.513197
0.457663 0.124169 0.514663
0.590125 0.125634 0.516129
0.717634 0.127045 0.517540
0.835236 0.128347 0.518841
0.937978 0.129484 0.519978
0.000000 0.239532 0.513726
0.084468 0.240669 0.514863
0.202070 0.241970 0.516164
0.329579 0.243381 0.517575
0.462041 0.244847 0.519041
0.594503 0.246313 0.520507
0.722011 0.247724 0.521918
0.839614 0.249025 0.523219
0.942356 0.250162 0.524356
0.000000 0.370376 0.518473
0.089215 0.371513 0.519609
0.206817 0.372815 0.520911
0.334326 0.374226 0.522322
0.466788 0.375691 0.523788
0.599249 0.377157 0.525253
0.726758 0.378568 0.526664
0.844360 0.379870 0.527966
0.947103 0.381006 0.529103
0.000000 0.506304 0.523404
0.094146 0.507440 0.524540
0.211748 0.508742 0.525842
0.339257 0.510153 0.527253
0.471719 0.511619 0.528719
0.604180 0.513084 0.530184
0.731689 0.514495 0.531595
0.849291 0.515797 0.532897
0.952034 0.516934 0.534034
0.000000 0.642231 0.528334
0.099077 0.643367 0.529471
0.216679 0.644669 0.530773
0.344188 0.646080 0.532184
0.476649 0.647546 0.533649
0.609111 0.649011 0.535115
0.736620 0.650422 0.536526
0.854222 0.651724 0.537828
0.956964 0.652861 0.538964
0.001081 0.773075 0.533081
0.103823 0.774212 0.534218
0.221426 0.775513 0.535519
0.348934 0.776924 0.536930
0.481396 0.778390 0.538396
0.613858 0.779856 0.539862
0.741367 0.781267 0.541273
0.858969 0.782568 0.542574
0.961711 0.783705 0.543711
0.005459 0.893753 0.537459
0.108201 0.894890 0.538596
0.225803 0.896192 0.539897
0.353312 0.897603 0.541308
0.485774 0.899068 0.542774
0.618236 0.900534 0.544240
0.745744 0.901945 0.545651
0.863346 0.903246 0.546952
0.966089 0.904383 0.548089
0.009284 0.999184 0.541284
0.112026 1.000000 0.542420
0.229628 1.000000 0.543722
0.357137 1.000000 0.545133
0.489599 1.000000 0.546599
0.622060 1.000000 0.548064
0.749569 1.000000 0.549475
0.867171 1.000000 0.550777
0.969914 1.000000 0.551914
0.000000 0.013921 0.637017
0.076764 0.015058 0.638154
0.194366 0.016360 0.639456
0.321874 0.017771 0.640867
0.454336 0.019236 0.642332
0.586798 0.020702 0.643798
0.714307 0.022113 0.645209
0.831909 0.023414 0.646510
0.934651 0.024551 0.647647
0.000000 0.119351 0.640842
0.080588 0.120488 0.641979
0.198190 0.121790 0.643280
0.325699 0.123201 0.644691
0.458161 0.124666 0.646157
0.590623 0.126132 0.647623
0.718131 0.127543 0.649034
0.835734 0.128845 0.650335
0.938476 0.129981 0.651472
0.000000 0.240030 0.645220
0.084966 0.241167 0.646357
0.202568 0.242468 0.647658
0.330077 0.243879 0.649069
0.462539 0.245345 0.650535
0.595001 0.246811 0.652001
0.722509 0.248222 0.653412
0.840111 0.249523 0.654713
0.942854 0.250660 0.655850
0.000000 0.370874 0.649966
0.089713 0.372011 0.651103
0.207315 0.373312 0.652405
0.334823 0.374723 0.653816
0.467285 0.376189 0.655281
0.599747 0.377655 0.656747
0.727256 0.379066 0.658158
0.844858 0.380367 0.659460
0.947600 0.381504 0.660596
0.000000 0.506801 0.654897
0.094644 0.507938 0.656034
0.212246 0.509240 0.657336
0.339754 0.510651 0.658747
0.472216 0.512116 0.660212
0.604678 0.513582 0.661678
0.732187 0.514993 0.663089
0.849789 0.516294 0.664390
0.952531 0.517431 0.665527
0.000000 0.642728 0.659828
0.099575 0.643865 0.660965
0.217177 0.645167 0.662267
0.344685 0.646578 0.663678
0.477147 0.648043 0.665143
0.609609 0.649509 0.666609
0.737118 0.650920 0.668020
0.854720 0.652221 0.669321
0.957462 0.653358 0.670458
0.001579 0.773573 0.664575
0.104321 0.774710 0.665712
0.221923 0.776011 0.667013
0.349432 0.777422 0.668424
0.481894 0.778888 0.669890
0.614356 0.780353 0.671356
0.741864 0.781764 0.672767
0.859466 0.783066 0.674068
0.962209 0.784203 0.675205
0.005957 0.894251 0.668953
0.108699 0.895388 0.670090
0.226301 0.896689 0.671391
0.353810 0.898100 0.672802
0.486272 0.899566 0.674268
0.618734 0.901032 0.675734
0.746242 0.902443 0.677144
0.863844 0.903744 0.678446
0.966587 0.904881 0.679583
0.009781 0.999681 0.672777
0.112524 1.000000 0.673914
0.230126 1.000000 0.675216
0.357634 1.000000 0.676627
0.490096 1.000000 0.678092
0.622558 1.000000 0.679558
0.750067 1.000000 0.680969
0.867669 1.000000 0.682270
0.970411 1.000000 0.683407
0.000000 0.014400 0.763594
0.077243 0.015537 0.764731
0.194845 0.016839 0.766032
0.322354 0.018250 0.767443
0.454815 0.019715 0.768909
0.587277 0.021181 0.770375
0.714786 0.022592 0.771786
0.832388 0.023894 0.773087
0.935130 0.025030 0.774224
0.000000 0.119831 0.767419
0.081068 0.120968 0.768556
0.198670 0.122269 0.769857
0.326178 0.123680 0.771268
0.458640 0.125146 0.772734
0.591102 0.126611 0.774200
0.718611 0.128022 0.775611
0.836213 0.129324 0.776912
0.938955 0.130461 0.778049
0.000000 0.240509 0.771797
0.085445 0.241646 0.772934
0.203047 0.242947 0.774235
0.330556 0.244358 0.775646
0.463018 0.245824 0.777112
0.595480 0.247290 0.778577
0.722988 0.248701 0.779988
0.840591 0.250002 0.781290
0.943333 0.251139 0.782427
0.000000 0.371353 0.776543
0.090192 0.372490 0.777680
0.207794 0.373792 0.778982
0.335303 0.375203 0.780392
0.467765 0.376668 0.781858
0.600226 0.378134 0.783324
0.727735 0.379545 0.784735
0.845337 0.380847 0.786036
0.948080 0.381983 0.787173
0.000000 0.507280 0.781474
0.095123 0.508417 0.782611
0.212725 0.509719 0.783912
0.340234 0.511130 0.785323
0.472695 0.512595 0.786789
0.605157 0.514061 0.788255
0.732666 0.515472 0.789666
0.850268 0.516774 0.790967
0.953010 0.517910 0.792104
0.000000 0.643208 0.786405
0.100054 0.644344 0.787542
0.217656 0.645646 0.788843
0.345165 0.647057 0.790254
0.477626 0.648523 0.791720
0.610088 0.649988 0.793186
0.737597 0.651399 0.794597
0.855199 0.652701 0.795898
0.957941 0.653838 0.797035
0.002058 0.774052 0.791152
0.104800 0.775189 0.792289
0.222403 0.776490 0.793590
0.349911 0.777901 0.795001
0.482373 0.779367 0.796467
0.614835 0.780833 0.797933
0.742344 0.782244 0.799344
0.859946 0.783545 0.800645
0.962688 0.784682 0.801782
0.006436 0.894730 0.795530
0.109178 0.895867 0.796666
0.226780 0.897169 0.797968
0.354289 0.898580 0.799379
0.486751 0.900045 0.800845
0.619213 0.901511 0.802310
0.746721 0.902922 0.803721
0.864323 0.904223 0.805023
0.967066 0.905360 0.806160
0.010260 1.000000 0.799354
0.113003 1.000000 0.800491
0.230605 1.000000 0.801792
0.358114 1.000000 0.803203
0.490575 1.000000 0.804669
0.623037 1.000000 0.806135
0.750546 1.000000 0.807546
0.868148 1.000000 0.808847
0.970890 1.000000 0.809984
0.000000 0.014842 0.880337
0.077685 0.015979 0.881474
0.195287 0.017281 0.882775
0.322796 0.018692 0.884186
0.455257 0.020157 0.885652
0.587719 0.021623 0.887118
0.715228 0.023034 0.888529
0.832830 0.024336 0.889830
0.935572 0.025472 0.890967
0.000000 0.120273 0.884162
0.081509 0.121409 0.885299
0.199112 0.122711 0.886600
0.326620 0.124122 0.888011
0.459082 0.125588 0.889477
0.591544 0.127053 0.890942
0.719053 0.128464 0.892353
0.836655 0.129766 0.893655
0.939397 0.130903 0.894792
0.000000 0.240951 0.888539
0.085887 0.242088 0.889676
0.203489 0.243389 0.890978
0.330998 0.244800 0.892389
0.463460 0.246266 0.893854
0.595922 0.247732 0.895320
0.723430 0.249143 0.896731
0.841032 0.250444 0.898032
0.943775 0.251581 0.899169
0.000000 0.371795 0.893286
0.090634 0.372932 0.894423
0.208236 0.374234 0.895724
0.335745 0.375645 0.897135
0.468206 0.377110 0.898601
0.600668 0.378576 0.900067
0.728177 0.379987 0.901478
0.845779 0.381288 0.902779
0.948521 0.382425 0.903916
0.000000 0.507722 0.898217
0.095565 0.508859 0.899354
0.213167 0.510161 0.900655
0.340676 0.511572 0.902066
0.473137 0.513037 0.903532
0.605599 0.514503 0.904998
0.733108 0.515914 0.906409
0.850710 0.517216 0.907710
0.953452 0.518352 0.908847
0.000000 0.643649 0.903148
0.100496 0.644786 0.904285
0.218098 0.646088 0.905586
0.345607 0.647499 0.906997
0.478068 0.648964 0.908463
0.610530 0.650430 0.909929
0.738039 0.651841 0.911340
0.855641 0.653143 0.912641
0.958383 0.654279 0.913778
0.002500 0.774494 0.907895
0.105242 0.775631 0.909031
0.222844 0.776932 0.910333
0.350353 0.778343 0.911744
0.482815 0.779809 0.913210
0.615277 0.781274 0.914675
0.742785 0.782685 0.916086
0.860388 0.783987 0.917388
0.963130 0.785124 0.918525
0.006878 0.895172 0.912272
0.109620 0.896309 0.913409
0.227222 0.897611 0.914711
0.354731 0.899022 0.916122
0.487193 0.900487 0.917587
0.619655 0.901953 0.919053
0.747163 0.903364 0.920464
0.864765 0.904665 0.921765
0.967508 0.905802 0.922902
0.010702 1.000000 0.916097
0.113445 1.000000 0.917234
0.231047 1.000000 0.918535
0.358556 1.000000 0.919946
0.491017 1.000000 0.921412
0.623479 1.000000 0.922878
0.750988 1.000000 0.924289
0.868590 1.000000 0.925590
0.971332 1.000000 0.926727
0.000000 0.015229 0.982329
0.078071 0.016365 0.983465
0.195673 0.017667 0.984767
0.323182 0.019078 0.986178
0.455644 0.020544 0.987644
0.588105 0.022009 0.989109
0.715614 0.023420 0.990520
0.833216 0.024722 0.991822
0.935959 0.025859 0.992959
0.000000 0.120659 0.986153
0.081896 0.121796 0.987290
0.199498 0.123097 0.988591
0.327006 0.124508 0.990002
0.459468 0.125974 0.991468
0.591930 0.127439 0.992934
0.719439 0.128850 0.994345
0.837041 0.130152 0.995646
0.939783 0.131289 0.996783
0.000000 0.241337 0.990531
0.086273 0.242474 0.991668
0.203875 0.243775 0.992969
0.331384 0.245186 0.994380
0.463846 0.246652 0.995846
0.596308 0.248118 0.997312
0.723816 0.249529 0.998723
0.841419 0.250830 1.000000
0.944161 0.251967 1.000000
0.000000 0.372181 0.995278
0.091020 0.373318 0.996414
0.208622 0.374620 0.997716
0.336131 0.376031 0.999127
0.468593 0.377496 1.000000
0.601054 0.378962 1.000000
0.728563 0.380373 1.000000
0.846165 0.381675 1.000000
0.948908 0.382811 1.000000
0.000000 0.508109 1.000000
0.095951 0.509245 1.000000
0.213553 0.510547 1.000000
0.341062 0.511958 1.000000
0.473524 0.513424 1.000000
0.605985 0.514889 1.000000
0.733494 0.516300 1.000000
0.851096 0.517602 1.000000
0.953839 0.518739 1.000000
0.000000 0.644036 1.000000
0.100882 0.645172 1.000000
0.218484 0.646474 1.000000
0.345993 0.647885 1.000000
0.478454 0.649351 1.000000
0.610916 0.650816 1.000000
0.738425 0.652227 1.000000
0.856027 0.653529 1.000000
0.958769 0.654666 1.000000
0.002886 0.774880 1.000000
0.105628 0.776017 1.000000
0.223231 0.777318 1.000000
0.350739 0.778729 1.000000
0.483201 0.780195 1.000000
0.615663 0.781661 1.000000
0.743172 0.783072 1.000000
0.860774 0.784373 1.000000
0.963516 0.785510 1.000000
0.007264 0.895558 1.000000
0.110006 0.896695 1.000000
0.227608 0.897997 1.000000
0.355117 0.899408 1.000000
0.487579 0.900873 1.000000
0.620041 0.902339 1.000000
0.747549 0.903750 1.000000
0.865151 0.905051 1.000000
0.967894 0.906188 1.000000
0.011089 1.000000 1.000000
0.113831 1.000000 1.000000
0.231433 1.000000 1.000000
0.358942 1.000000 1.000000
0.491404 1.000000 1.000000
0.623865 1.000000 1.000000
0.751374 1.000000 1.000000
0.868976 1.000000 1.000000
0.971719 1.000000 1.000000
