app/src/main/assets/luts/Golden_Hour.cube
TITLE "Golden Hour"
# Generated by editclips.online — free to use
DOMAIN_MIN 0.0 0.0 0.0
DOMAIN_MAX 1.0 1.0 1.0
LUT_3D_SIZE 33
0.065846 0.000000 0.000000
0.099971 0.000000 0.000000
0.134096 0.000000 0.000000
0.168221 0.000000 0.000000
0.202346 0.000000 0.000000
0.236471 0.000000 0.000000
0.270596 0.000000 0.000000
0.304721 0.000000 0.000000
0.338846 0.000000 0.000000
0.372971 0.000000 0.000000
0.407096 0.000000 0.000000
0.441221 0.000000 0.000000
0.475346 0.000000 0.000000
0.509471 0.000000 0.000000
0.543596 0.000000 0.000000
0.577721 0.000000 0.000000
0.611846 0.000000 0.000000
0.645971 0.000000 0.000000
0.680096 0.000000 0.000000
0.714221 0.000000 0.000000
0.748346 0.000000 0.000000
0.782470 0.000000 0.000000
0.816595 0.000000 0.000000
0.850720 0.000000 0.000000
0.884845 0.000000 0.000000
0.918970 0.000000 0.000000
0.953095 0.000000 0.000000
0.987220 0.000000 0.000000
1.000000 0.000000 0.000000
1.000000 0.000000 0.000000
1.000000 0.000000 0.000000
1.000000 0.000000 0.000000
1.000000 0.000000 0.000000
0.065005 0.019608 0.000000
0.099130 0.019176 0.000000
0.133255 0.018743 0.000000
0.167380 0.018310 0.000000
0.201505 0.017877 0.000000
0.235630 0.017445 0.000000
0.269755 0.017012 0.000000
0.303880 0.016579 0.000000
0.338005 0.016147 0.000000
0.372130 0.015714 0.000000
0.406255 0.015281 0.000000
0.440380 0.014848 0.000000
0.474505 0.014416 0.000000
0.508630 0.013983 0.000000
0.542755 0.013550 0.000000
0.576880 0.013117 0.000000
0.611005 0.012685 0.000000
0.645130 0.012252 0.000000
0.679254 0.011819 0.000000
0.713379 0.011386 0.000000
0.747504 0.010954 0.000000
0.781629 0.010521 0.000000
0.815754 0.010088 0.000000
0.849879 0.009655 0.000000
0.884004 0.009223 0.000000
0.918129 0.008790 0.000000
0.952254 0.008357 0.000000
0.986379 0.007925 0.000000
1.000000 0.007492 0.000000
1.000000 0.007059 0.000000
1.000000 0.006626 0.000000
1.000000 0.006194 0.000000
1.000000 0.005761 0.000000
0.064164 0.052528 0.000000
0.098289 0.052095 0.000000
0.132414 0.051662 0.000000
0.166539 0.051229 0.000000
0.200664 0.050797 0.000000
0.234789 0.050364 0.000000
0.268914 0.049931 0.000000
0.303039 0.049499 0.000000
0.337164 0.049066 0.000000
0.371289 0.048633 0.000000
0.405414 0.048200 0.000000
0.439539 0.047768 0.000000
0.473664 0.047335 0.000000
0.507789 0.046902 0.000000
0.541913 0.046469 0.000000
0.576038 0.046037 0.000000
0.610163 0.045604 0.000000
0.644288 0.045171 0.000000
0.678413 0.044738 0.000000
0.712538 0.044306 0.000000
0.746663 0.043873 0.000000
0.780788 0.043440 0.000000
0.814913 0.043007 0.000000
0.849038 0.042575 0.000000
0.883163 0.042142 0.000000
0.917288 0.041709 0.000000
0.951413 0.041277 0.000000
0.985538 0.040844 0.000000
1.000000 0.040411 0.000000
1.000000 0.039978 0.000000
1.000000 0.039546 0.000000
1.000000 0.039113 0.000000
1.000000 0.038680 0.000000
0.063323 0.085447 0.000000
0.097448 0.085014 0.000000
0.131573 0.084581 0.000000
0.165698 0.084149 0.000000
0.199823 0.083716 0.000000
0.233948 0.083283 0.000000
0.268073 0.082850 0.000000
0.302198 0.082418 0.000000
0.336323 0.081985 0.000000
0.370448 0.081552 0.000000
0.404572 0.081120 0.000000
0.438697 0.080687 0.000000
0.472822 0.080254 0.000000
0.506947 0.079821 0.000000
0.541072 0.079389 0.000000
0.575197 0.078956 0.000000
0.609322 0.078523 0.000000
0.643447 0.078090 0.000000
0.677572 0.077658 0.000000
0.711697 0.077225 0.000000
0.745822 0.076792 0.000000
0.779947 0.076359 0.000000
0.814072 0.075927 0.000000
0.848197 0.075494 0.000000
0.882322 0.075061 0.000000
0.916447 0.074628 0.000000
0.950572 0.074196 0.000000
0.984697 0.073763 0.000000
1.000000 0.073330 0.000000
1.000000 0.072898 0.000000
1.000000 0.072465 0.000000
1.000000 0.072032 0.000000
1.000000 0.071599 0.000000
0.062482 0.118366 0.000000
0.096607 0.117933 0.000000
0.130732 0.117501 0.000000
0.164857 0.117068 0.000000
0.198982 0.116635 0.000000
0.233107 0.116202 0.000000
0.267231 0.115770 0.000000
0.301356 0.115337 0.000000
0.335481 0.114904 0.000000
0.369606 0.114472 0.000000
0.403731 0.114039 0.000000
0.437856 0.113606 0.000000
0.471981 0.113173 0.000000
0.506106 0.112741 0.000000
0.540231 0.112308 0.000000
0.574356 0.111875 0.000000
0.608481 0.111442 0.000000
0.642606 0.111010 0.000000
0.676731 0.110577 0.000000
0.710856 0.110144 0.000000
0.744981 0.109711 0.000000
0.779106 0.109279 0.000000
0.813231 0.108846 0.000000
0.847356 0.108413 0.000000
0.881481 0.107980 0.000000
0.915606 0.107548 0.000000
0.949731 0.107115 0.000000
0.983856 0.106682 0.000000
1.000000 0.106250 0.000000
1.000000 0.105817 0.000000
1.000000 0.105384 0.000000
1.000000 0.104951 0.000000
1.000000 0.104519 0.000000
0.061641 0.151285 0.000000
0.095766 0.150853 0.000000
0.129890 0.150420 0.000000
0.164015 0.149987 0.000000
0.198140 0.149554 0.000000
0.232265 0.149122 0.000000
0.266390 0.148689 0.000000
0.300515 0.148256 0.000000
0.334640 0.147824 0.000000
0.368765 0.147391 0.000000
0.402890 0.146958 0.000000
0.437015 0.146525 0.000000
0.471140 0.146093 0.000000
0.505265 0.145660 0.000000
0.539390 0.145227 0.000000
0.573515 0.144794 0.000000
0.607640 0.144362 0.000000
0.641765 0.143929 0.000000
0.675890 0.143496 0.000000
0.710015 0.143063 0.000000
0.744140 0.142631 0.000000
0.778265 0.142198 0.000000
0.812390 0.141765 0.000000
0.846515 0.141332 0.000000
0.880640 0.140900 0.000000
0.914765 0.140467 0.000000
0.948890 0.140034 0.000000
0.983015 0.139602 0.000000
1.000000 0.139169 0.000000
1.000000 0.138736 0.000000
1.000000 0.138303 0.000000
1.000000 0.137871 0.000000
1.000000 0.137438 0.000000
0.060799 0.184205 0.000000
0.094924 0.183772 0.000000
0.129049 0.183339 0.000000
0.163174 0.182906 0.000000
0.197299 0.182474 0.000000
0.231424 0.182041 0.000000
0.265549 0.181608 0.000000
0.299674 0.181175 0.000000
0.333799 0.180743 0.000000
0.367924 0.180310 0.000000
0.402049 0.179877 0.000000
0.436174 0.179445 0.000000
0.470299 0.179012 0.000000
0.504424 0.178579 0.000000
0.538549 0.178146 0.000000
0.572674 0.177714 0.000000
0.606799 0.177281 0.000000
0.640924 0.176848 0.000000
0.675049 0.176415 0.000000
0.709174 0.175983 0.000000
0.743299 0.175550 0.000000
0.777424 0.175117 0.000000
0.811549 0.174684 0.000000
0.845674 0.174252 0.000000
0.879799 0.173819 0.000000
0.913924 0.173386 0.000000
0.948049 0.172953 0.000000
0.982174 0.172521 0.000000
1.000000 0.172088 0.000000
1.000000 0.171655 0.000000
1.000000 0.171223 0.000000
1.000000 0.170790 0.000000
1.000000 0.170357 0.000000
0.059958 0.217124 0.000000
0.094083 0.216691 0.000000
0.128208 0.216258 0.000000
0.162333 0.215826 0.000000
0.196458 0.215393 0.000000
0.230583 0.214960 0.000000
0.264708 0.214527 0.000000
0.298833 0.214095 0.000000
0.332958 0.213662 0.000000
0.367083 0.213229 0.000000
0.401208 0.212797 0.000000
0.435333 0.212364 0.000000
0.469458 0.211931 0.000000
0.503583 0.211498 0.000000
0.537708 0.211066 0.000000
0.571833 0.210633 0.000000
0.605958 0.210200 0.000000
0.640083 0.209767 0.000000
0.674208 0.209335 0.000000
0.708333 0.208902 0.000000
0.742458 0.208469 0.000000
0.776583 0.208036 0.000000
0.810708 0.207604 0.000000
0.844833 0.207171 0.000000
0.878957 0.206738 0.000000
0.913082 0.206305 0.000000
0.947207 0.205873 0.000000
0.981332 0.205440 0.000000
1.000000 0.205007 0.000000
1.000000 0.204575 0.000000
1.000000 0.204142 0.000000
1.000000 0.203709 0.000000
1.000000 0.203276 0.000000
0.059117 0.250043 0.000000
0.093242 0.249610 0.000000
0.127367 0.249178 0.000000
0.161492 0.248745 0.000000
0.195617 0.248312 0.000000
0.229742 0.247879 0.000000
0.263867 0.247447 0.000000
0.297992 0.247014 0.000000
0.332117 0.246581 0.000000
0.366242 0.246149 0.000000
0.400367 0.245716 0.000000
0.434492 0.245283 0.000000
0.468617 0.244850 0.000000
0.502742 0.244418 0.000000
0.536867 0.243985 0.000000
0.570992 0.243552 0.000000
0.605117 0.243119 0.000000
0.639242 0.242687 0.000000
0.673367 0.242254 0.000000
0.707492 0.241821 0.000000
0.741616 0.241388 0.000000
0.775741 0.240956 0.000000
0.809866 0.240523 0.000000
0.843991 0.240090 0.000000
0.878116 0.239657 0.000000
0.912241 0.239225 0.000000
0.946366 0.238792 0.000000
0.980491 0.238359 0.000000
1.000000 0.237927 0.000000
1.000000 0.237494 0.000000
1.000000 0.237061 0.000000
1.000000 0.236628 0.000000
1.000000 0.236196 0.000000
0.058276 0.282962 0.000000
0.092401 0.282530 0.000000
0.126526 0.282097 0.000000
0.160651 0.281664 0.000000
0.194776 0.281231 0.000000
0.228901 0.280799 0.000000
0.263026 0.280366 0.000000
0.297151 0.279933 0.000000
0.331276 0.279500 0.000000
0.365401 0.279068 0.000000
0.399526 0.278635 0.000000
0.433651 0.278202 0.000000
0.467776 0.277770 0.000000
0.501901 0.277337 0.000000
0.536026 0.276904 0.000000
0.570151 0.276471 0.000000
0.604276 0.276039 0.000000
0.638400 0.275606 0.000000
0.672525 0.275173 0.000000
0.706650 0.274740 0.000000
0.740775 0.274308 0.000000
0.774900 0.273875 0.000000
0.809025 0.273442 0.000000
0.843150 0.273009 0.000000
0.877275 0.272577 0.000000
0.911400 0.272144 0.000000
0.945525 0.271711 0.000000
0.979650 0.271278 0.000000
1.000000 0.270846 0.000000
1.000000 0.270413 0.000000
1.000000 0.269980 0.000000
1.000000 0.269548 0.000000
1.000000 0.269115 0.000000
0.057435 0.315882 0.000000
0.091560 0.315449 0.000000
0.125685 0.315016 0.000000
0.159810 0.314583 0.000000
0.193935 0.314151 0.000000
0.228060 0.313718 0.000000
0.262185 0.313285 0.000000
0.296310 0.312852 0.000000
0.330435 0.312420 0.000000
0.364560 0.311987 0.000000
0.398685 0.311554 0.000000
0.432810 0.311122 0.000000
0.466935 0.310689 0.000000
0.501059 0.310256 0.000000
0.535184 0.309823 0.000000
0.569309 0.309391 0.000000
0.603434 0.308958 0.000000
0.637559 0.308525 0.000000
0.671684 0.308092 0.000000
0.705809 0.307660 0.000000
0.739934 0.307227 0.000000
0.774059 0.306794 0.000000
0.808184 0.306361 0.000000
0.842309 0.305929 0.000000
0.876434 0.305496 0.000000
0.910559 0.305063 0.000000
0.944684 0.304630 0.000000
0.978809 0.304198 0.000000
1.000000 0.303765 0.000000
1.000000 0.303332 0.000000
1.000000 0.302900 0.000000
1.000000 0.302467 0.000000
1.000000 0.302034 0.000000
0.056594 0.348801 0.000000
0.090719 0.348368 0.000000
0.124844 0.347935 0.000000
0.158969 0.347503 0.000000
0.193094 0.347070 0.000000
0.227219 0.346637 0.000000
0.261344 0.346204 0.000000
0.295469 0.345772 0.000000
0.329594 0.345339 0.000000
0.363718 0.344906 0.000000
0.397843 0.344474 0.000000
0.431968 0.344041 0.000000
0.466093 0.343608 0.000000
0.500218 0.343175 0.000000
0.534343 0.342743 0.000000
0.568468 0.342310 0.000000
0.602593 0.341877 0.000000
0.636718 0.341444 0.000000
0.670843 0.341012 0.000000
0.704968 0.340579 0.000000
0.739093 0.340146 0.000000
0.773218 0.339713 0.000000
0.807343 0.339281 0.000000
0.841468 0.338848 0.000000
0.875593 0.338415 0.000000
0.909718 0.337982 0.000000
0.943843 0.337550 0.000000
0.977968 0.337117 0.000000
1.000000 0.336684 0.000000
1.000000 0.336252 0.000000
1.000000 0.335819 0.000000
1.000000 0.335386 0.000000
1.000000 0.334953 0.000000
0.055753 0.381720 0.000000
0.089878 0.381287 0.000000
0.124003 0.380855 0.000000
0.158128 0.380422 0.000000
0.192253 0.379989 0.000000
0.226377 0.379556 0.000000
0.260502 0.379124 0.000000
0.294627 0.378691 0.000000
0.328752 0.378258 0.000000
0.362877 0.377825 0.000000
0.397002 0.377393 0.000000
0.431127 0.376960 0.000000
0.465252 0.376527 0.000000
0.499377 0.376095 0.000000
0.533502 0.375662 0.000000
0.567627 0.375229 0.000000
0.601752 0.374796 0.000000
0.635877 0.374364 0.000000
0.670002 0.373931 0.000000
0.704127 0.373498 0.000000
0.738252 0.373065 0.000000
0.772377 0.372633 0.000000
0.806502 0.372200 0.000000
0.840627 0.371767 0.000000
0.874752 0.371334 0.000000
0.908877 0.370902 0.000000
0.943002 0.370469 0.000000
0.977127 0.370036 0.000000
1.000000 0.369603 0.000000
1.000000 0.369171 0.000000
1.000000 0.368738 0.000000
1.000000 0.368305 0.000000
1.000000 0.367873 0.000000
0.054912 0.414639 0.000000
0.089036 0.414207 0.000000
0.123161 0.413774 0.000000
0.157286 0.413341 0.000000
0.191411 0.412908 0.000000
0.225536 0.412476 0.000000
0.259661 0.412043 0.000000
0.293786 0.411610 0.000000
0.327911 0.411177 0.000000
0.362036 0.410745 0.000000
0.396161 0.410312 0.000000
0.430286 0.409879 0.000000
0.464411 0.409447 0.000000
0.498536 0.409014 0.000000
0.532661 0.408581 0.000000
0.566786 0.408148 0.000000
0.600911 0.407716 0.000000
0.635036 0.407283 0.000000
0.669161 0.406850 0.000000
0.703286 0.406417 0.000000
0.737411 0.405985 0.000000
0.771536 0.405552 0.000000
0.805661 0.405119 0.000000
0.839786 0.404686 0.000000
0.873911 0.404254 0.000000
0.908036 0.403821 0.000000
0.942161 0.403388 0.000000
0.976286 0.402955 0.000000
1.000000 0.402523 0.000000
1.000000 0.402090 0.000000
1.000000 0.401657 0.000000
1.000000 0.401225 0.000000
1.000000 0.400792 0.000000
0.054070 0.447559 0.000000
0.088195 0.447126 0.000000
0.122320 0.446693 0.000000
0.156445 0.446260 0.000000
0.190570 0.445828 0.000000
0.224695 0.445395 0.000000
0.258820 0.444962 0.000000
0.292945 0.444529 0.000000
0.327070 0.444097 0.000000
0.361195 0.443664 0.000000
0.395320 0.443231 0.000000
0.429445 0.442799 0.000000
0.463570 0.442366 0.000000
0.497695 0.441933 0.000000
0.531820 0.441500 0.000000
0.565945 0.441068 0.000000
0.600070 0.440635 0.000000
0.634195 0.440202 0.000000
0.668320 0.439769 0.000000
0.702445 0.439337 0.000000
0.736570 0.438904 0.000000
0.770695 0.438471 0.000000
0.804820 0.438038 0.000000
0.838945 0.437606 0.000000
0.873070 0.437173 0.000000
0.907195 0.436740 0.000000
0.941320 0.436307 0.000000
0.975444 0.435875 0.000000
1.000000 0.435442 0.000000
1.000000 0.435009 0.000000
1.000000 0.434577 0.000000
1.000000 0.434144 0.000000
1.000000 0.433711 0.000000
0.053229 0.480478 0.000000
0.087354 0.480045 0.000000
0.121479 0.479612 0.000000
0.155604 0.479180 0.000000
0.189729 0.478747 0.000000
0.223854 0.478314 0.000000
0.257979 0.477881 0.000000
0.292104 0.477449 0.000000
0.326229 0.477016 0.000000
0.360354 0.476583 0.000000
0.394479 0.476150 0.000000
0.428604 0.475718 0.000000
0.462729 0.475285 0.000000
0.496854 0.474852 0.000000
0.530979 0.474420 0.000000
0.565104 0.473987 0.000000
0.599229 0.473554 0.000000
0.633354 0.473121 0.000000
0.667479 0.472689 0.000000
0.701604 0.472256 0.000000
0.735729 0.471823 0.000000
0.769854 0.471390 0.000000
0.803979 0.470958 0.000000
0.838103 0.470525 0.000000
0.872228 0.470092 0.000000
0.906353 0.469659 0.000000
0.940478 0.469227 0.000000
0.974603 0.468794 0.000000
1.000000 0.468361 0.000000
1.000000 0.467928 0.000000
1.000000 0.467496 0.000000
1.000000 0.467063 0.000000
1.000000 0.466630 0.000000
0.052388 0.513397 0.000000
0.086513 0.512964 0.000000
0.120638 0.512532 0.000000
0.154763 0.512099 0.000000
0.188888 0.511666 0.000000
0.223013 0.511233 0.000000
0.257138 0.510801 0.000000
0.291263 0.510368 0.000000
0.325388 0.509935 0.000000
0.359513 0.509502 0.000000
0.393638 0.509070 0.000000
0.427763 0.508637 0.000000
0.461888 0.508204 0.000000
0.496013 0.507772 0.000000
0.530138 0.507339 0.000000
0.564263 0.506906 0.000000
0.598388 0.506473 0.000000
0.632513 0.506041 0.000000
0.666638 0.505608 0.000000
0.700763 0.505175 0.000000
0.734887 0.504742 0.000000
0.769012 0.504310 0.000000
0.803137 0.503877 0.000000
0.837262 0.503444 0.000000
0.871387 0.503011 0.000000
0.905512 0.502579 0.000000
0.939637 0.502146 0.000000
0.973762 0.501713 0.000000
1.000000 0.501280 0.000000
1.000000 0.500848 0.000000
1.000000 0.500415 0.000000
1.000000 0.499982 0.000000
1.000000 0.499550 0.000000
0.051547 0.546316 0.000000
0.085672 0.545884 0.000000
0.119797 0.545451 0.000000
0.153922 0.545018 0.000000
0.188047 0.544585 0.000000
0.222172 0.544153 0.000000
0.256297 0.543720 0.000000
0.290422 0.543287 0.000000
0.324547 0.542854 0.000000
0.358672 0.542422 0.000000
0.392797 0.541989 0.000000
0.426922 0.541556 0.000000
0.461047 0.541124 0.000000
0.495172 0.540691 0.000000
0.529297 0.540258 0.000000
0.563422 0.539825 0.000000
0.597546 0.539393 0.000000
0.631671 0.538960 0.000000
0.665796 0.538527 0.000000
0.699921 0.538094 0.000000
0.734046 0.537662 0.000000
0.768171 0.537229 0.000000
0.802296 0.536796 0.000000
0.836421 0.536363 0.000000
0.870546 0.535931 0.000000
0.904671 0.535498 0.000000
0.938796 0.535065 0.000000
0.972921 0.534632 0.000000
1.000000 0.534200 0.000000
1.000000 0.533767 0.000000
1.000000 0.533334 0.000000
1.000000 0.532902 0.000000
1.000000 0.532469 0.000000
0.050706 0.579236 0.000000
0.084831 0.578803 0.000000
0.118956 0.578370 0.000000
0.153081 0.577937 0.000000
0.187206 0.577505 0.000000
0.221331 0.577072 0.000000
0.255456 0.576639 0.000000
0.289581 0.576206 0.000000
0.323706 0.575774 0.000000
0.357831 0.575341 0.000000
0.391956 0.574908 0.000000
0.426081 0.574475 0.000000
0.460205 0.574043 0.000000
0.494330 0.573610 0.000000
0.528455 0.573177 0.000000
0.562580 0.572745 0.000000
0.596705 0.572312 0.000000
0.630830 0.571879 0.000000
0.664955 0.571446 0.000000
0.699080 0.571014 0.000000
0.733205 0.570581 0.000000
0.767330 0.570148 0.000000
0.801455 0.569715 0.000000
0.835580 0.569283 0.000000
0.869705 0.568850 0.000000
0.903830 0.568417 0.000000
0.937955 0.567984 0.000000
0.972080 0.567552 0.000000
1.000000 0.567119 0.000000
1.000000 0.566686 0.000000
1.000000 0.566253 0.000000
1.000000 0.565821 0.000000
1.000000 0.565388 0.000000
0.049865 0.612155 0.000000
0.083990 0.611722 0.000000
0.118115 0.611289 0.000000
0.152240 0.610857 0.000000
0.186365 0.610424 0.000000
0.220490 0.609991 0.000000
0.254615 0.609558 0.000000
0.288740 0.609126 0.000000
0.322864 0.608693 0.000000
0.356989 0.608260 0.000000
0.391114 0.607827 0.000000
0.425239 0.607395 0.000000
0.459364 0.606962 0.000000
0.493489 0.606529 0.000000
0.527614 0.606097 0.000000
0.561739 0.605664 0.000000
0.595864 0.605231 0.000000
0.629989 0.604798 0.000000
0.664114 0.604366 0.000000
0.698239 0.603933 0.000000
0.732364 0.603500 0.000000
0.766489 0.603067 0.000000
0.800614 0.602635 0.000000
0.834739 0.602202 0.000000
0.868864 0.601769 0.000000
0.902989 0.601336 0.000000
0.937114 0.600904 0.000000
0.971239 0.600471 0.000000
1.000000 0.600038 0.000000
1.000000 0.599605 0.000000
1.000000 0.599173 0.000000
1.000000 0.598740 0.000000
1.000000 0.598307 0.000000
0.049024 0.645074 0.000000
0.083149 0.644641 0.000000
0.117274 0.644209 0.000000
0.151399 0.643776 0.000000
0.185523 0.643343 0.000000
0.219648 0.642910 0.000000
0.253773 0.642478 0.000000
0.287898 0.642045 0.000000
0.322023 0.641612 0.000000
0.356148 0.641179 0.000000
0.390273 0.640747 0.000000
0.424398 0.640314 0.000000
0.458523 0.639881 0.000000
0.492648 0.639449 0.000000
0.526773 0.639016 0.000000
0.560898 0.638583 0.000000
0.595023 0.638150 0.000000
0.629148 0.637718 0.000000
0.663273 0.637285 0.000000
0.697398 0.636852 0.000000
0.731523 0.636419 0.000000
0.765648 0.635987 0.000000
0.799773 0.635554 0.000000
0.833898 0.635121 0.000000
0.868023 0.634688 0.000000
0.902148 0.634256 0.000000
0.936273 0.633823 0.000000
0.970398 0.633390 0.000000
1.000000 0.632957 0.000000
1.000000 0.632525 0.000000
1.000000 0.632092 0.000000
1.000000 0.631659 0.000000
1.000000 0.631227 0.000000
0.048182 0.677993 0.000000
0.082307 0.677561 0.000000
0.116432 0.677128 0.000000
0.150557 0.676695 0.000000
0.184682 0.676262 0.000000
0.218807 0.675830 0.000000
0.252932 0.675397 0.000000
0.287057 0.674964 0.000000
0.321182 0.674531 0.000000
0.355307 0.674099 0.000000
0.389432 0.673666 0.000000
0.423557 0.673233 0.000000
0.457682 0.672800 0.000000
0.491807 0.672368 0.000000
0.525932 0.671935 0.000000
0.560057 0.671502 0.000000
0.594182 0.671070 0.000000
0.628307 0.670637 0.000000
0.662432 0.670204 0.000000
0.696557 0.669771 0.000000
0.730682 0.669339 0.000000
0.764807 0.668906 0.000000
0.798932 0.668473 0.000000
0.833057 0.668040 0.000000
0.867182 0.667608 0.000000
0.901307 0.667175 0.000000
0.935432 0.666742 0.000000
0.969557 0.666309 0.000000
1.000000 0.665877 0.000000
1.000000 0.665444 0.000000
1.000000 0.665011 0.000000
1.000000 0.664578 0.000000
1.000000 0.664146 0.000000
0.047341 0.710913 0.000000
0.081466 0.710480 0.000000
0.115591 0.710047 0.000000
0.149716 0.709614 0.000000
0.183841 0.709182 0.000000
0.217966 0.708749 0.000000
0.252091 0.708316 0.000000
0.286216 0.707883 0.000000
0.320341 0.707451 0.000000
0.354466 0.707018 0.000000
0.388591 0.706585 0.000000
0.422716 0.706152 0.000000
0.456841 0.705720 0.000000
0.490966 0.705287 0.000000
0.525091 0.704854 0.000000
0.559216 0.704422 0.000000
0.593341 0.703989 0.000000
0.627466 0.703556 0.000000
0.661591 0.703123 0.000000
0.695716 0.702691 0.000000
0.729841 0.702258 0.000000
0.763966 0.701825 0.000000
0.798091 0.701392 0.000000
0.832216 0.700960 0.000000
0.866341 0.700527 0.000000
0.900466 0.700094 0.000000
0.934590 0.699661 0.000000
0.968715 0.699229 0.000000
1.000000 0.698796 0.000000
1.000000 0.698363 0.000000
1.000000 0.697930 0.000000
1.000000 0.697498 0.000000
1.000000 0.697065 0.000000
0.046500 0.743832 0.000000
0.080625 0.743399 0.000000
0.114750 0.742966 0.000000
0.148875 0.742534 0.000000
0.183000 0.742101 0.000000
0.217125 0.741668 0.000000
0.251250 0.741235 0.000000
0.285375 0.740803 0.000000
0.319500 0.740370 0.000000
0.353625 0.739937 0.000000
0.387750 0.739504 0.000000
0.421875 0.739072 0.000000
0.456000 0.738639 0.000000
0.490125 0.738206 0.000000
0.524250 0.737774 0.000000
0.558375 0.737341 0.000000
0.592500 0.736908 0.000000
0.626625 0.736475 0.000000
0.660750 0.736043 0.000000
0.694875 0.735610 0.000000
0.729000 0.735177 0.000000
0.763125 0.734744 0.000000
0.797249 0.734312 0.000000
0.831374 0.733879 0.000000
0.865499 0.733446 0.000000
0.899624 0.733013 0.000000
0.933749 0.732581 0.000000
0.967874 0.732148 0.000000
1.000000 0.731715 0.000000
1.000000 0.731282 0.000000
1.000000 0.730850 0.000000
1.000000 0.730417 0.000000
1.000000 0.729984 0.000000
0.045659 0.776751 0.000000
0.079784 0.776318 0.000000
0.113909 0.775886 0.000000
0.148034 0.775453 0.000000
0.182159 0.775020 0.000000
0.216284 0.774587 0.000000
0.250409 0.774155 0.000000
0.284534 0.773722 0.000000
0.318659 0.773289 0.000000
0.352784 0.772856 0.000000
0.386909 0.772424 0.000000
0.421034 0.771991 0.000000
0.455159 0.771558 0.000000
0.489284 0.771125 0.000000
0.523409 0.770693 0.000000
0.557534 0.770260 0.000000
0.591659 0.769827 0.000000
0.625784 0.769395 0.000000
0.659909 0.768962 0.000000
0.694033 0.768529 0.000000
0.728158 0.768096 0.000000
0.762283 0.767664 0.000000
0.796408 0.767231 0.000000
0.830533 0.766798 0.000000
0.864658 0.766365 0.000000
0.898783 0.765933 0.000000
0.932908 0.765500 0.000000
0.967033 0.765067 0.000000
1.000000 0.764634 0.000000
1.000000 0.764202 0.000000
1.000000 0.763769 0.000000
1.000000 0.763336 0.000000
1.000000 0.762904 0.000000
0.044818 0.809670 0.000000
0.078943 0.809238 0.000000
0.113068 0.808805 0.000000
0.147193 0.808372 0.000000
0.181318 0.807939 0.000000
0.215443 0.807507 0.000000
0.249568 0.807074 0.000000
0.283693 0.806641 0.000000
0.317818 0.806208 0.000000
0.351943 0.805776 0.000000
0.386068 0.805343 0.000000
0.420193 0.804910 0.000000
0.454318 0.804477 0.000000
0.488443 0.804045 0.000000
0.522568 0.803612 0.000000
0.556692 0.803179 0.000000
0.590817 0.802747 0.000000
0.624942 0.802314 0.000000
0.659067 0.801881 0.000000
0.693192 0.801448 0.000000
0.727317 0.801016 0.000000
0.761442 0.800583 0.000000
0.795567 0.800150 0.000000
0.829692 0.799717 0.000000
0.863817 0.799285 0.000000
0.897942 0.798852 0.000000
0.932067 0.798419 0.000000
0.966192 0.797986 0.000000
1.000000 0.797554 0.000000
1.000000 0.797121 0.000000
1.000000 0.796688 0.000000
1.000000 0.796255 0.000000
1.000000 0.795823 0.000000
0.043977 0.842590 0.000000
0.078102 0.842157 0.000000
0.112227 0.841724 0.000000
0.146352 0.841291 0.000000
0.180477 0.840859 0.000000
0.214602 0.840426 0.000000
0.248727 0.839993 0.000000
0.282852 0.839560 0.000000
0.316977 0.839128 0.000000
0.351102 0.838695 0.000000
0.385227 0.838262 0.000000
0.419351 0.837829 0.000000
0.453476 0.837397 0.000000
0.487601 0.836964 0.000000
0.521726 0.836531 0.000000
0.555851 0.836099 0.000000
0.589976 0.835666 0.000000
0.624101 0.835233 0.000000
0.658226 0.834800 0.000000
0.692351 0.834368 0.000000
0.726476 0.833935 0.000000
0.760601 0.833502 0.000000
0.794726 0.833069 0.000000
0.828851 0.832637 0.000000
0.862976 0.832204 0.000000
0.897101 0.831771 0.000000
