app/src/main/assets/luts/Golden_Hour.cube
TITLE "Golden Hour"
# Generated by editclips.online — free to use
DOMAIN_MIN 0.0 0.0 0.0
DOMAIN_MAX 1.0 1.0 1.0
LUT_3D_SIZE 9
0.065846 0.000000 0.000000
0.202346 0.000000 0.000000
0.338846 0.000000 0.000000
0.475346 0.000000 0.000000
0.611846 0.000000 0.000000
0.748346 0.000000 0.000000
0.884845 0.000000 0.000000
1.000000 0.000000 0.000000
1.000000 0.000000 0.000000
0.062482 0.118366 0.000000
0.198982 0.116635 0.000000
0.335481 0.114904 0.000000
0.471981 0.113173 0.000000
0.608481 0.111442 0.000000
0.744981 0.109711 0.000000
0.881481 0.107980 0.000000
1.000000 0.106250 0.000000
1.000000 0.104519 0.000000
0.059117 0.250043 0.000000
0.195617 0.248312 0.000000
0.332117 0.246581 0.000000
0.468617 0.244850 0.000000
0.605117 0.243119 0.000000
0.741616 0.241388 0.000000
0.878116 0.239657 0.000000
1.000000 0.237927 0.000000
1.000000 0.236196 0.000000
0.055753 0.381720 0.000000
0.192253 0.379989 0.000000
0.328752 0.378258 0.000000
0.465252 0.376527 0.000000
0.601752 0.374796 0.000000
0.738252 0.373065 0.000000
0.874752 0.371334 0.000000
1.000000 0.369603 0.000000
1.000000 0.367873 0.000000
0.052388 0.513397 0.000000
0.188888 0.511666 0.000000
0.325388 0.509935 0.000000
0.461888 0.508204 0.000000
0.598388 0.506473 0.000000
0.734887 0.504742 0.000000
0.871387 0.503011 0.000000
1.000000 0.501280 0.000000
1.000000 0.499550 0.000000
0.049024 0.645074 0.000000
0.185523 0.643343 0.000000
0.322023 0.641612 0.000000
0.458523 0.639881 0.000000
0.595023 0.638150 0.000000
0.731523 0.636419 0.000000
0.868023 0.634688 0.000000
1.000000 0.632957 0.000000
1.000000 0.631227 0.000000
0.045659 0.776751 0.000000
0.182159 0.775020 0.000000
0.318659 0.773289 0.000000
0.455159 0.771558 0.000000
0.591659 0.769827 0.000000
0.728158 0.768096 0.000000
0.864658 0.766365 0.000000
1.000000 0.764634 0.000000
1.000000 0.762904 0.000000
0.042295 0.908428 0.000000
0.178794 0.906697 0.000000
0.315294 0.904966 0.000000
0.451794 0.903235 0.000000
0.588294 0.901504 0.000000
0.724794 0.899773 0.000000
0.861294 0.898042 0.000000
0.997794 0.896311 0.000000
1.000000 0.894580 0.000000
0.038930 1.000000 0.000000
0.175430 1.000000 0.000000
0.311930 1.000000 0.000000
0.448430 1.000000 0.000000
0.584930 1.000000 0.000000
0.721429 1.000000 0.000000
0.857929 1.000000 0.000000
0.994429 1.000000 0.000000
1.000000 1.000000 0.000000
0.065507 0.000000 0.081350
0.202006 0.000000 0.078011
0.338506 0.000000 0.074672
0.475006 0.000000 0.071334
0.611506 0.000000 0.067995
0.748006 0.000000 0.064656
0.884506 0.000000 0.061317
1.000000 0.000000 0.057979
1.000000 0.000000 0.054640
0.062142 0.117778 0.070118
0.198642 0.116047 0.066779
0.335142 0.114316 0.063441
0.471642 0.112585 0.060102
0.608141 0.110855 0.056763
0.744641 0.109124 0.053424
0.881141 0.107393 0.050086
1.000000 0.105662 0.046747
1.000000 0.103931 0.043408
0.058778 0.249455 0.058886
0.195277 0.247724 0.055548
0.331777 0.245993 0.052209
0.468277 0.244262 0.048870
0.604777 0.242532 0.045531
0.741277 0.240801 0.042193
0.877777 0.239070 0.038854
1.000000 0.237339 0.035515
1.000000 0.235608 0.032177
0.055413 0.381132 0.047655
0.191913 0.379401 0.044316
0.328413 0.377670 0.040977
0.464913 0.375939 0.037638
0.601412 0.374208 0.034300
0.737912 0.372478 0.030961
0.874412 0.370747 0.027622
1.000000 0.369016 0.024284
1.000000 0.367285 0.020945
0.052048 0.512809 0.036423
0.188548 0.511078 0.033084
0.325048 0.509347 0.029746
0.461548 0.507616 0.026407
0.598048 0.505885 0.023068
0.734548 0.504155 0.019729
0.871048 0.502424 0.016391
1.000000 0.500693 0.013052
1.000000 0.498962 0.009713
0.048684 0.644486 0.025191
0.185184 0.642755 0.021853
0.321684 0.641024 0.018514
0.458184 0.639293 0.015175
0.594683 0.637562 0.011836
0.731183 0.635832 0.008498
0.867683 0.634101 0.005159
1.000000 0.632370 0.001820
1.000000 0.630639 0.000000
0.045319 0.776163 0.013960
0.181819 0.774432 0.010621
0.318319 0.772701 0.007282
0.454819 0.770970 0.003943
0.591319 0.769239 0.000605
0.727819 0.767509 0.000000
0.864319 0.765778 0.000000
1.000000 0.764047 0.000000
1.000000 0.762316 0.000000
0.041955 0.907840 0.002728
0.178455 0.906109 0.000000
0.314955 0.904378 0.000000
0.451455 0.902647 0.000000
0.587954 0.900916 0.000000
0.724454 0.899185 0.000000
0.860954 0.897455 0.000000
0.997454 0.895724 0.000000
1.000000 0.893993 0.000000
0.038590 1.000000 0.000000
0.175090 1.000000 0.000000
0.311590 1.000000 0.000000
0.448090 1.000000 0.000000
0.584590 1.000000 0.000000
0.721090 1.000000 0.000000
0.857590 1.000000 0.000000
0.994089 1.000000 0.000000
1.000000 1.000000 0.000000
0.065167 0.000000 0.217716
0.201667 0.000000 0.214377
0.338167 0.000000 0.211039
0.474666 0.000000 0.207700
0.611166 0.000000 0.204361
0.747666 0.000000 0.201022
0.884166 0.000000 0.197684
1.000000 0.000000 0.194345
1.000000 0.000000 0.191006
0.061802 0.117190 0.206484
0.198302 0.115460 0.203146
0.334802 0.113729 0.199807
0.471302 0.111998 0.196468
0.607802 0.110267 0.193129
0.744302 0.108536 0.189791
0.880802 0.106805 0.186452
1.000000 0.105074 0.183113
1.000000 0.103343 0.179774
0.058438 0.248867 0.195253
0.194938 0.247137 0.191914
0.331438 0.245406 0.188575
0.467937 0.243675 0.185236
0.604437 0.241944 0.181898
0.740937 0.240213 0.178559
0.877437 0.238482 0.175220
1.000000 0.236751 0.171881
1.000000 0.235020 0.168543
0.055073 0.380544 0.184021
0.191573 0.378813 0.180682
0.328073 0.377083 0.177343
0.464573 0.375352 0.174005
0.601073 0.373621 0.170666
0.737573 0.371890 0.167327
0.874073 0.370159 0.163988
1.000000 0.368428 0.160650
1.000000 0.366697 0.157311
0.051709 0.512221 0.172789
0.188209 0.510490 0.169450
0.324709 0.508760 0.166112
0.461208 0.507029 0.162773
0.597708 0.505298 0.159434
0.734208 0.503567 0.156095
0.870708 0.501836 0.152757
1.000000 0.500105 0.149418
1.000000 0.498374 0.146079
0.048344 0.643898 0.161557
0.184844 0.642167 0.158219
0.321344 0.640437 0.154880
0.457844 0.638706 0.151541
0.594344 0.636975 0.148202
0.730844 0.635244 0.144864
0.867344 0.633513 0.141525
1.000000 0.631782 0.138186
1.000000 0.630051 0.134848
0.044980 0.775575 0.150326
0.181480 0.773844 0.146987
0.317980 0.772114 0.143648
0.454479 0.770383 0.140309
0.590979 0.768652 0.136971
0.727479 0.766921 0.133632
0.863979 0.765190 0.130293
1.000000 0.763459 0.126955
1.000000 0.761728 0.123616
0.041615 0.907252 0.139094
0.178115 0.905521 0.135755
0.314615 0.903790 0.132417
0.451115 0.902060 0.129078
0.587615 0.900329 0.125739
0.724115 0.898598 0.122400
0.860614 0.896867 0.119062
0.997114 0.895136 0.115723
1.000000 0.893405 0.112384
0.038251 1.000000 0.127862
0.174751 1.000000 0.124524
0.311251 1.000000 0.121185
0.447750 1.000000 0.117846
0.584250 1.000000 0.114507
0.720750 1.000000 0.111169
0.857250 1.000000 0.107830
0.993750 1.000000 0.104491
1.000000 1.000000 0.101152
0.064827 0.000000 0.354082
0.201327 0.000000 0.350743
0.337827 0.000000 0.347405
0.474327 0.000000 0.344066
0.610827 0.000000 0.340727
0.747327 0.000000 0.337388
0.883826 0.000000 0.334050
1.000000 0.000000 0.330711
1.000000 0.000000 0.327372
0.061463 0.116603 0.342850
0.197963 0.114872 0.339512
0.334462 0.113141 0.336173
0.470962 0.111410 0.332834
0.607462 0.109679 0.329495
0.743962 0.107948 0.326157
0.880462 0.106217 0.322818
1.000000 0.104486 0.319479
1.000000 0.102755 0.316141
0.058098 0.248280 0.331619
0.194598 0.246549 0.328280
0.331098 0.244818 0.324941
0.467598 0.243087 0.321603
0.604098 0.241356 0.318264
0.740598 0.239625 0.314925
0.877097 0.237894 0.311586
1.000000 0.236163 0.308248
1.000000 0.234432 0.304909
0.054734 0.379957 0.320387
0.191234 0.378226 0.317048
0.327733 0.376495 0.313710
0.464233 0.374764 0.310371
0.600733 0.373033 0.307032
0.737233 0.371302 0.303693
0.873733 0.369571 0.300355
1.000000 0.367840 0.297016
1.000000 0.366109 0.293677
0.051369 0.511634 0.309155
0.187869 0.509903 0.305817
0.324369 0.508172 0.302478
0.460869 0.506441 0.299139
0.597369 0.504710 0.295800
0.733869 0.502979 0.292462
0.870368 0.501248 0.289123
1.000000 0.499517 0.285784
1.000000 0.497786 0.282445
0.048005 0.643311 0.297924
0.184505 0.641580 0.294585
0.321004 0.639849 0.291246
0.457504 0.638118 0.287907
0.594004 0.636387 0.284569
0.730504 0.634656 0.281230
0.867004 0.632925 0.277891
1.000000 0.631194 0.274552
1.000000 0.629463 0.271214
0.044640 0.774988 0.286692
0.181140 0.773257 0.283353
0.317640 0.771526 0.280014
0.454140 0.769795 0.276676
0.590640 0.768064 0.273337
0.727139 0.766333 0.269998
0.863639 0.764602 0.266659
1.000000 0.762871 0.263321
1.000000 0.761140 0.259982
0.041276 0.906665 0.275460
0.177776 0.904934 0.272121
0.314275 0.903203 0.268783
0.450775 0.901472 0.265444
0.587275 0.899741 0.262105
0.723775 0.898010 0.258766
0.860275 0.896279 0.255428
0.996775 0.894548 0.252089
1.000000 0.892817 0.248750
0.037911 1.000000 0.264228
0.174411 1.000000 0.260890
0.310911 1.000000 0.257551
0.447411 1.000000 0.254212
0.583911 1.000000 0.250873
0.720410 1.000000 0.247535
0.856910 1.000000 0.244196
0.993410 1.000000 0.240857
1.000000 1.000000 0.237519
0.064488 0.000000 0.490448
0.200987 0.000000 0.487110
0.337487 0.000000 0.483771
0.473987 0.000000 0.480432
0.610487 0.000000 0.477093
0.746987 0.000000 0.473755
0.883487 0.000000 0.470416
1.000000 0.000000 0.467077
1.000000 0.000000 0.463738
0.061123 0.116015 0.479217
0.197623 0.114284 0.475878
0.334123 0.112553 0.472539
0.470623 0.110822 0.469200
0.607123 0.109091 0.465862
0.743622 0.107360 0.462523
0.880122 0.105629 0.459184
1.000000 0.103898 0.455845
1.000000 0.102167 0.452507
0.057759 0.247692 0.467985
0.194258 0.245961 0.464646
0.330758 0.244230 0.461307
0.467258 0.242499 0.457969
0.603758 0.240768 0.454630
0.740258 0.239037 0.451291
0.876758 0.237306 0.447952
1.000000 0.235575 0.444614
1.000000 0.233844 0.441275
0.054394 0.379369 0.456753
0.190894 0.377638 0.453414
0.327394 0.375907 0.450076
0.463894 0.374176 0.446737
0.600394 0.372445 0.443398
0.736893 0.370714 0.440059
0.873393 0.368983 0.436721
1.000000 0.367252 0.433382
1.000000 0.365521 0.430043
0.051030 0.511046 0.445521
0.187529 0.509315 0.442183
0.324029 0.507584 0.438844
0.460529 0.505853 0.435505
0.597029 0.504122 0.432166
0.733529 0.502391 0.428828
0.870029 0.500660 0.425489
1.000000 0.498929 0.422150
1.000000 0.497198 0.418812
0.047665 0.642723 0.434290
0.184165 0.640992 0.430951
0.320665 0.639261 0.427612
0.457165 0.637530 0.424274
0.593664 0.635799 0.420935
0.730164 0.634068 0.417596
0.866664 0.632337 0.414257
1.000000 0.630606 0.410919
1.000000 0.628875 0.407580
0.044301 0.774400 0.423058
0.180800 0.772669 0.419719
0.317300 0.770938 0.416381
0.453800 0.769207 0.413042
0.590300 0.767476 0.409703
0.726800 0.765745 0.406364
0.863300 0.764014 0.403026
0.999800 0.762283 0.399687
1.000000 0.760552 0.396348
0.040936 0.906077 0.411826
0.177436 0.904346 0.408488
0.313936 0.902615 0.405149
0.450436 0.900884 0.401810
0.586935 0.899153 0.398471
0.723435 0.897422 0.395133
0.859935 0.895691 0.391794
0.996435 0.893960 0.388455
1.000000 0.892229 0.385116
0.037571 1.000000 0.400595
0.174071 1.000000 0.397256
0.310571 1.000000 0.393917
0.447071 1.000000 0.390578
0.583571 1.000000 0.387240
0.720071 1.000000 0.383901
0.856571 1.000000 0.380562
0.993071 1.000000 0.377223
1.000000 1.000000 0.373885
0.064148 0.000000 0.626814
0.200648 0.000000 0.623476
0.337148 0.000000 0.620137
0.473648 0.000000 0.616798
0.610147 0.000000 0.613460
0.746647 0.000000 0.610121
0.883147 0.000000 0.606782
1.000000 0.000000 0.603443
1.000000 0.000000 0.600105
0.060783 0.115427 0.615583
0.197283 0.113696 0.612244
0.333783 0.111965 0.608905
0.470283 0.110234 0.605567
0.606783 0.108503 0.602228
0.743283 0.106772 0.598889
0.879783 0.105041 0.595550
1.000000 0.103310 0.592212
1.000000 0.101579 0.588873
0.057419 0.247104 0.604351
0.193919 0.245373 0.601012
0.330419 0.243642 0.597674
0.466919 0.241911 0.594335
0.603418 0.240180 0.590996
0.739918 0.238449 0.587657
0.876418 0.236718 0.584319
1.000000 0.234987 0.580980
1.000000 0.233256 0.577641
0.054054 0.378781 0.593119
0.190554 0.377050 0.589781
0.327054 0.375319 0.586442
0.463554 0.373588 0.583103
0.600054 0.371857 0.579764
0.736554 0.370126 0.576426
0.873054 0.368395 0.573087
1.000000 0.366664 0.569748
1.000000 0.364933 0.566409
0.050690 0.510458 0.581888
0.187190 0.508727 0.578549
0.323690 0.506996 0.575210
0.460189 0.505265 0.571871
0.596689 0.503534 0.568533
0.733189 0.501803 0.565194
0.869689 0.500072 0.561855
1.000000 0.498341 0.558516
1.000000 0.496610 0.555178
0.047325 0.642135 0.570656
0.183825 0.640404 0.567317
0.320325 0.638673 0.563978
0.456825 0.636942 0.560640
0.593325 0.635211 0.557301
0.729825 0.633480 0.553962
0.866325 0.631749 0.550623
1.000000 0.630018 0.547285
1.000000 0.628287 0.543946
0.043961 0.773812 0.559424
0.180461 0.772081 0.556085
0.316961 0.770350 0.552747
0.453460 0.768619 0.549408
0.589960 0.766888 0.546069
0.726460 0.765157 0.542730
0.862960 0.763426 0.539392
0.999460 0.761695 0.536053
1.000000 0.759964 0.532714
0.040596 0.905489 0.548192
0.177096 0.903758 0.544854
0.313596 0.902027 0.541515
0.450096 0.900296 0.538176
0.586596 0.898565 0.534837
0.723096 0.896834 0.531499
0.859596 0.895103 0.528160
0.996095 0.893372 0.524821
1.000000 0.891641 0.521483
0.037232 1.000000 0.536961
0.173732 1.000000 0.533622
0.310232 1.000000 0.530283
0.446731 1.000000 0.526945
0.583231 1.000000 0.523606
0.719731 1.000000 0.520267
0.856231 1.000000 0.516928
0.992731 1.000000 0.513590
1.000000 1.000000 0.510251
0.063808 0.000000 0.763181
0.200308 0.000000 0.759842
0.336808 0.000000 0.756503
0.473308 0.000000 0.753164
0.609808 0.000000 0.749826
0.746308 0.000000 0.746487
0.882807 0.000000 0.743148
1.000000 0.000000 0.739809
1.000000 0.000000 0.736471
0.060444 0.114839 0.751949
0.196944 0.113108 0.748610
0.333444 0.111377 0.745271
0.469943 0.109646 0.741933
0.606443 0.107915 0.738594
0.742943 0.106184 0.735255
0.879443 0.104453 0.731916
1.000000 0.102722 0.728578
1.000000 0.100992 0.725239
0.057079 0.246516 0.740717
0.193579 0.244785 0.737378
0.330079 0.243054 0.734040
0.466579 0.241323 0.730701
0.603079 0.239592 0.727362
0.739579 0.237861 0.724023
0.876078 0.236130 0.720685
1.000000 0.234399 0.717346
1.000000 0.232669 0.714007
0.053715 0.378193 0.729485
0.190215 0.376462 0.726147
0.326714 0.374731 0.722808
0.463214 0.373000 0.719469
0.599714 0.371269 0.716131
0.736214 0.369538 0.712792
0.872714 0.367807 0.709453
1.000000 0.366076 0.706114
1.000000 0.364346 0.702776
0.050350 0.509870 0.718254
0.186850 0.508139 0.714915
0.323350 0.506408 0.711576
0.459850 0.504677 0.708238
0.596350 0.502946 0.704899
0.732850 0.501215 0.701560
0.869349 0.499484 0.698221
1.000000 0.497753 0.694883
1.000000 0.496023 0.691544
0.046986 0.641547 0.707022
0.183486 0.639816 0.703683
0.319985 0.638085 0.700345
0.456485 0.636354 0.697006
0.592985 0.634623 0.693667
0.729485 0.632892 0.690328
0.865985 0.631161 0.686990
1.000000 0.629430 0.683651
1.000000 0.627699 0.680312
0.043621 0.773224 0.695790
0.180121 0.771493 0.692452
0.316621 0.769762 0.689113
0.453121 0.768031 0.685774
0.589621 0.766300 0.682435
0.726121 0.764569 0.679097
0.862620 0.762838 0.675758
0.999120 0.761107 0.672419
1.000000 0.759376 0.669080
0.040257 0.904901 0.684559
0.176757 0.903170 0.681220
0.313256 0.901439 0.677881
0.449756 0.899708 0.674542
0.586256 0.897977 0.671204
0.722756 0.896246 0.667865
0.859256 0.894515 0.664526
0.995756 0.892784 0.661187
1.000000 0.891053 0.657849
0.036892 1.000000 0.673327
0.173392 1.000000 0.669988
0.309892 1.000000 0.666649
0.446392 1.000000 0.663311
0.582892 1.000000 0.659972
0.719392 1.000000 0.656633
0.855891 1.000000 0.653294
0.992391 1.000000 0.649956
1.000000 1.000000 0.646617
0.063469 0.000000 0.899547
0.199969 0.000000 0.896208
0.336468 0.000000 0.892869
0.472968 0.000000 0.889531
0.609468 0.000000 0.886192
0.745968 0.000000 0.882853
0.882468 0.000000 0.879514
1.000000 0.000000 0.876176
1.000000 0.000000 0.872837
0.060104 0.114251 0.888315
0.196604 0.112520 0.884976
0.333104 0.110789 0.881638
0.469604 0.109058 0.878299
0.606104 0.107327 0.874960
0.742603 0.105597 0.871621
0.879103 0.103866 0.868283
1.000000 0.102135 0.864944
1.000000 0.100404 0.861605
0.056740 0.245928 0.877083
0.193239 0.244197 0.873745
0.329739 0.242466 0.870406
0.466239 0.240735 0.867067
0.602739 0.239004 0.863728
0.739239 0.237274 0.860390
0.875739 0.235543 0.857051
1.000000 0.233812 0.853712
1.000000 0.232081 0.850373
0.053375 0.377605 0.865852
0.189875 0.375874 0.862513
0.326375 0.374143 0.859174
0.462875 0.372412 0.855835
0.599375 0.370681 0.852497
0.735874 0.368951 0.849158
0.872374 0.367220 0.845819
1.000000 0.365489 0.842480
1.000000 0.363758 0.839142
0.050011 0.509282 0.854620
0.186510 0.507551 0.851281
0.323010 0.505820 0.847942
0.459510 0.504089 0.844604
0.596010 0.502358 0.841265
0.732510 0.500628 0.837926
0.869010 0.498897 0.834587
1.000000 0.497166 0.831249
1.000000 0.495435 0.827910
0.046646 0.640959 0.843388
0.183146 0.639228 0.840049
0.319646 0.637497 0.836711
0.456146 0.635766 0.833372
0.592646 0.634035 0.830033
0.729145 0.632304 0.826694
0.865645 0.630574 0.823356
1.000000 0.628843 0.820017
1.000000 0.627112 0.816678
0.043282 0.772636 0.832156
0.179781 0.770905 0.828818
0.316281 0.769174 0.825479
0.452781 0.767443 0.822140
0.589281 0.765712 0.818802
0.725781 0.763981 0.815463
0.862281 0.762251 0.812124
0.998781 0.760520 0.808785
1.000000 0.758789 0.805447
0.039917 0.904313 0.820925
0.176417 0.902582 0.817586
0.312917 0.900851 0.814247
0.449417 0.899120 0.810909
0.585917 0.897389 0.807570
0.722416 0.895658 0.804231
0.858916 0.893928 0.800892
0.995416 0.892197 0.797554
1.000000 0.890466 0.794215
0.036553 1.000000 0.809693
0.173052 1.000000 0.806354
0.309552 1.000000 0.803016
0.446052 1.000000 0.799677
0.582552 1.000000 0.796338
0.719052 1.000000 0.792999
0.855552 1.000000 0.789661
0.992052 1.000000 0.786322
1.000000 1.000000 0.782983
0.063129 0.000000 1.000000
0.199629 0.000000 1.000000
0.336129 0.000000 1.000000
0.472629 0.000000 1.000000
0.609128 0.000000 1.000000
0.745628 0.000000 1.000000
0.882128 0.000000 1.000000
1.000000 0.000000 1.000000
1.000000 0.000000 1.000000
0.059764 0.113663 1.000000
0.196264 0.111933 1.000000
0.332764 0.110202 1.000000
0.469264 0.108471 1.000000
0.605764 0.106740 1.000000
0.742264 0.105009 1.000000
0.878764 0.103278 1.000000
1.000000 0.101547 1.000000
1.000000 0.099816 0.997971
0.056400 0.245340 1.000000
0.192900 0.243609 1.000000
0.329400 0.241879 1.000000
0.465900 0.240148 1.000000
0.602399 0.238417 1.000000
0.738899 0.236686 0.996756
0.875399 0.234955 0.993417
1.000000 0.233224 0.990078
1.000000 0.231493 0.986740
0.053035 0.377017 1.000000
0.189535 0.375286 0.998879
0.326035 0.373556 0.995540
0.462535 0.371825 0.992202
0.599035 0.370094 0.988863
0.735535 0.368363 0.985524
0.872035 0.366632 0.982185
1.000000 0.364901 0.978847
1.000000 0.363170 0.975508
0.049671 0.508694 0.990986
0.186171 0.506963 0.987647
0.322671 0.505233 0.984309
0.459171 0.503502 0.980970
0.595670 0.501771 0.977631
0.732170 0.500040 0.974292
0.868670 0.498309 0.970954
1.000000 0.496578 0.967615
1.000000 0.494847 0.964276
0.046306 0.640371 0.979754
0.182806 0.638640 0.976416
0.319306 0.636909 0.973077
0.455806 0.635179 0.969738
0.592306 0.633448 0.966399
0.728806 0.631717 0.963061
0.865306 0.629986 0.959722
1.000000 0.628255 0.956383
1.000000 0.626524 0.953044
0.042942 0.772048 0.968523
0.179442 0.770317 0.965184
0.315942 0.768586 0.961845
0.452442 0.766856 0.958506
0.588941 0.765125 0.955168
0.725441 0.763394 0.951829
0.861941 0.761663 0.948490
0.998441 0.759932 0.945151
1.000000 0.758201 0.941813
0.039577 0.903725 0.957291
0.176077 0.901994 0.953952
0.312577 0.900263 0.950613
0.449077 0.898533 0.947275
0.585577 0.896802 0.943936
0.722077 0.895071 0.940597
0.858577 0.893340 0.937258
0.995076 0.891609 0.933920
1.000000 0.889878 0.930581
0.036213 1.000000 0.946059
0.172713 1.000000 0.942720
0.309213 1.000000 0.939382
0.445712 1.000000 0.936043
0.582212 1.000000 0.932704
0.718712 1.000000 0.929365
0.855212 1.000000 0.926027
0.991712 1.000000 0.922688
1.000000 1.000000 0.919349
