app/src/main/assets/luts/Golden_Hour.cube
TITLE "Golden Hour"
# Generated by editclips.online — free to use
DOMAIN_MIN 0.0 0.0 0.0
DOMAIN_MAX 1.0 1.0 1.0
LUT_3D_SIZE 5
0.065846 0.000000 0.000000
0.338846 0.000000 0.000000
0.611846 0.000000 0.000000
0.884845 0.000000 0.000000
1.000000 0.000000 0.000000
0.059117 0.250043 0.000000
0.332117 0.246581 0.000000
0.605117 0.243119 0.000000
0.878116 0.239657 0.000000
1.000000 0.236196 0.000000
0.052388 0.513397 0.000000
0.325388 0.509935 0.000000
0.598388 0.506473 0.000000
0.871387 0.503011 0.000000
1.000000 0.499550 0.000000
0.045659 0.776751 0.000000
0.318659 0.773289 0.000000
0.591659 0.769827 0.000000
0.864658 0.766365 0.000000
1.000000 0.762904 0.000000
0.038930 1.000000 0.000000
0.311930 1.000000 0.000000
0.584930 1.000000 0.000000
0.857929 1.000000 0.000000
1.000000 1.000000 0.000000
0.065167 0.000000 0.217716
0.338167 0.000000 0.211039
0.611166 0.000000 0.204361
0.884166 0.000000 0.197684
1.000000 0.000000 0.191006
0.058438 0.248867 0.195253
0.331438 0.245406 0.188575
0.604437 0.241944 0.181898
0.877437 0.238482 0.175220
1.000000 0.235020 0.168543
0.051709 0.512221 0.172789
0.324709 0.508760 0.166112
0.597708 0.505298 0.159434
0.870708 0.501836 0.152757
1.000000 0.498374 0.146079
0.044980 0.775575 0.150326
0.317980 0.772114 0.143648
0.590979 0.768652 0.136971
0.863979 0.765190 0.130293
1.000000 0.761728 0.123616
0.038251 1.000000 0.127862
0.311251 1.000000 0.121185
0.584250 1.000000 0.114507
0.857250 1.000000 0.107830
1.000000 1.000000 0.101152
0.064488 0.000000 0.490448
0.337487 0.000000 0.483771
0.610487 0.000000 0.477093
0.883487 0.000000 0.470416
1.000000 0.000000 0.463738
0.057759 0.247692 0.467985
0.330758 0.244230 0.461307
0.603758 0.240768 0.454630
0.876758 0.237306 0.447952
1.000000 0.233844 0.441275
0.051030 0.511046 0.445521
0.324029 0.507584 0.438844
0.597029 0.504122 0.432166
0.870029 0.500660 0.425489
1.000000 0.497198 0.418812
0.044301 0.774400 0.423058
0.317300 0.770938 0.416381
0.590300 0.767476 0.409703
0.863300 0.764014 0.403026
1.000000 0.760552 0.396348
0.037571 1.000000 0.400595
0.310571 1.000000 0.393917
0.583571 1.000000 0.387240
0.856571 1.000000 0.380562
1.000000 1.000000 0.373885
0.063808 0.000000 0.763181
0.336808 0.000000 0.756503
0.609808 0.000000 0.749826
0.882807 0.000000 0.743148
1.000000 0.000000 0.736471
0.057079 0.246516 0.740717
0.330079 0.243054 0.734040
0.603079 0.239592 0.727362
0.876078 0.236130 0.720685
1.000000 0.232669 0.714007
0.050350 0.509870 0.718254
0.323350 0.506408 0.711576
0.596350 0.502946 0.704899
0.869349 0.499484 0.698221
1.000000 0.496023 0.691544
0.043621 0.773224 0.695790
0.316621 0.769762 0.689113
0.589621 0.766300 0.682435
0.862620 0.762838 0.675758
1.000000 0.759376 0.669080
0.036892 1.000000 0.673327
0.309892 1.000000 0.666649
0.582892 1.000000 0.659972
0.855891 1.000000 0.653294
1.000000 1.000000 0.646617
0.063129 0.000000 1.000000
0.336129 0.000000 1.000000
0.609128 0.000000 1.000000
0.882128 0.000000 1.000000
1.000000 0.000000 1.000000
0.056400 0.245340 1.000000
0.329400 0.241879 1.000000
0.602399 0.238417 1.000000
0.875399 0.234955 0.993417
1.000000 0.231493 0.986740
0.049671 0.508694 0.990986
0.322671 0.505233 0.984309
0.595670 0.501771 0.977631
0.868670 0.498309 0.970954
1.000000 0.494847 0.964276
0.042942 0.772048 0.968523
0.315942 0.768586 0.961845
0.588941 0.765125 0.955168
0.861941 0.761663 0.948490
1.000000 0.758201 0.941813
0.036213 1.000000 0.946059
0.309213 1.000000 0.939382
0.582212 1.000000 0.932704
0.855212 1.000000 0.926027
1.000000 1.000000 0.919349
