app/src/main/assets/luts/Mono_Contrast.cube
TITLE "B&W High Contrast"
# Generated by editclips.online — free to use
DOMAIN_MIN 0.0 0.0 0.0
DOMAIN_MAX 1.0 1.0 1.0
LUT_3D_SIZE 5
0.000000 0.000000 0.000000
0.000000 0.000000 0.000000
0.000000 0.000000 0.000000
0.000000 0.000000 0.000000
0.068900 0.068900 0.068900
0.018200 0.018200 0.018200
0.097925 0.097925 0.097925
0.177650 0.177650 0.177650
0.257375 0.257375 0.257375
0.337100 0.337100 0.337100
0.286400 0.286400 0.286400
0.366125 0.366125 0.366125
0.445850 0.445850 0.445850
0.525575 0.525575 0.525575
0.605300 0.605300 0.605300
0.554600 0.554600 0.554600
0.634325 0.634325 0.634325
0.714050 0.714050 0.714050
0.793775 0.793775 0.793775
0.873500 0.873500 0.873500
0.822800 0.822800 0.822800
0.902525 0.902525 0.902525
0.982250 0.982250 0.982250
1.000000 1.000000 1.000000
1.000000 1.000000 1.000000
0.000000 0.000000 0.000000
0.000000 0.000000 0.000000
0.000000 0.000000 0.000000
0.016250 0.016250 0.016250
0.095975 0.095975 0.095975
0.045275 0.045275 0.045275
0.125000 0.125000 0.125000
0.204725 0.204725 0.204725
0.284450 0.284450 0.284450
0.364175 0.364175 0.364175
0.313475 0.313475 0.313475
0.393200 0.393200 0.393200
0.472925 0.472925 0.472925
0.552650 0.552650 0.552650
0.632375 0.632375 0.632375
0.581675 0.581675 0.581675
0.661400 0.661400 0.661400
0.741125 0.741125 0.741125
0.820850 0.820850 0.820850
0.900575 0.900575 0.900575
0.849875 0.849875 0.849875
0.929600 0.929600 0.929600
1.000000 1.000000 1.000000
1.000000 1.000000 1.000000
1.000000 1.000000 1.000000
0.000000 0.000000 0.000000
0.000000 0.000000 0.000000
0.000000 0.000000 0.000000
0.043325 0.043325 0.043325
0.123050 0.123050 0.123050
0.072350 0.072350 0.072350
0.152075 0.152075 0.152075
0.231800 0.231800 0.231800
0.311525 0.311525 0.311525
0.391250 0.391250 0.391250
0.340550 0.340550 0.340550
0.420275 0.420275 0.420275
0.500000 0.500000 0.500000
0.579725 0.579725 0.579725
0.659450 0.659450 0.659450
0.608750 0.608750 0.608750
0.688475 0.688475 0.688475
0.768200 0.768200 0.768200
0.847925 0.847925 0.847925
0.927650 0.927650 0.927650
0.876950 0.876950 0.876950
0.956675 0.956675 0.956675
1.000000 1.000000 1.000000
1.000000 1.000000 1.000000
1.000000 1.000000 1.000000
0.000000 0.000000 0.000000
0.000000 0.000000 0.000000
0.000000 0.000000 0.000000
0.070400 0.070400 0.070400
0.150125 0.150125 0.150125
0.099425 0.099425 0.099425
0.179150 0.179150 0.179150
0.258875 0.258875 0.258875
0.338600 0.338600 0.338600
0.418325 0.418325 0.418325
0.367625 0.367625 0.367625
0.447350 0.447350 0.447350
0.527075 0.527075 0.527075
0.606800 0.606800 0.606800
0.686525 0.686525 0.686525
0.635825 0.635825 0.635825
0.715550 0.715550 0.715550
0.795275 0.795275 0.795275
0.875000 0.875000 0.875000
0.954725 0.954725 0.954725
0.904025 0.904025 0.904025
0.983750 0.983750 0.983750
1.000000 1.000000 1.000000
1.000000 1.000000 1.000000
1.000000 1.000000 1.000000
0.000000 0.000000 0.000000
0.000000 0.000000 0.000000
0.017750 0.017750 0.017750
0.097475 0.097475 0.097475
0.177200 0.177200 0.177200
0.126500 0.126500 0.126500
0.206225 0.206225 0.206225
0.285950 0.285950 0.285950
0.365675 0.365675 0.365675
0.445400 0.445400 0.445400
0.394700 0.394700 0.394700
0.474425 0.474425 0.474425
0.554150 0.554150 0.554150
0.633875 0.633875 0.633875
0.713600 0.713600 0.713600
0.662900 0.662900 0.662900
0.742625 0.742625 0.742625
0.822350 0.822350 0.822350
0.902075 0.902075 0.902075
0.981800 0.981800 0.981800
0.931100 0.931100 0.931100
1.000000 1.000000 1.000000
1.000000 1.000000 1.000000
1.000000 1.000000 1.000000
1.000000 1.000000 1.000000
