app/src/main/assets/luts/Mono_Contrast.cube
TITLE "B&W High Contrast"
# Generated by editclips.online — free to use
DOMAIN_MIN 0.0 0.0 0.0
DOMAIN_MAX 1.0 1.0 1.0
LUT_3D_SIZE 9
0.000000 0.000000 0.000000
0.000000 0.000000 0.000000
0.000000 0.000000 0.000000
0.000000 0.000000 0.000000
0.000000 0.000000 0.000000
0.000000 0.000000 0.000000
0.000000 0.000000 0.000000
0.029037 0.029037 0.029037
0.068900 0.068900 0.068900
0.000000 0.000000 0.000000
0.000000 0.000000 0.000000
0.000000 0.000000 0.000000
0.003687 0.003687 0.003687
0.043550 0.043550 0.043550
0.083413 0.083413 0.083413
0.123275 0.123275 0.123275
0.163137 0.163137 0.163137
0.203000 0.203000 0.203000
0.018200 0.018200 0.018200
0.058062 0.058062 0.058062
0.097925 0.097925 0.097925
0.137788 0.137788 0.137788
0.177650 0.177650 0.177650
0.217513 0.217513 0.217513
0.257375 0.257375 0.257375
0.297237 0.297237 0.297237
0.337100 0.337100 0.337100
0.152300 0.152300 0.152300
0.192163 0.192163 0.192163
0.232025 0.232025 0.232025
0.271887 0.271887 0.271887
0.311750 0.311750 0.311750
0.351612 0.351612 0.351612
0.391475 0.391475 0.391475
0.431337 0.431337 0.431337
0.471200 0.471200 0.471200
0.286400 0.286400 0.286400
0.326263 0.326263 0.326263
0.366125 0.366125 0.366125
0.405987 0.405987 0.405987
0.445850 0.445850 0.445850
0.485712 0.485712 0.485712
0.525575 0.525575 0.525575
0.565438 0.565438 0.565438
0.605300 0.605300 0.605300
0.420500 0.420500 0.420500
0.460362 0.460362 0.460362
0.500225 0.500225 0.500225
0.540088 0.540088 0.540088
0.579950 0.579950 0.579950
0.619812 0.619812 0.619812
0.659675 0.659675 0.659675
0.699537 0.699537 0.699537
0.739400 0.739400 0.739400
0.554600 0.554600 0.554600
0.594463 0.594463 0.594463
0.634325 0.634325 0.634325
0.674188 0.674188 0.674188
0.714050 0.714050 0.714050
0.753913 0.753913 0.753913
0.793775 0.793775 0.793775
0.833638 0.833638 0.833638
0.873500 0.873500 0.873500
0.688700 0.688700 0.688700
0.728562 0.728562 0.728562
0.768425 0.768425 0.768425
0.808287 0.808287 0.808287
0.848150 0.848150 0.848150
0.888012 0.888012 0.888012
0.927875 0.927875 0.927875
0.967737 0.967737 0.967737
1.000000 1.000000 1.000000
0.822800 0.822800 0.822800
0.862662 0.862662 0.862662
0.902525 0.902525 0.902525
0.942387 0.942387 0.942387
0.982250 0.982250 0.982250
1.000000 1.000000 1.000000
1.000000 1.000000 1.000000
1.000000 1.000000 1.000000
1.000000 1.000000 1.000000
0.000000 0.000000 0.000000
0.000000 0.000000 0.000000
0.000000 0.000000 0.000000
0.000000 0.000000 0.000000
0.000000 0.000000 0.000000
0.000000 0.000000 0.000000
0.002713 0.002713 0.002713
0.042575 0.042575 0.042575
0.082438 0.082438 0.082438
0.000000 0.000000 0.000000
0.000000 0.000000 0.000000
0.000000 0.000000 0.000000
0.017225 0.017225 0.017225
0.057087 0.057087 0.057087
0.096950 0.096950 0.096950
0.136813 0.136813 0.136813
0.176675 0.176675 0.176675
0.216537 0.216537 0.216537
0.031738 0.031738 0.031738
0.071600 0.071600 0.071600
0.111463 0.111463 0.111463
0.151325 0.151325 0.151325
0.191188 0.191188 0.191188
0.231050 0.231050 0.231050
0.270913 0.270913 0.270913
0.310775 0.310775 0.310775
0.350637 0.350637 0.350637
0.165837 0.165837 0.165837
0.205700 0.205700 0.205700
0.245563 0.245563 0.245563
0.285425 0.285425 0.285425
0.325288 0.325288 0.325288
0.365150 0.365150 0.365150
0.405012 0.405012 0.405012
0.444875 0.444875 0.444875
0.484738 0.484738 0.484738
0.299937 0.299937 0.299937
0.339800 0.339800 0.339800
0.379662 0.379662 0.379662
0.419525 0.419525 0.419525
0.459387 0.459387 0.459387
0.499250 0.499250 0.499250
0.539112 0.539112 0.539112
0.578975 0.578975 0.578975
0.618837 0.618837 0.618837
0.434037 0.434037 0.434037
0.473900 0.473900 0.473900
0.513762 0.513762 0.513762
0.553625 0.553625 0.553625
0.593487 0.593487 0.593487
0.633350 0.633350 0.633350
0.673212 0.673212 0.673212
0.713075 0.713075 0.713075
0.752937 0.752937 0.752937
0.568137 0.568137 0.568137
0.608000 0.608000 0.608000
0.647863 0.647863 0.647863
0.687725 0.687725 0.687725
0.727588 0.727588 0.727588
0.767450 0.767450 0.767450
0.807312 0.807312 0.807312
0.847175 0.847175 0.847175
0.887037 0.887037 0.887037
0.702237 0.702237 0.702237
0.742100 0.742100 0.742100
0.781962 0.781962 0.781962
0.821825 0.821825 0.821825
0.861687 0.861687 0.861687
0.901550 0.901550 0.901550
0.941412 0.941412 0.941412
0.981275 0.981275 0.981275
1.000000 1.000000 1.000000
0.836337 0.836337 0.836337
0.876200 0.876200 0.876200
0.916062 0.916062 0.916062
0.955925 0.955925 0.955925
0.995787 0.995787 0.995787
1.000000 1.000000 1.000000
1.000000 1.000000 1.000000
1.000000 1.000000 1.000000
1.000000 1.000000 1.000000
0.000000 0.000000 0.000000
0.000000 0.000000 0.000000
0.000000 0.000000 0.000000
0.000000 0.000000 0.000000
0.000000 0.000000 0.000000
0.000000 0.000000 0.000000
0.016250 0.016250 0.016250
0.056113 0.056113 0.056113
0.095975 0.095975 0.095975
0.000000 0.000000 0.000000
0.000000 0.000000 0.000000
0.000000 0.000000 0.000000
0.030762 0.030762 0.030762
0.070625 0.070625 0.070625
0.110488 0.110488 0.110488
0.150350 0.150350 0.150350
0.190213 0.190213 0.190213
0.230075 0.230075 0.230075
0.045275 0.045275 0.045275
0.085137 0.085137 0.085137
0.125000 0.125000 0.125000
0.164863 0.164863 0.164863
0.204725 0.204725 0.204725
0.244588 0.244588 0.244588
0.284450 0.284450 0.284450
0.324312 0.324312 0.324312
0.364175 0.364175 0.364175
0.179375 0.179375 0.179375
0.219238 0.219238 0.219238
0.259100 0.259100 0.259100
0.298963 0.298963 0.298963
0.338825 0.338825 0.338825
0.378688 0.378688 0.378688
0.418550 0.418550 0.418550
0.458413 0.458413 0.458413
0.498275 0.498275 0.498275
0.313475 0.313475 0.313475
0.353337 0.353337 0.353337
0.393200 0.393200 0.393200
0.433062 0.433062 0.433062
0.472925 0.472925 0.472925
0.512787 0.512787 0.512787
0.552650 0.552650 0.552650
0.592512 0.592512 0.592512
0.632375 0.632375 0.632375
0.447575 0.447575 0.447575
0.487437 0.487437 0.487437
0.527300 0.527300 0.527300
0.567163 0.567163 0.567163
0.607025 0.607025 0.607025
0.646887 0.646887 0.646887
0.686750 0.686750 0.686750
0.726612 0.726612 0.726612
0.766475 0.766475 0.766475
0.581675 0.581675 0.581675
0.621538 0.621538 0.621538
0.661400 0.661400 0.661400
0.701263 0.701263 0.701263
0.741125 0.741125 0.741125
0.780988 0.780988 0.780988
0.820850 0.820850 0.820850
0.860712 0.860712 0.860712
0.900575 0.900575 0.900575
0.715775 0.715775 0.715775
0.755637 0.755637 0.755637
0.795500 0.795500 0.795500
0.835363 0.835363 0.835363
0.875225 0.875225 0.875225
0.915088 0.915088 0.915088
0.954950 0.954950 0.954950
0.994812 0.994812 0.994812
1.000000 1.000000 1.000000
0.849875 0.849875 0.849875
0.889737 0.889737 0.889737
0.929600 0.929600 0.929600
0.969463 0.969463 0.969463
1.000000 1.000000 1.000000
1.000000 1.000000 1.000000
1.000000 1.000000 1.000000
1.000000 1.000000 1.000000
1.000000 1.000000 1.000000
0.000000 0.000000 0.000000
0.000000 0.000000 0.000000
0.000000 0.000000 0.000000
0.000000 0.000000 0.000000
0.000000 0.000000 0.000000
0.000000 0.000000 0.000000
0.029787 0.029787 0.029787
0.069650 0.069650 0.069650
0.109513 0.109513 0.109513
0.000000 0.000000 0.000000
0.000000 0.000000 0.000000
0.004438 0.004438 0.004438
0.044300 0.044300 0.044300
0.084163 0.084163 0.084163
0.124025 0.124025 0.124025
0.163888 0.163888 0.163888
0.203750 0.203750 0.203750
0.243613 0.243613 0.243613
0.058812 0.058812 0.058812
0.098675 0.098675 0.098675
0.138537 0.138537 0.138537
0.178400 0.178400 0.178400
0.218263 0.218263 0.218263
0.258125 0.258125 0.258125
0.297988 0.297988 0.297988
0.337850 0.337850 0.337850
0.377713 0.377713 0.377713
0.192913 0.192913 0.192913
0.232775 0.232775 0.232775
0.272638 0.272638 0.272638
0.312500 0.312500 0.312500
0.352363 0.352363 0.352363
0.392225 0.392225 0.392225
0.432087 0.432087 0.432087
0.471950 0.471950 0.471950
0.511813 0.511813 0.511813
0.327012 0.327012 0.327012
0.366875 0.366875 0.366875
0.406737 0.406737 0.406737
0.446600 0.446600 0.446600
0.486463 0.486463 0.486463
0.526325 0.526325 0.526325
0.566187 0.566187 0.566187
0.606050 0.606050 0.606050
0.645913 0.645913 0.645913
0.461112 0.461112 0.461112
0.500975 0.500975 0.500975
0.540837 0.540837 0.540837
0.580700 0.580700 0.580700
0.620562 0.620562 0.620562
0.660425 0.660425 0.660425
0.700287 0.700287 0.700287
0.740150 0.740150 0.740150
0.780012 0.780012 0.780012
0.595212 0.595212 0.595212
0.635075 0.635075 0.635075
0.674937 0.674937 0.674937
0.714800 0.714800 0.714800
0.754663 0.754663 0.754663
0.794525 0.794525 0.794525
0.834387 0.834387 0.834387
0.874250 0.874250 0.874250
0.914112 0.914112 0.914112
0.729312 0.729312 0.729312
0.769175 0.769175 0.769175
0.809037 0.809037 0.809037
0.848900 0.848900 0.848900
0.888762 0.888762 0.888762
0.928625 0.928625 0.928625
0.968487 0.968487 0.968487
1.000000 1.000000 1.000000
1.000000 1.000000 1.000000
0.863412 0.863412 0.863412
0.903275 0.903275 0.903275
0.943137 0.943137 0.943137
0.983000 0.983000 0.983000
1.000000 1.000000 1.000000
1.000000 1.000000 1.000000
1.000000 1.000000 1.000000
1.000000 1.000000 1.000000
1.000000 1.000000 1.000000
0.000000 0.000000 0.000000
0.000000 0.000000 0.000000
0.000000 0.000000 0.000000
0.000000 0.000000 0.000000
0.000000 0.000000 0.000000
0.003462 0.003462 0.003462
0.043325 0.043325 0.043325
0.083188 0.083188 0.083188
0.123050 0.123050 0.123050
0.000000 0.000000 0.000000
0.000000 0.000000 0.000000
0.017975 0.017975 0.017975
0.057837 0.057837 0.057837
0.097700 0.097700 0.097700
0.137563 0.137563 0.137563
0.177425 0.177425 0.177425
0.217287 0.217287 0.217287
0.257150 0.257150 0.257150
0.072350 0.072350 0.072350
0.112212 0.112212 0.112212
0.152075 0.152075 0.152075
0.191938 0.191938 0.191938
0.231800 0.231800 0.231800
0.271663 0.271663 0.271663
0.311525 0.311525 0.311525
0.351387 0.351387 0.351387
0.391250 0.391250 0.391250
0.206450 0.206450 0.206450
0.246313 0.246313 0.246313
0.286175 0.286175 0.286175
0.326037 0.326037 0.326037
0.365900 0.365900 0.365900
0.405763 0.405763 0.405763
0.445625 0.445625 0.445625
0.485488 0.485488 0.485488
0.525350 0.525350 0.525350
0.340550 0.340550 0.340550
0.380413 0.380413 0.380413
0.420275 0.420275 0.420275
0.460137 0.460137 0.460137
0.500000 0.500000 0.500000
0.539863 0.539863 0.539863
0.579725 0.579725 0.579725
0.619588 0.619588 0.619588
0.659450 0.659450 0.659450
0.474650 0.474650 0.474650
0.514512 0.514512 0.514512
0.554375 0.554375 0.554375
0.594237 0.594237 0.594237
0.634100 0.634100 0.634100
0.673962 0.673962 0.673962
0.713825 0.713825 0.713825
0.753687 0.753687 0.753687
0.793550 0.793550 0.793550
0.608750 0.608750 0.608750
0.648613 0.648613 0.648613
0.688475 0.688475 0.688475
0.728338 0.728338 0.728338
0.768200 0.768200 0.768200
0.808063 0.808063 0.808063
0.847925 0.847925 0.847925
0.887787 0.887787 0.887787
0.927650 0.927650 0.927650
0.742850 0.742850 0.742850
0.782712 0.782712 0.782712
0.822575 0.822575 0.822575
0.862437 0.862437 0.862437
0.902300 0.902300 0.902300
0.942163 0.942163 0.942163
0.982025 0.982025 0.982025
1.000000 1.000000 1.000000
1.000000 1.000000 1.000000
0.876950 0.876950 0.876950
0.916813 0.916813 0.916813
0.956675 0.956675 0.956675
0.996538 0.996538 0.996538
1.000000 1.000000 1.000000
1.000000 1.000000 1.000000
1.000000 1.000000 1.000000
1.000000 1.000000 1.000000
1.000000 1.000000 1.000000
0.000000 0.000000 0.000000
0.000000 0.000000 0.000000
0.000000 0.000000 0.000000
0.000000 0.000000 0.000000
0.000000 0.000000 0.000000
0.017000 0.017000 0.017000
0.056863 0.056863 0.056863
0.096725 0.096725 0.096725
0.136587 0.136587 0.136587
0.000000 0.000000 0.000000
0.000000 0.000000 0.000000
0.031513 0.031513 0.031513
0.071375 0.071375 0.071375
0.111237 0.111237 0.111237
0.151100 0.151100 0.151100
0.190962 0.190962 0.190962
0.230825 0.230825 0.230825
0.270688 0.270688 0.270688
0.085888 0.085888 0.085888
0.125750 0.125750 0.125750
0.165612 0.165612 0.165612
0.205475 0.205475 0.205475
0.245337 0.245337 0.245337
0.285200 0.285200 0.285200
0.325063 0.325063 0.325063
0.364925 0.364925 0.364925
0.404787 0.404787 0.404787
0.219987 0.219987 0.219987
0.259850 0.259850 0.259850
0.299712 0.299712 0.299712
0.339575 0.339575 0.339575
0.379438 0.379438 0.379438
0.419300 0.419300 0.419300
0.459162 0.459162 0.459162
0.499025 0.499025 0.499025
0.538887 0.538887 0.538887
0.354087 0.354087 0.354087
0.393950 0.393950 0.393950
0.433812 0.433812 0.433812
0.473675 0.473675 0.473675
0.513537 0.513537 0.513537
0.553400 0.553400 0.553400
0.593263 0.593263 0.593263
0.633125 0.633125 0.633125
0.672988 0.672988 0.672988
0.488187 0.488187 0.488187
0.528050 0.528050 0.528050
0.567912 0.567912 0.567912
0.607775 0.607775 0.607775
0.647637 0.647637 0.647637
0.687500 0.687500 0.687500
0.727362 0.727362 0.727362
0.767225 0.767225 0.767225
0.807087 0.807087 0.807087
0.622287 0.622287 0.622287
0.662150 0.662150 0.662150
0.702012 0.702012 0.702012
0.741875 0.741875 0.741875
0.781737 0.781737 0.781737
0.821600 0.821600 0.821600
0.861462 0.861462 0.861462
0.901325 0.901325 0.901325
0.941187 0.941187 0.941187
0.756387 0.756387 0.756387
0.796250 0.796250 0.796250
0.836112 0.836112 0.836112
0.875975 0.875975 0.875975
0.915837 0.915837 0.915837
0.955700 0.955700 0.955700
0.995562 0.995562 0.995562
1.000000 1.000000 1.000000
1.000000 1.000000 1.000000
0.890487 0.890487 0.890487
0.930350 0.930350 0.930350
0.970212 0.970212 0.970212
1.000000 1.000000 1.000000
1.000000 1.000000 1.000000
1.000000 1.000000 1.000000
1.000000 1.000000 1.000000
1.000000 1.000000 1.000000
1.000000 1.000000 1.000000
0.000000 0.000000 0.000000
0.000000 0.000000 0.000000
0.000000 0.000000 0.000000
0.000000 0.000000 0.000000
0.000000 0.000000 0.000000
0.030537 0.030537 0.030537
0.070400 0.070400 0.070400
0.110263 0.110263 0.110263
0.150125 0.150125 0.150125
0.000000 0.000000 0.000000
0.005187 0.005187 0.005187
0.045050 0.045050 0.045050
0.084913 0.084913 0.084913
0.124775 0.124775 0.124775
0.164638 0.164638 0.164638
0.204500 0.204500 0.204500
0.244362 0.244362 0.244362
0.284225 0.284225 0.284225
0.099425 0.099425 0.099425
0.139288 0.139288 0.139288
0.179150 0.179150 0.179150
0.219013 0.219013 0.219013
0.258875 0.258875 0.258875
0.298738 0.298738 0.298738
0.338600 0.338600 0.338600
0.378462 0.378462 0.378462
0.418325 0.418325 0.418325
0.233525 0.233525 0.233525
0.273388 0.273388 0.273388
0.313250 0.313250 0.313250
0.353112 0.353112 0.353112
0.392975 0.392975 0.392975
0.432837 0.432837 0.432837
0.472700 0.472700 0.472700
0.512563 0.512563 0.512563
0.552425 0.552425 0.552425
0.367625 0.367625 0.367625
0.407487 0.407487 0.407487
0.447350 0.447350 0.447350
0.487212 0.487212 0.487212
0.527075 0.527075 0.527075
0.566938 0.566938 0.566938
0.606800 0.606800 0.606800
0.646663 0.646663 0.646663
0.686525 0.686525 0.686525
0.501725 0.501725 0.501725
0.541587 0.541587 0.541587
0.581450 0.581450 0.581450
0.621313 0.621313 0.621313
0.661175 0.661175 0.661175
0.701037 0.701037 0.701037
0.740900 0.740900 0.740900
0.780763 0.780763 0.780763
0.820625 0.820625 0.820625
0.635825 0.635825 0.635825
0.675687 0.675687 0.675687
0.715550 0.715550 0.715550
0.755413 0.755413 0.755413
0.795275 0.795275 0.795275
0.835138 0.835138 0.835138
0.875000 0.875000 0.875000
0.914863 0.914863 0.914863
0.954725 0.954725 0.954725
0.769925 0.769925 0.769925
0.809787 0.809787 0.809787
0.849650 0.849650 0.849650
0.889512 0.889512 0.889512
0.929375 0.929375 0.929375
0.969237 0.969237 0.969237
1.000000 1.000000 1.000000
1.000000 1.000000 1.000000
1.000000 1.000000 1.000000
0.904025 0.904025 0.904025
0.943887 0.943887 0.943887
0.983750 0.983750 0.983750
1.000000 1.000000 1.000000
1.000000 1.000000 1.000000
1.000000 1.000000 1.000000
1.000000 1.000000 1.000000
1.000000 1.000000 1.000000
1.000000 1.000000 1.000000
0.000000 0.000000 0.000000
0.000000 0.000000 0.000000
0.000000 0.000000 0.000000
0.000000 0.000000 0.000000
0.004212 0.004212 0.004212
0.044075 0.044075 0.044075
0.083937 0.083937 0.083937
0.123800 0.123800 0.123800
0.163662 0.163662 0.163662
0.000000 0.000000 0.000000
0.018725 0.018725 0.018725
0.058588 0.058588 0.058588
0.098450 0.098450 0.098450
0.138312 0.138312 0.138312
0.178175 0.178175 0.178175
0.218037 0.218037 0.218037
0.257900 0.257900 0.257900
0.297762 0.297762 0.297762
0.112962 0.112962 0.112962
0.152825 0.152825 0.152825
0.192687 0.192687 0.192687
0.232550 0.232550 0.232550
0.272413 0.272413 0.272413
0.312275 0.312275 0.312275
0.352137 0.352137 0.352137
0.392000 0.392000 0.392000
0.431862 0.431862 0.431862
0.247062 0.247062 0.247062
0.286925 0.286925 0.286925
0.326788 0.326788 0.326788
0.366650 0.366650 0.366650
0.406512 0.406512 0.406512
0.446375 0.446375 0.446375
0.486237 0.486237 0.486237
0.526100 0.526100 0.526100
0.565962 0.565962 0.565962
0.381162 0.381162 0.381162
0.421025 0.421025 0.421025
0.460887 0.460887 0.460887
0.500750 0.500750 0.500750
0.540612 0.540612 0.540612
0.580475 0.580475 0.580475
0.620337 0.620337 0.620337
0.660200 0.660200 0.660200
0.700063 0.700063 0.700063
0.515262 0.515262 0.515262
0.555125 0.555125 0.555125
0.594988 0.594988 0.594988
0.634850 0.634850 0.634850
0.674712 0.674712 0.674712
0.714575 0.714575 0.714575
0.754437 0.754437 0.754437
0.794300 0.794300 0.794300
0.834162 0.834162 0.834162
0.649362 0.649362 0.649362
0.689225 0.689225 0.689225
0.729087 0.729087 0.729087
0.768950 0.768950 0.768950
0.808813 0.808813 0.808813
0.848675 0.848675 0.848675
0.888537 0.888537 0.888537
0.928400 0.928400 0.928400
0.968263 0.968263 0.968263
0.783462 0.783462 0.783462
0.823325 0.823325 0.823325
0.863187 0.863187 0.863187
0.903050 0.903050 0.903050
0.942912 0.942912 0.942912
0.982775 0.982775 0.982775
1.000000 1.000000 1.000000
1.000000 1.000000 1.000000
1.000000 1.000000 1.000000
0.917562 0.917562 0.917562
0.957425 0.957425 0.957425
0.997287 0.997287 0.997287
1.000000 1.000000 1.000000
1.000000 1.000000 1.000000
1.000000 1.000000 1.000000
1.000000 1.000000 1.000000
1.000000 1.000000 1.000000
1.000000 1.000000 1.000000
0.000000 0.000000 0.000000
0.000000 0.000000 0.000000
0.000000 0.000000 0.000000
0.000000 0.000000 0.000000
0.017750 0.017750 0.017750
0.057613 0.057613 0.057613
0.097475 0.097475 0.097475
0.137338 0.137338 0.137338
0.177200 0.177200 0.177200
0.000000 0.000000 0.000000
0.032262 0.032262 0.032262
0.072125 0.072125 0.072125
0.111988 0.111988 0.111988
0.151850 0.151850 0.151850
0.191712 0.191712 0.191712
0.231575 0.231575 0.231575
0.271437 0.271437 0.271437
0.311300 0.311300 0.311300
0.126500 0.126500 0.126500
0.166362 0.166362 0.166362
0.206225 0.206225 0.206225
0.246088 0.246088 0.246088
0.285950 0.285950 0.285950
0.325813 0.325813 0.325813
0.365675 0.365675 0.365675
0.405537 0.405537 0.405537
0.445400 0.445400 0.445400
0.260600 0.260600 0.260600
0.300462 0.300462 0.300462
0.340325 0.340325 0.340325
0.380187 0.380187 0.380187
0.420050 0.420050 0.420050
0.459913 0.459913 0.459913
0.499775 0.499775 0.499775
0.539637 0.539637 0.539637
0.579500 0.579500 0.579500
0.394700 0.394700 0.394700
0.434562 0.434562 0.434562
0.474425 0.474425 0.474425
0.514288 0.514288 0.514288
0.554150 0.554150 0.554150
0.594013 0.594013 0.594013
0.633875 0.633875 0.633875
0.673738 0.673738 0.673738
0.713600 0.713600 0.713600
0.528800 0.528800 0.528800
0.568663 0.568663 0.568663
0.608525 0.608525 0.608525
0.648388 0.648388 0.648388
0.688250 0.688250 0.688250
0.728112 0.728112 0.728112
0.767975 0.767975 0.767975
0.807837 0.807837 0.807837
0.847700 0.847700 0.847700
0.662900 0.662900 0.662900
0.702763 0.702763 0.702763
0.742625 0.742625 0.742625
0.782488 0.782488 0.782488
0.822350 0.822350 0.822350
0.862213 0.862213 0.862213
0.902075 0.902075 0.902075
0.941938 0.941938 0.941938
0.981800 0.981800 0.981800
0.797000 0.797000 0.797000
0.836862 0.836862 0.836862
0.876725 0.876725 0.876725
0.916587 0.916587 0.916587
0.956450 0.956450 0.956450
0.996313 0.996313 0.996313
1.000000 1.000000 1.000000
1.000000 1.000000 1.000000
1.000000 1.000000 1.000000
0.931100 0.931100 0.931100
0.970962 0.970962 0.970962
1.000000 1.000000 1.000000
1.000000 1.000000 1.000000
1.000000 1.000000 1.000000
1.000000 1.000000 1.000000
1.000000 1.000000 1.000000
1.000000 1.000000 1.000000
1.000000 1.000000 1.000000
