app/src/main/assets/luts/Mono_Contrast.cube
TITLE "B&W High Contrast"
# Generated by editclips.online — free to use
DOMAIN_MIN 0.0 0.0 0.0
DOMAIN_MAX 1.0 1.0 1.0
LUT_3D_SIZE 33
0.000000 0.000000 0.000000
0.000000 0.000000 0.000000
0.000000 0.000000 0.000000
0.000000 0.000000 0.000000
0.000000 0.000000 0.000000
0.000000 0.000000 0.000000
0.000000 0.000000 0.000000
0.000000 0.000000 0.000000
0.000000 0.000000 0.000000
0.000000 0.000000 0.000000
0.000000 0.000000 0.000000
0.000000 0.000000 0.000000
0.000000 0.000000 0.000000
0.000000 0.000000 0.000000
0.000000 0.000000 0.000000
0.000000 0.000000 0.000000
0.000000 0.000000 0.000000
0.000000 0.000000 0.000000
0.000000 0.000000 0.000000
0.000000 0.000000 0.000000
0.000000 0.000000 0.000000
0.000000 0.000000 0.000000
0.000000 0.000000 0.000000
0.000000 0.000000 0.000000
0.000000 0.000000 0.000000
0.000000 0.000000 0.000000
0.009106 0.009106 0.009106
0.019072 0.019072 0.019072
0.029037 0.029037 0.029037
0.039003 0.039003 0.039003
0.048969 0.048969 0.048969
0.058934 0.058934 0.058934
0.068900 0.068900 0.068900
0.000000 0.000000 0.000000
0.000000 0.000000 0.000000
0.000000 0.000000 0.000000
0.000000 0.000000 0.000000
0.000000 0.000000 0.000000
0.000000 0.000000 0.000000
0.000000 0.000000 0.000000
0.000000 0.000000 0.000000
0.000000 0.000000 0.000000
0.000000 0.000000 0.000000
0.000000 0.000000 0.000000
0.000000 0.000000 0.000000
0.000000 0.000000 0.000000
0.000000 0.000000 0.000000
0.000000 0.000000 0.000000
0.000000 0.000000 0.000000
0.000000 0.000000 0.000000
0.000000 0.000000 0.000000
0.000000 0.000000 0.000000
0.000000 0.000000 0.000000
0.000000 0.000000 0.000000
0.000000 0.000000 0.000000
0.002769 0.002769 0.002769
0.012734 0.012734 0.012734
0.022700 0.022700 0.022700
0.032666 0.032666 0.032666
0.042631 0.042631 0.042631
0.052597 0.052597 0.052597
0.062562 0.062562 0.062562
0.072528 0.072528 0.072528
0.082494 0.082494 0.082494
0.092459 0.092459 0.092459
0.102425 0.102425 0.102425
0.000000 0.000000 0.000000
0.000000 0.000000 0.000000
0.000000 0.000000 0.000000
0.000000 0.000000 0.000000
0.000000 0.000000 0.000000
0.000000 0.000000 0.000000
0.000000 0.000000 0.000000
0.000000 0.000000 0.000000
0.000000 0.000000 0.000000
0.000000 0.000000 0.000000
0.000000 0.000000 0.000000
0.000000 0.000000 0.000000
0.000000 0.000000 0.000000
0.000000 0.000000 0.000000
0.000000 0.000000 0.000000
0.000000 0.000000 0.000000
0.000000 0.000000 0.000000
0.000000 0.000000 0.000000
0.000000 0.000000 0.000000
0.006397 0.006397 0.006397
0.016363 0.016363 0.016363
0.026328 0.026328 0.026328
0.036294 0.036294 0.036294
0.046259 0.046259 0.046259
0.056225 0.056225 0.056225
0.066191 0.066191 0.066191
0.076156 0.076156 0.076156
0.086122 0.086122 0.086122
0.096087 0.096087 0.096087
0.106053 0.106053 0.106053
0.116019 0.116019 0.116019
0.125984 0.125984 0.125984
0.135950 0.135950 0.135950
0.000000 0.000000 0.000000
0.000000 0.000000 0.000000
0.000000 0.000000 0.000000
0.000000 0.000000 0.000000
0.000000 0.000000 0.000000
0.000000 0.000000 0.000000
0.000000 0.000000 0.000000
0.000000 0.000000 0.000000
0.000000 0.000000 0.000000
0.000000 0.000000 0.000000
0.000000 0.000000 0.000000
0.000000 0.000000 0.000000
0.000000 0.000000 0.000000
0.000000 0.000000 0.000000
0.000000 0.000000 0.000000
0.000059 0.000059 0.000059
0.010025 0.010025 0.010025
0.019991 0.019991 0.019991
0.029956 0.029956 0.029956
0.039922 0.039922 0.039922
0.049888 0.049888 0.049888
0.059853 0.059853 0.059853
0.069819 0.069819 0.069819
0.079784 0.079784 0.079784
0.089750 0.089750 0.089750
0.099716 0.099716 0.099716
0.109681 0.109681 0.109681
0.119647 0.119647 0.119647
0.129613 0.129613 0.129613
0.139578 0.139578 0.139578
0.149544 0.149544 0.149544
0.159509 0.159509 0.159509
0.169475 0.169475 0.169475
0.000000 0.000000 0.000000
0.000000 0.000000 0.000000
0.000000 0.000000 0.000000
0.000000 0.000000 0.000000
0.000000 0.000000 0.000000
0.000000 0.000000 0.000000
0.000000 0.000000 0.000000
0.000000 0.000000 0.000000
0.000000 0.000000 0.000000
0.000000 0.000000 0.000000
0.000000 0.000000 0.000000
0.000000 0.000000 0.000000
0.003687 0.003687 0.003687
0.013653 0.013653 0.013653
0.023619 0.023619 0.023619
0.033584 0.033584 0.033584
0.043550 0.043550 0.043550
0.053516 0.053516 0.053516
0.063481 0.063481 0.063481
0.073447 0.073447 0.073447
0.083413 0.083413 0.083413
0.093378 0.093378 0.093378
0.103344 0.103344 0.103344
0.113309 0.113309 0.113309
0.123275 0.123275 0.123275
0.133241 0.133241 0.133241
0.143206 0.143206 0.143206
0.153172 0.153172 0.153172
0.163137 0.163137 0.163137
0.173103 0.173103 0.173103
0.183069 0.183069 0.183069
0.193034 0.193034 0.193034
0.203000 0.203000 0.203000
0.000000 0.000000 0.000000
0.000000 0.000000 0.000000
0.000000 0.000000 0.000000
0.000000 0.000000 0.000000
0.000000 0.000000 0.000000
0.000000 0.000000 0.000000
0.000000 0.000000 0.000000
0.000000 0.000000 0.000000
0.000000 0.000000 0.000000
0.007316 0.007316 0.007316
0.017281 0.017281 0.017281
0.027247 0.027247 0.027247
0.037212 0.037212 0.037212
0.047178 0.047178 0.047178
0.057144 0.057144 0.057144
0.067109 0.067109 0.067109
0.077075 0.077075 0.077075
0.087041 0.087041 0.087041
0.097006 0.097006 0.097006
0.106972 0.106972 0.106972
0.116937 0.116937 0.116937
0.126903 0.126903 0.126903
0.136869 0.136869 0.136869
0.146834 0.146834 0.146834
0.156800 0.156800 0.156800
0.166766 0.166766 0.166766
0.176731 0.176731 0.176731
0.186697 0.186697 0.186697
0.196663 0.196663 0.196663
0.206628 0.206628 0.206628
0.216594 0.216594 0.216594
0.226559 0.226559 0.226559
0.236525 0.236525 0.236525
0.000000 0.000000 0.000000
0.000000 0.000000 0.000000
0.000000 0.000000 0.000000
0.000000 0.000000 0.000000
0.000000 0.000000 0.000000
0.000978 0.000978 0.000978
0.010944 0.010944 0.010944
0.020909 0.020909 0.020909
0.030875 0.030875 0.030875
0.040841 0.040841 0.040841
0.050806 0.050806 0.050806
0.060772 0.060772 0.060772
0.070738 0.070738 0.070738
0.080703 0.080703 0.080703
0.090669 0.090669 0.090669
0.100634 0.100634 0.100634
0.110600 0.110600 0.110600
0.120566 0.120566 0.120566
0.130531 0.130531 0.130531
0.140497 0.140497 0.140497
0.150463 0.150463 0.150463
0.160428 0.160428 0.160428
0.170394 0.170394 0.170394
0.180359 0.180359 0.180359
0.190325 0.190325 0.190325
0.200291 0.200291 0.200291
0.210256 0.210256 0.210256
0.220222 0.220222 0.220222
0.230187 0.230187 0.230187
0.240153 0.240153 0.240153
0.250119 0.250119 0.250119
0.260084 0.260084 0.260084
0.270050 0.270050 0.270050
0.000000 0.000000 0.000000
0.000000 0.000000 0.000000
0.004606 0.004606 0.004606
0.014572 0.014572 0.014572
0.024537 0.024537 0.024537
0.034503 0.034503 0.034503
0.044469 0.044469 0.044469
0.054434 0.054434 0.054434
0.064400 0.064400 0.064400
0.074366 0.074366 0.074366
0.084331 0.084331 0.084331
0.094297 0.094297 0.094297
0.104262 0.104262 0.104262
0.114228 0.114228 0.114228
0.124194 0.124194 0.124194
0.134159 0.134159 0.134159
0.144125 0.144125 0.144125
0.154091 0.154091 0.154091
0.164056 0.164056 0.164056
0.174022 0.174022 0.174022
0.183987 0.183987 0.183987
0.193953 0.193953 0.193953
0.203919 0.203919 0.203919
0.213884 0.213884 0.213884
0.223850 0.223850 0.223850
0.233816 0.233816 0.233816
0.243781 0.243781 0.243781
0.253747 0.253747 0.253747
0.263712 0.263712 0.263712
0.273678 0.273678 0.273678
0.283644 0.283644 0.283644
0.293609 0.293609 0.293609
0.303575 0.303575 0.303575
0.018200 0.018200 0.018200
0.028166 0.028166 0.028166
0.038131 0.038131 0.038131
0.048097 0.048097 0.048097
0.058062 0.058062 0.058062
0.068028 0.068028 0.068028
0.077994 0.077994 0.077994
0.087959 0.087959 0.087959
0.097925 0.097925 0.097925
0.107891 0.107891 0.107891
0.117856 0.117856 0.117856
0.127822 0.127822 0.127822
0.137788 0.137788 0.137788
0.147753 0.147753 0.147753
0.157719 0.157719 0.157719
0.167684 0.167684 0.167684
0.177650 0.177650 0.177650
0.187616 0.187616 0.187616
0.197581 0.197581 0.197581
0.207547 0.207547 0.207547
0.217513 0.217513 0.217513
0.227478 0.227478 0.227478
0.237444 0.237444 0.237444
0.247409 0.247409 0.247409
0.257375 0.257375 0.257375
0.267341 0.267341 0.267341
0.277306 0.277306 0.277306
0.287272 0.287272 0.287272
0.297237 0.297237 0.297237
0.307203 0.307203 0.307203
0.317169 0.317169 0.317169
0.327134 0.327134 0.327134
0.337100 0.337100 0.337100
0.051725 0.051725 0.051725
0.061691 0.061691 0.061691
0.071656 0.071656 0.071656
0.081622 0.081622 0.081622
0.091588 0.091588 0.091588
0.101553 0.101553 0.101553
0.111519 0.111519 0.111519
0.121484 0.121484 0.121484
0.131450 0.131450 0.131450
0.141416 0.141416 0.141416
0.151381 0.151381 0.151381
0.161347 0.161347 0.161347
0.171312 0.171312 0.171312
0.181278 0.181278 0.181278
0.191244 0.191244 0.191244
0.201209 0.201209 0.201209
0.211175 0.211175 0.211175
0.221141 0.221141 0.221141
0.231106 0.231106 0.231106
0.241072 0.241072 0.241072
0.251038 0.251038 0.251038
0.261003 0.261003 0.261003
0.270969 0.270969 0.270969
0.280934 0.280934 0.280934
0.290900 0.290900 0.290900
0.300866 0.300866 0.300866
0.310831 0.310831 0.310831
0.320797 0.320797 0.320797
0.330762 0.330762 0.330762
0.340728 0.340728 0.340728
0.350694 0.350694 0.350694
0.360659 0.360659 0.360659
0.370625 0.370625 0.370625
0.085250 0.085250 0.085250
0.095216 0.095216 0.095216
0.105181 0.105181 0.105181
0.115147 0.115147 0.115147
0.125112 0.125112 0.125112
0.135078 0.135078 0.135078
0.145044 0.145044 0.145044
0.155009 0.155009 0.155009
0.164975 0.164975 0.164975
0.174941 0.174941 0.174941
0.184906 0.184906 0.184906
0.194872 0.194872 0.194872
0.204837 0.204837 0.204837
0.214803 0.214803 0.214803
0.224769 0.224769 0.224769
0.234734 0.234734 0.234734
0.244700 0.244700 0.244700
0.254666 0.254666 0.254666
0.264631 0.264631 0.264631
0.274597 0.274597 0.274597
0.284562 0.284562 0.284562
0.294528 0.294528 0.294528
0.304494 0.304494 0.304494
0.314459 0.314459 0.314459
0.324425 0.324425 0.324425
0.334391 0.334391 0.334391
0.344356 0.344356 0.344356
0.354322 0.354322 0.354322
0.364287 0.364287 0.364287
0.374253 0.374253 0.374253
0.384219 0.384219 0.384219
0.394184 0.394184 0.394184
0.404150 0.404150 0.404150
0.118775 0.118775 0.118775
0.128741 0.128741 0.128741
0.138706 0.138706 0.138706
0.148672 0.148672 0.148672
0.158637 0.158637 0.158637
0.168603 0.168603 0.168603
0.178569 0.178569 0.178569
0.188534 0.188534 0.188534
0.198500 0.198500 0.198500
0.208466 0.208466 0.208466
0.218431 0.218431 0.218431
0.228397 0.228397 0.228397
0.238363 0.238363 0.238363
0.248328 0.248328 0.248328
0.258294 0.258294 0.258294
0.268259 0.268259 0.268259
0.278225 0.278225 0.278225
0.288191 0.288191 0.288191
0.298156 0.298156 0.298156
0.308122 0.308122 0.308122
0.318087 0.318087 0.318087
0.328053 0.328053 0.328053
0.338019 0.338019 0.338019
0.347984 0.347984 0.347984
0.357950 0.357950 0.357950
0.367916 0.367916 0.367916
0.377881 0.377881 0.377881
0.387847 0.387847 0.387847
0.397813 0.397813 0.397813
0.407778 0.407778 0.407778
0.417744 0.417744 0.417744
0.427709 0.427709 0.427709
0.437675 0.437675 0.437675
0.152300 0.152300 0.152300
0.162266 0.162266 0.162266
0.172231 0.172231 0.172231
0.182197 0.182197 0.182197
0.192163 0.192163 0.192163
0.202128 0.202128 0.202128
0.212094 0.212094 0.212094
0.222059 0.222059 0.222059
0.232025 0.232025 0.232025
0.241991 0.241991 0.241991
0.251956 0.251956 0.251956
0.261922 0.261922 0.261922
0.271887 0.271887 0.271887
0.281853 0.281853 0.281853
0.291819 0.291819 0.291819
0.301784 0.301784 0.301784
0.311750 0.311750 0.311750
0.321716 0.321716 0.321716
0.331681 0.331681 0.331681
0.341647 0.341647 0.341647
0.351612 0.351612 0.351612
0.361578 0.361578 0.361578
0.371544 0.371544 0.371544
0.381509 0.381509 0.381509
0.391475 0.391475 0.391475
0.401441 0.401441 0.401441
0.411406 0.411406 0.411406
0.421372 0.421372 0.421372
0.431337 0.431337 0.431337
0.441303 0.441303 0.441303
0.451269 0.451269 0.451269
0.461234 0.461234 0.461234
0.471200 0.471200 0.471200
0.185825 0.185825 0.185825
0.195791 0.195791 0.195791
0.205756 0.205756 0.205756
0.215722 0.215722 0.215722
0.225687 0.225687 0.225687
0.235653 0.235653 0.235653
0.245619 0.245619 0.245619
0.255584 0.255584 0.255584
0.265550 0.265550 0.265550
0.275516 0.275516 0.275516
0.285481 0.285481 0.285481
0.295447 0.295447 0.295447
0.305412 0.305412 0.305412
0.315378 0.315378 0.315378
0.325344 0.325344 0.325344
0.335309 0.335309 0.335309
0.345275 0.345275 0.345275
0.355241 0.355241 0.355241
0.365206 0.365206 0.365206
0.375172 0.375172 0.375172
0.385138 0.385138 0.385138
0.395103 0.395103 0.395103
0.405069 0.405069 0.405069
0.415034 0.415034 0.415034
0.425000 0.425000 0.425000
0.434966 0.434966 0.434966
0.444931 0.444931 0.444931
0.454897 0.454897 0.454897
0.464862 0.464862 0.464862
0.474828 0.474828 0.474828
0.484794 0.484794 0.484794
0.494759 0.494759 0.494759
0.504725 0.504725 0.504725
0.219350 0.219350 0.219350
0.229316 0.229316 0.229316
0.239281 0.239281 0.239281
0.249247 0.249247 0.249247
0.259212 0.259212 0.259212
0.269178 0.269178 0.269178
0.279144 0.279144 0.279144
0.289109 0.289109 0.289109
0.299075 0.299075 0.299075
0.309041 0.309041 0.309041
0.319006 0.319006 0.319006
0.328972 0.328972 0.328972
0.338937 0.338937 0.338937
0.348903 0.348903 0.348903
0.358869 0.358869 0.358869
0.368834 0.368834 0.368834
0.378800 0.378800 0.378800
0.388766 0.388766 0.388766
0.398731 0.398731 0.398731
0.408697 0.408697 0.408697
0.418662 0.418662 0.418662
0.428628 0.428628 0.428628
0.438594 0.438594 0.438594
0.448559 0.448559 0.448559
0.458525 0.458525 0.458525
0.468491 0.468491 0.468491
0.478456 0.478456 0.478456
0.488422 0.488422 0.488422
0.498387 0.498387 0.498387
0.508353 0.508353 0.508353
0.518319 0.518319 0.518319
0.528284 0.528284 0.528284
0.538250 0.538250 0.538250
0.252875 0.252875 0.252875
0.262841 0.262841 0.262841
0.272806 0.272806 0.272806
0.282772 0.282772 0.282772
0.292737 0.292737 0.292737
0.302703 0.302703 0.302703
0.312669 0.312669 0.312669
0.322634 0.322634 0.322634
0.332600 0.332600 0.332600
0.342566 0.342566 0.342566
0.352531 0.352531 0.352531
0.362497 0.362497 0.362497
0.372462 0.372462 0.372462
0.382428 0.382428 0.382428
0.392394 0.392394 0.392394
0.402359 0.402359 0.402359
0.412325 0.412325 0.412325
0.422291 0.422291 0.422291
0.432256 0.432256 0.432256
0.442222 0.442222 0.442222
0.452188 0.452188 0.452188
0.462153 0.462153 0.462153
0.472119 0.472119 0.472119
0.482084 0.482084 0.482084
0.492050 0.492050 0.492050
0.502016 0.502016 0.502016
0.511981 0.511981 0.511981
0.521947 0.521947 0.521947
0.531912 0.531912 0.531912
0.541878 0.541878 0.541878
0.551844 0.551844 0.551844
0.561809 0.561809 0.561809
0.571775 0.571775 0.571775
0.286400 0.286400 0.286400
0.296366 0.296366 0.296366
0.306331 0.306331 0.306331
0.316297 0.316297 0.316297
0.326263 0.326263 0.326263
0.336228 0.336228 0.336228
0.346194 0.346194 0.346194
0.356159 0.356159 0.356159
0.366125 0.366125 0.366125
0.376091 0.376091 0.376091
0.386056 0.386056 0.386056
0.396022 0.396022 0.396022
0.405987 0.405987 0.405987
0.415953 0.415953 0.415953
0.425919 0.425919 0.425919
0.435884 0.435884 0.435884
0.445850 0.445850 0.445850
0.455816 0.455816 0.455816
0.465781 0.465781 0.465781
0.475747 0.475747 0.475747
0.485712 0.485712 0.485712
0.495678 0.495678 0.495678
0.505644 0.505644 0.505644
0.515609 0.515609 0.515609
0.525575 0.525575 0.525575
0.535541 0.535541 0.535541
0.545506 0.545506 0.545506
0.555472 0.555472 0.555472
0.565438 0.565438 0.565438
0.575403 0.575403 0.575403
0.585369 0.585369 0.585369
0.595334 0.595334 0.595334
0.605300 0.605300 0.605300
0.319925 0.319925 0.319925
0.329891 0.329891 0.329891
0.339856 0.339856 0.339856
0.349822 0.349822 0.349822
0.359787 0.359787 0.359787
0.369753 0.369753 0.369753
0.379719 0.379719 0.379719
0.389684 0.389684 0.389684
0.399650 0.399650 0.399650
0.409616 0.409616 0.409616
0.419581 0.419581 0.419581
0.429547 0.429547 0.429547
0.439512 0.439512 0.439512
0.449478 0.449478 0.449478
0.459444 0.459444 0.459444
0.469409 0.469409 0.469409
0.479375 0.479375 0.479375
0.489341 0.489341 0.489341
0.499306 0.499306 0.499306
0.509272 0.509272 0.509272
0.519238 0.519238 0.519238
0.529203 0.529203 0.529203
0.539169 0.539169 0.539169
0.549134 0.549134 0.549134
0.559100 0.559100 0.559100
0.569066 0.569066 0.569066
0.579031 0.579031 0.579031
0.588997 0.588997 0.588997
0.598962 0.598962 0.598962
0.608928 0.608928 0.608928
0.618894 0.618894 0.618894
0.628859 0.628859 0.628859
0.638825 0.638825 0.638825
0.353450 0.353450 0.353450
0.363416 0.363416 0.363416
0.373381 0.373381 0.373381
0.383347 0.383347 0.383347
0.393313 0.393313 0.393313
0.403278 0.403278 0.403278
0.413244 0.413244 0.413244
0.423209 0.423209 0.423209
0.433175 0.433175 0.433175
0.443141 0.443141 0.443141
0.453106 0.453106 0.453106
0.463072 0.463072 0.463072
0.473037 0.473037 0.473037
0.483003 0.483003 0.483003
0.492969 0.492969 0.492969
0.502934 0.502934 0.502934
0.512900 0.512900 0.512900
0.522866 0.522866 0.522866
0.532831 0.532831 0.532831
0.542797 0.542797 0.542797
0.552762 0.552762 0.552762
0.562728 0.562728 0.562728
0.572694 0.572694 0.572694
0.582659 0.582659 0.582659
0.592625 0.592625 0.592625
0.602591 0.602591 0.602591
0.612556 0.612556 0.612556
0.622522 0.622522 0.622522
0.632487 0.632487 0.632487
0.642453 0.642453 0.642453
0.652419 0.652419 0.652419
0.662384 0.662384 0.662384
0.672350 0.672350 0.672350
0.386975 0.386975 0.386975
0.396941 0.396941 0.396941
0.406906 0.406906 0.406906
0.416872 0.416872 0.416872
0.426837 0.426837 0.426837
0.436803 0.436803 0.436803
0.446769 0.446769 0.446769
0.456734 0.456734 0.456734
0.466700 0.466700 0.466700
0.476666 0.476666 0.476666
0.486631 0.486631 0.486631
0.496597 0.496597 0.496597
0.506563 0.506563 0.506563
0.516528 0.516528 0.516528
0.526494 0.526494 0.526494
0.536459 0.536459 0.536459
0.546425 0.546425 0.546425
0.556391 0.556391 0.556391
0.566356 0.566356 0.566356
0.576322 0.576322 0.576322
0.586288 0.586288 0.586288
0.596253 0.596253 0.596253
0.606219 0.606219 0.606219
0.616184 0.616184 0.616184
0.626150 0.626150 0.626150
0.636116 0.636116 0.636116
0.646081 0.646081 0.646081
0.656047 0.656047 0.656047
0.666012 0.666012 0.666012
0.675978 0.675978 0.675978
0.685944 0.685944 0.685944
0.695909 0.695909 0.695909
0.705875 0.705875 0.705875
0.420500 0.420500 0.420500
0.430466 0.430466 0.430466
0.440431 0.440431 0.440431
0.450397 0.450397 0.450397
0.460362 0.460362 0.460362
0.470328 0.470328 0.470328
0.480294 0.480294 0.480294
0.490259 0.490259 0.490259
0.500225 0.500225 0.500225
0.510191 0.510191 0.510191
0.520156 0.520156 0.520156
0.530122 0.530122 0.530122
0.540088 0.540088 0.540088
0.550053 0.550053 0.550053
0.560019 0.560019 0.560019
0.569984 0.569984 0.569984
0.579950 0.579950 0.579950
0.589916 0.589916 0.589916
0.599881 0.599881 0.599881
0.609847 0.609847 0.609847
0.619812 0.619812 0.619812
0.629778 0.629778 0.629778
0.639744 0.639744 0.639744
0.649709 0.649709 0.649709
0.659675 0.659675 0.659675
0.669641 0.669641 0.669641
0.679606 0.679606 0.679606
0.689572 0.689572 0.689572
0.699537 0.699537 0.699537
0.709503 0.709503 0.709503
0.719469 0.719469 0.719469
0.729434 0.729434 0.729434
0.739400 0.739400 0.739400
0.454025 0.454025 0.454025
0.463991 0.463991 0.463991
0.473956 0.473956 0.473956
0.483922 0.483922 0.483922
0.493888 0.493888 0.493888
0.503853 0.503853 0.503853
0.513819 0.513819 0.513819
0.523784 0.523784 0.523784
0.533750 0.533750 0.533750
0.543716 0.543716 0.543716
0.553681 0.553681 0.553681
0.563647 0.563647 0.563647
0.573612 0.573612 0.573612
0.583578 0.583578 0.583578
0.593544 0.593544 0.593544
0.603509 0.603509 0.603509
0.613475 0.613475 0.613475
0.623441 0.623441 0.623441
0.633406 0.633406 0.633406
0.643372 0.643372 0.643372
0.653338 0.653338 0.653338
0.663303 0.663303 0.663303
0.673269 0.673269 0.673269
0.683234 0.683234 0.683234
0.693200 0.693200 0.693200
0.703166 0.703166 0.703166
0.713131 0.713131 0.713131
0.723097 0.723097 0.723097
0.733063 0.733063 0.733063
0.743028 0.743028 0.743028
0.752994 0.752994 0.752994
0.762959 0.762959 0.762959
0.772925 0.772925 0.772925
0.487550 0.487550 0.487550
0.497516 0.497516 0.497516
0.507481 0.507481 0.507481
0.517447 0.517447 0.517447
0.527412 0.527412 0.527412
0.537378 0.537378 0.537378
0.547344 0.547344 0.547344
0.557309 0.557309 0.557309
0.567275 0.567275 0.567275
0.577241 0.577241 0.577241
0.587206 0.587206 0.587206
0.597172 0.597172 0.597172
0.607137 0.607137 0.607137
0.617103 0.617103 0.617103
0.627069 0.627069 0.627069
0.637034 0.637034 0.637034
0.647000 0.647000 0.647000
0.656966 0.656966 0.656966
0.666931 0.666931 0.666931
0.676897 0.676897 0.676897
0.686862 0.686862 0.686862
0.696828 0.696828 0.696828
0.706794 0.706794 0.706794
0.716759 0.716759 0.716759
0.726725 0.726725 0.726725
0.736691 0.736691 0.736691
0.746656 0.746656 0.746656
0.756622 0.756622 0.756622
0.766587 0.766587 0.766587
0.776553 0.776553 0.776553
0.786519 0.786519 0.786519
0.796484 0.796484 0.796484
0.806450 0.806450 0.806450
0.521075 0.521075 0.521075
0.531041 0.531041 0.531041
0.541006 0.541006 0.541006
0.550972 0.550972 0.550972
0.560938 0.560938 0.560938
0.570903 0.570903 0.570903
0.580869 0.580869 0.580869
0.590834 0.590834 0.590834
0.600800 0.600800 0.600800
0.610766 0.610766 0.610766
0.620731 0.620731 0.620731
0.630697 0.630697 0.630697
0.640663 0.640663 0.640663
0.650628 0.650628 0.650628
0.660594 0.660594 0.660594
0.670559 0.670559 0.670559
0.680525 0.680525 0.680525
0.690491 0.690491 0.690491
0.700456 0.700456 0.700456
0.710422 0.710422 0.710422
0.720387 0.720387 0.720387
0.730353 0.730353 0.730353
0.740319 0.740319 0.740319
0.750284 0.750284 0.750284
0.760250 0.760250 0.760250
0.770216 0.770216 0.770216
0.780181 0.780181 0.780181
0.790147 0.790147 0.790147
0.800113 0.800113 0.800113
0.810078 0.810078 0.810078
0.820044 0.820044 0.820044
0.830009 0.830009 0.830009
0.839975 0.839975 0.839975
0.554600 0.554600 0.554600
0.564566 0.564566 0.564566
0.574531 0.574531 0.574531
0.584497 0.584497 0.584497
0.594463 0.594463 0.594463
0.604428 0.604428 0.604428
0.614394 0.614394 0.614394
0.624359 0.624359 0.624359
0.634325 0.634325 0.634325
0.644291 0.644291 0.644291
0.654256 0.654256 0.654256
0.664222 0.664222 0.664222
0.674188 0.674188 0.674188
0.684153 0.684153 0.684153
0.694119 0.694119 0.694119
0.704084 0.704084 0.704084
0.714050 0.714050 0.714050
0.724016 0.724016 0.724016
0.733981 0.733981 0.733981
0.743947 0.743947 0.743947
0.753913 0.753913 0.753913
0.763878 0.763878 0.763878
0.773844 0.773844 0.773844
0.783809 0.783809 0.783809
0.793775 0.793775 0.793775
0.803741 0.803741 0.803741
0.813706 0.813706 0.813706
0.823672 0.823672 0.823672
0.833638 0.833638 0.833638
0.843603 0.843603 0.843603
0.853569 0.853569 0.853569
0.863534 0.863534 0.863534
0.873500 0.873500 0.873500
0.588125 0.588125 0.588125
0.598091 0.598091 0.598091
0.608056 0.608056 0.608056
0.618022 0.618022 0.618022
0.627987 0.627987 0.627987
0.637953 0.637953 0.637953
0.647919 0.647919 0.647919
0.657884 0.657884 0.657884
0.667850 0.667850 0.667850
0.677816 0.677816 0.677816
0.687781 0.687781 0.687781
0.697747 0.697747 0.697747
0.707712 0.707712 0.707712
0.717678 0.717678 0.717678
0.727644 0.727644 0.727644
0.737609 0.737609 0.737609
0.747575 0.747575 0.747575
0.757541 0.757541 0.757541
0.767506 0.767506 0.767506
0.777472 0.777472 0.777472
0.787437 0.787437 0.787437
0.797403 0.797403 0.797403
0.807369 0.807369 0.807369
0.817334 0.817334 0.817334
0.827300 0.827300 0.827300
0.837266 0.837266 0.837266
0.847231 0.847231 0.847231
0.857197 0.857197 0.857197
0.867162 0.867162 0.867162
0.877128 0.877128 0.877128
0.887094 0.887094 0.887094
0.897059 0.897059 0.897059
0.907025 0.907025 0.907025
0.621650 0.621650 0.621650
0.631616 0.631616 0.631616
0.641581 0.641581 0.641581
0.651547 0.651547 0.651547
0.661512 0.661512 0.661512
0.671478 0.671478 0.671478
0.681444 0.681444 0.681444
0.691409 0.691409 0.691409
0.701375 0.701375 0.701375
0.711341 0.711341 0.711341
0.721306 0.721306 0.721306
0.731272 0.731272 0.731272
0.741237 0.741237 0.741237
0.751203 0.751203 0.751203
0.761169 0.761169 0.761169
0.771134 0.771134 0.771134
0.781100 0.781100 0.781100
0.791066 0.791066 0.791066
0.801031 0.801031 0.801031
0.810997 0.810997 0.810997
0.820963 0.820963 0.820963
0.830928 0.830928 0.830928
0.840894 0.840894 0.840894
0.850859 0.850859 0.850859
0.860825 0.860825 0.860825
