app/src/main/assets/luts/SLog2_to_Rec709.cube
TITLE "S-Log2 to Rec.709"
# Generated with colour-science (Sony published transfer functions). Free to use.
DOMAIN_MIN 0.0 0.0 0.0
DOMAIN_MAX 1.0 1.0 1.0
LUT_3D_SIZE 33
0.000000 0.000000 0.000000
0.000000 0.000000 0.000000
0.000000 0.000000 0.000000
0.000000 0.000000 0.029378
0.000000 0.000000 0.085597
0.000000 0.000000 0.141288
0.000000 0.000000 0.192688
0.000000 0.000000 0.243087
0.000000 0.000000 0.294135
0.000000 0.000000 0.346886
0.000000 0.000000 0.402134
0.000000 0.000000 0.460545
0.000000 0.000000 0.522730
0.000000 0.000000 0.589276
0.000000 0.000000 0.660773
0.000000 0.000000 0.737827
0.000000 0.000000 0.821071
0.000000 0.000000 0.911175
0.000000 0.000000 1.000000
0.000000 0.000000 1.000000
0.000000 0.000000 1.000000
0.000000 0.000000 1.000000
0.000000 0.000000 1.000000
0.000000 0.000000 1.000000
0.000000 0.000000 1.000000
0.000000 0.000000 1.000000
0.000000 0.000000 1.000000
0.000000 0.000000 1.000000
0.000000 0.000000 1.000000
0.000000 0.000000 1.000000
0.000000 0.000000 1.000000
0.000000 0.000000 1.000000
0.000000 0.000000 1.000000
0.000000 0.000000 0.000000
0.000000 0.000000 0.000000
0.000000 0.000000 0.000000
0.000000 0.000000 0.023179
0.000000 0.000000 0.079208
0.000000 0.000000 0.136870
0.000000 0.000000 0.189216
0.000000 0.000000 0.240235
0.000000 0.000000 0.291732
0.000000 0.000000 0.344829
0.000000 0.000000 0.400351
0.000000 0.000000 0.458988
0.000000 0.000000 0.521362
0.000000 0.000000 0.588068
0.000000 0.000000 0.659703
0.000000 0.000000 0.736876
0.000000 0.000000 0.820224
0.000000 0.000000 0.910419
0.000000 0.000000 1.000000
0.000000 0.000000 1.000000
0.000000 0.000000 1.000000
0.000000 0.000000 1.000000
0.000000 0.000000 1.000000
0.000000 0.000000 1.000000
0.000000 0.000000 1.000000
0.000000 0.000000 1.000000
0.000000 0.000000 1.000000
0.000000 0.000000 1.000000
0.000000 0.000000 1.000000
0.000000 0.000000 1.000000
0.000000 0.000000 1.000000
0.000000 0.000000 1.000000
0.000000 0.000000 1.000000
0.000000 0.000000 0.000000
0.000000 0.000000 0.000000
0.000000 0.000000 0.000000
0.000000 0.000000 0.016980
0.000000 0.000000 0.073009
0.000000 0.000000 0.132348
0.000000 0.000000 0.185692
0.000000 0.000000 0.237355
0.000000 0.000000 0.289312
0.000000 0.000000 0.342759
0.000000 0.000000 0.398561
0.000000 0.000000 0.457426
0.000000 0.000000 0.519989
0.000000 0.000000 0.586857
0.000000 0.000000 0.658630
0.000000 0.000000 0.735923
0.000000 0.000000 0.819376
0.000000 0.000000 0.909663
0.000000 0.000000 1.000000
0.000000 0.000000 1.000000
0.000000 0.000000 1.000000
0.000000 0.000000 1.000000
0.000000 0.000000 1.000000
0.000000 0.000000 1.000000
0.000000 0.000000 1.000000
0.000000 0.000000 1.000000
0.000000 0.000000 1.000000
0.000000 0.000000 1.000000
0.000000 0.000000 1.000000
0.000000 0.000000 1.000000
0.000000 0.000000 1.000000
0.000000 0.000000 1.000000
0.000000 0.000000 1.000000
0.000000 0.051500 0.000000
0.000000 0.044225 0.000000
0.000000 0.036949 0.000000
0.000000 0.029652 0.010762
0.000000 0.021343 0.066791
0.000000 0.011253 0.127702
0.000000 0.000000 0.182103
0.000000 0.000000 0.234434
0.000000 0.000000 0.286866
0.000000 0.000000 0.340671
0.000000 0.000000 0.396757
0.000000 0.000000 0.455853
0.000000 0.000000 0.518609
0.000000 0.000000 0.585640
0.000000 0.000000 0.657553
0.000000 0.000000 0.734966
0.000000 0.000000 0.818524
0.000000 0.000000 0.908904
0.000000 0.000000 1.000000
0.000000 0.000000 1.000000
0.000000 0.000000 1.000000
0.000000 0.000000 1.000000
0.000000 0.000000 1.000000
0.000000 0.000000 1.000000
0.000000 0.000000 1.000000
0.000000 0.000000 1.000000
0.000000 0.000000 1.000000
0.000000 0.000000 1.000000
0.000000 0.000000 1.000000
0.000000 0.000000 1.000000
0.000000 0.000000 1.000000
0.000000 0.000000 1.000000
0.000000 0.000000 1.000000
0.000000 0.112817 0.000000
0.000000 0.106729 0.000000
0.000000 0.100413 0.000000
0.000000 0.093821 0.003683
0.000000 0.085964 0.059712
0.000000 0.075695 0.122266
0.000000 0.063443 0.177947
0.000000 0.048564 0.231071
0.000000 0.030496 0.284057
0.000000 0.008556 0.338280
0.000000 0.000000 0.394693
0.000000 0.000000 0.454055
0.000000 0.000000 0.517033
0.000000 0.000000 0.584251
0.000000 0.000000 0.656324
0.000000 0.000000 0.733875
0.000000 0.000000 0.817553
0.000000 0.000000 0.908039
0.000000 0.000000 1.000000
0.000000 0.000000 1.000000
0.000000 0.000000 1.000000
0.000000 0.000000 1.000000
0.000000 0.000000 1.000000
0.000000 0.000000 1.000000
0.000000 0.000000 1.000000
0.000000 0.000000 1.000000
0.000000 0.000000 1.000000
0.000000 0.000000 1.000000
0.000000 0.000000 1.000000
0.000000 0.000000 1.000000
0.000000 0.000000 1.000000
0.000000 0.000000 1.000000
0.000000 0.000000 1.000000
0.000000 0.168153 0.000000
0.000000 0.163602 0.000000
0.000000 0.158953 0.000000
0.000000 0.154184 0.000000
0.000000 0.148616 0.051115
0.000000 0.141643 0.115437
0.000000 0.132827 0.172795
0.000000 0.121539 0.226929
0.000000 0.106801 0.280612
0.000000 0.086956 0.335353
0.000000 0.060167 0.392172
0.000000 0.027813 0.451863
0.000000 0.000000 0.515112
0.000000 0.000000 0.582559
0.000000 0.000000 0.654828
0.000000 0.000000 0.732548
0.000000 0.000000 0.816373
0.000000 0.000000 0.906987
0.000000 0.000000 1.000000
0.000000 0.000000 1.000000
0.000000 0.000000 1.000000
0.000000 0.000000 1.000000
0.000000 0.000000 1.000000
0.000000 0.000000 1.000000
0.000000 0.000000 1.000000
0.000000 0.000000 1.000000
0.000000 0.000000 1.000000
0.000000 0.000000 1.000000
0.000000 0.000000 1.000000
0.000000 0.000000 1.000000
0.000000 0.000000 1.000000
0.000000 0.000000 1.000000
0.000000 0.000000 1.000000
0.000000 0.220601 0.000000
0.000000 0.216958 0.000000
0.000000 0.213263 0.000000
0.000000 0.209502 0.000000
0.000000 0.205150 0.040675
0.000000 0.199761 0.106768
0.000000 0.193053 0.166375
0.000000 0.184645 0.221812
0.000000 0.174007 0.276376
0.000000 0.160364 0.331767
0.000000 0.142517 0.389090
0.000000 0.118399 0.449186
0.000000 0.083782 0.512770
0.000000 0.035842 0.580498
0.000000 0.000000 0.653006
0.000000 0.000000 0.730933
0.000000 0.000000 0.814937
0.000000 0.000000 0.905707
0.000000 0.000000 1.000000
0.000000 0.000000 1.000000
0.000000 0.000000 1.000000
0.000000 0.000000 1.000000
0.000000 0.000000 1.000000
0.000000 0.000000 1.000000
0.000000 0.000000 1.000000
0.000000 0.000000 1.000000
0.000000 0.000000 1.000000
0.000000 0.000000 1.000000
0.000000 0.000000 1.000000
0.000000 0.000000 1.000000
0.000000 0.000000 1.000000
0.000000 0.000000 1.000000
0.000000 0.000000 1.000000
0.000000 0.272727 0.000000
0.000000 0.269704 0.000000
0.000000 0.266651 0.000000
0.000000 0.263556 0.000000
0.000000 0.259993 0.027997
0.000000 0.255608 0.095602
0.000000 0.250191 0.158313
0.000000 0.243473 0.215460
0.000000 0.235091 0.271153
0.000000 0.224554 0.327363
0.000000 0.211165 0.385315
0.000000 0.193891 0.445914
0.000000 0.171076 0.509911
0.000000 0.139726 0.577985
0.000000 0.093090 0.650787
0.000000 0.022949 0.728966
0.000000 0.000000 0.813189
0.000000 0.000000 0.904151
0.000000 0.000000 1.000000
0.000000 0.000000 1.000000
0.000000 0.000000 1.000000
0.000000 0.000000 1.000000
0.000000 0.000000 1.000000
0.000000 0.000000 1.000000
0.000000 0.000000 1.000000
0.000000 0.000000 1.000000
0.000000 0.000000 1.000000
0.000000 0.000000 1.000000
0.000000 0.000000 1.000000
0.000000 0.000000 1.000000
0.000000 0.000000 1.000000
0.000000 0.000000 1.000000
0.000000 0.000000 1.000000
0.000000 0.325953 0.000000
0.000000 0.323390 0.000000
0.000000 0.320807 0.000000
0.000000 0.318197 0.000000
0.000000 0.315201 0.012602
0.000000 0.311526 0.080641
0.000000 0.307010 0.148088
0.000000 0.301440 0.207530
0.000000 0.294548 0.264686
0.000000 0.285974 0.321938
0.000000 0.275238 0.380682
0.000000 0.261673 0.441908
0.000000 0.244311 0.506417
0.000000 0.221665 0.574918
0.000000 0.191218 0.648081
0.000000 0.147962 0.726570
0.000000 0.077645 0.811062
0.000000 0.000000 0.902257
0.000000 0.000000 1.000000
0.000000 0.000000 1.000000
0.000000 0.000000 1.000000
0.000000 0.000000 1.000000
0.000000 0.000000 1.000000
0.000000 0.000000 1.000000
0.000000 0.000000 1.000000
0.000000 0.000000 1.000000
0.000000 0.000000 1.000000
0.000000 0.000000 1.000000
0.000000 0.000000 1.000000
0.000000 0.000000 1.000000
0.000000 0.000000 1.000000
0.000000 0.000000 1.000000
0.000000 0.000000 1.000000
0.000000 0.381249 0.000000
0.000000 0.379044 0.000000
0.000000 0.376826 0.000000
0.000000 0.374589 0.000000
0.000000 0.372025 0.000000
0.000000 0.368889 0.061946
0.000000 0.365046 0.134929
0.000000 0.360327 0.197549
0.000000 0.354514 0.256640
0.000000 0.347332 0.315234
0.000000 0.338415 0.374981
0.000000 0.327278 0.436995
0.000000 0.313258 0.502141
0.000000 0.295406 0.571170
0.000000 0.272304 0.644779
0.000000 0.241640 0.723650
0.000000 0.199130 0.808470
0.000000 0.134563 0.899952
0.000000 0.018083 0.998842
0.000000 0.000000 1.000000
0.000000 0.000000 1.000000
0.000000 0.000000 1.000000
0.000000 0.000000 1.000000
0.000000 0.000000 1.000000
0.000000 0.000000 1.000000
0.000000 0.000000 1.000000
0.000000 0.000000 1.000000
0.000000 0.000000 1.000000
0.000000 0.000000 1.000000
0.000000 0.000000 1.000000
0.000000 0.000000 1.000000
0.000000 0.000000 1.000000
0.000000 0.000000 1.000000
0.000000 0.439377 0.000000
0.000000 0.437460 0.000000
0.000000 0.435535 0.000000
0.000000 0.433596 0.000000
0.000000 0.431377 0.000000
0.000000 0.428667 0.039244
0.000000 0.425353 0.117620
0.000000 0.421294 0.184847
0.000000 0.416312 0.246559
0.000000 0.410183 0.306910
0.000000 0.402616 0.367944
0.000000 0.393235 0.430953
0.000000 0.381542 0.496897
0.000000 0.366857 0.566584
0.000000 0.348225 0.640745
0.000000 0.324240 0.720086
0.000000 0.292670 0.805311
0.000000 0.249558 0.897143
0.000000 0.186294 0.996341
0.000000 0.071736 1.000000
0.000000 0.000000 1.000000
0.000000 0.000000 1.000000
0.000000 0.000000 1.000000
0.000000 0.000000 1.000000
0.000000 0.000000 1.000000
0.000000 0.000000 1.000000
0.000000 0.000000 1.000000
0.000000 0.000000 1.000000
0.000000 0.000000 1.000000
0.000000 0.000000 1.000000
0.000000 0.000000 1.000000
0.000000 0.000000 1.000000
0.000000 0.000000 1.000000
0.000000 0.500999 0.000000
0.000000 0.499321 0.000000
0.000000 0.497637 0.000000
0.000000 0.495942 0.000000
0.000000 0.494005 0.000000
0.000000 0.491642 0.011677
0.000000 0.488757 0.094010
0.000000 0.485230 0.168421
0.000000 0.480912 0.233812
0.000000 0.475616 0.296512
0.000000 0.469102 0.359220
0.000000 0.461068 0.423500
0.000000 0.451118 0.490453
0.000000 0.438732 0.560963
0.000000 0.423206 0.635810
0.000000 0.403557 0.715732
0.000000 0.378356 0.801456
0.000000 0.345377 0.893720
0.000000 0.300790 0.993293
0.000000 0.236731 1.000000
0.000000 0.129254 1.000000
0.000000 0.000000 1.000000
0.000000 0.000000 1.000000
0.000000 0.000000 1.000000
0.000000 0.000000 1.000000
0.000000 0.000000 1.000000
0.000000 0.000000 1.000000
0.000000 0.000000 1.000000
0.000000 0.000000 1.000000
0.000000 0.000000 1.000000
0.000000 0.000000 1.000000
0.000000 0.000000 1.000000
0.000000 0.000000 1.000000
0.000000 0.566732 0.000000
0.000000 0.565255 0.000000
0.000000 0.563774 0.000000
0.000000 0.562283 0.000000
0.000000 0.560582 0.000000
0.000000 0.558508 0.000000
0.000000 0.555979 0.060822
0.000000 0.552892 0.146646
0.000000 0.549120 0.217482
0.000000 0.544502 0.283419
0.000000 0.538839 0.348345
0.000000 0.531879 0.414272
0.000000 0.523298 0.482510
0.000000 0.512680 0.554057
0.000000 0.499476 0.629762
0.000000 0.482946 0.710407
0.000000 0.462067 0.796747
0.000000 0.435361 0.889543
0.000000 0.400558 0.989579
0.000000 0.353836 1.000000
0.000000 0.287649 1.000000
0.000000 0.181262 1.000000
0.000000 0.000000 1.000000
0.000000 0.000000 1.000000
0.000000 0.000000 1.000000
0.000000 0.000000 1.000000
0.000000 0.000000 1.000000
0.000000 0.000000 1.000000
0.000000 0.000000 1.000000
0.000000 0.000000 1.000000
0.000000 0.000000 1.000000
0.000000 0.000000 1.000000
0.000000 0.000000 1.000000
0.000000 0.637184 0.000000
0.000000 0.635877 0.000000
0.000000 0.634568 0.000000
0.000000 0.633253 0.000000
0.000000 0.631751 0.000000
0.000000 0.629922 0.000000
0.000000 0.627694 0.020171
0.000000 0.624977 0.116526
0.000000 0.621660 0.196149
0.000000 0.617607 0.266742
0.000000 0.612648 0.334689
0.000000 0.606569 0.402786
0.000000 0.599099 0.472682
0.000000 0.589895 0.545549
0.000000 0.578511 0.622335
0.000000 0.564366 0.703882
0.000000 0.546676 0.790988
0.000000 0.524365 0.884442
0.000000 0.495885 0.985048
0.000000 0.458885 1.000000
0.000000 0.409468 1.000000
0.000000 0.340155 1.000000
0.000000 0.231731 1.000000
0.000000 0.000000 1.000000
0.000000 0.000000 1.000000
0.000000 0.000000 1.000000
0.000000 0.000000 1.000000
0.000000 0.000000 1.000000
0.000000 0.000000 1.000000
0.000000 0.000000 1.000000
0.000000 0.000000 1.000000
0.000000 0.000000 1.000000
0.000000 0.000000 1.000000
0.000000 0.712965 0.000000
0.000000 0.711807 0.000000
0.000000 0.710646 0.000000
0.000000 0.709480 0.000000
0.000000 0.708150 0.000000
0.000000 0.706531 0.000000
0.000000 0.704560 0.000000
0.000000 0.702158 0.071137
0.000000 0.699229 0.167394
0.000000 0.695655 0.245150
0.000000 0.691288 0.317364
0.000000 0.685946 0.388391
0.000000 0.679397 0.460463
0.000000 0.671354 0.535029
0.000000 0.661447 0.613188
0.000000 0.649199 0.695870
0.000000 0.633989 0.783933
0.000000 0.614983 0.878204
0.000000 0.591038 0.979514
0.000000 0.560521 1.000000
0.000000 0.520968 1.000000
0.000000 0.468343 1.000000
0.000000 0.395065 1.000000
0.000000 0.282545 1.000000
0.000000 0.024782 1.000000
0.000000 0.000000 1.000000
0.000000 0.000000 1.000000
0.000000 0.000000 1.000000
0.000000 0.000000 1.000000
0.000000 0.000000 1.000000
0.000000 0.000000 1.000000
0.000000 0.000000 1.000000
0.000000 0.000000 1.000000
0.000000 0.794712 0.000000
0.000000 0.793682 0.000000
0.000000 0.792651 0.000000
0.000000 0.791614 0.000000
0.000000 0.790433 0.000000
0.000000 0.788995 0.000000
0.000000 0.787246 0.000000
0.000000 0.785115 0.011191
0.000000 0.782520 0.126333
0.000000 0.779356 0.216467
0.000000 0.775495 0.295062
0.000000 0.770778 0.370179
0.000000 0.765008 0.445172
0.000000 0.757937 0.521961
0.000000 0.749253 0.601883
0.000000 0.738560 0.686007
0.000000 0.725346 0.775272
0.000000 0.708944 0.870562
0.000000 0.688461 0.972746
0.000000 0.662678 1.000000
0.000000 0.629857 1.000000
0.000000 0.587395 1.000000
0.000000 0.531068 1.000000
0.000000 0.453058 1.000000
0.000000 0.334854 1.000000
0.000000 0.079871 1.000000
0.000000 0.000000 1.000000
0.000000 0.000000 1.000000
0.000000 0.000000 1.000000
0.000000 0.000000 1.000000
0.000000 0.000000 1.000000
0.000000 0.000000 1.000000
0.000000 0.000000 1.000000
0.000000 0.883091 0.000000
0.000000 0.882173 0.000000
0.000000 0.881254 0.000000
0.000000 0.880331 0.000000
0.000000 0.879279 0.000000
0.000000 0.878000 0.000000
0.000000 0.876443 0.000000
0.000000 0.874549 0.000000
0.000000 0.872243 0.060233
0.000000 0.869434 0.176646
0.000000 0.866009 0.265710
0.000000 0.861830 0.346830
0.000000 0.856725 0.425866
0.000000 0.850481 0.505625
0.000000 0.842830 0.587848
0.000000 0.833435 0.673822
0.000000 0.821870 0.764612
0.000000 0.807582 0.861182
0.000000 0.789853 0.964458
0.000000 0.767725 1.000000
0.000000 0.739889 1.000000
0.000000 0.704489 1.000000
0.000000 0.658757 1.000000
0.000000 0.598229 1.000000
0.000000 0.514750 1.000000
0.000000 0.389494 1.000000
0.000000 0.136525 1.000000
0.000000 0.000000 1.000000
0.000000 0.000000 1.000000
0.000000 0.000000 1.000000
0.000000 0.000000 1.000000
0.000000 0.000000 1.000000
0.000000 0.000000 1.000000
0.000000 0.978809 0.000000
0.000000 0.977990 0.000000
0.000000 0.977170 0.000000
0.000000 0.976347 0.000000
0.000000 0.975408 0.000000
0.000000 0.974268 0.000000
0.000000 0.972881 0.000000
0.000000 0.971193 0.000000
0.000000 0.969139 0.000000
0.000000 0.966639 0.115948
0.000000 0.963593 0.225636
0.000000 0.959880 0.316294
0.000000 0.955350 0.401187
0.000000 0.949816 0.485031
0.000000 0.943048 0.570320
0.000000 0.934756 0.658702
0.000000 0.924577 0.751446
0.000000 0.912046 0.849640
0.000000 0.896570 0.954285
0.000000 0.877372 1.000000
0.000000 0.853420 1.000000
0.000000 0.823306 1.000000
0.000000 0.785039 1.000000
0.000000 0.735658 1.000000
0.000000 0.670417 1.000000
0.000000 0.580729 1.000000
0.000000 0.447153 1.000000
0.000000 0.188162 1.000000
0.000000 0.000000 1.000000
0.000000 0.000000 1.000000
0.000000 0.000000 1.000000
0.000000 0.000000 1.000000
0.000000 0.000000 1.000000
0.000000 1.000000 0.000000
0.000000 1.000000 0.000000
0.000000 1.000000 0.000000
0.000000 1.000000 0.000000
0.000000 1.000000 0.000000
0.000000 1.000000 0.000000
0.000000 1.000000 0.000000
0.000000 1.000000 0.000000
0.000000 1.000000 0.000000
0.000000 1.000000 0.012441
0.000000 1.000000 0.166853
0.000000 1.000000 0.275055
0.000000 1.000000 0.369057
0.000000 1.000000 0.458764
0.000000 1.000000 0.548249
0.000000 1.000000 0.639830
0.000000 1.000000 0.735116
0.000000 1.000000 0.835388
0.000000 1.000000 0.941768
0.000000 0.993019 1.000000
0.000000 0.972200 1.000000
0.000000 0.946234 1.000000
0.000000 0.913603 1.000000
0.000000 0.872161 1.000000
0.000000 0.818731 1.000000
0.000000 0.748242 1.000000
0.000000 0.651585 1.000000
0.000000 0.508452 1.000000
0.000000 0.238591 1.000000
0.000000 0.000000 1.000000
0.000000 0.000000 1.000000
0.000000 0.000000 1.000000
0.000000 0.000000 1.000000
0.000000 1.000000 0.000000
0.000000 1.000000 0.000000
0.000000 1.000000 0.000000
0.000000 1.000000 0.000000
0.000000 1.000000 0.000000
0.000000 1.000000 0.000000
0.000000 1.000000 0.000000
0.000000 1.000000 0.000000
0.000000 1.000000 0.000000
0.000000 1.000000 0.000000
0.000000 1.000000 0.061750
0.000000 1.000000 0.215933
0.000000 1.000000 0.325989
0.000000 1.000000 0.424678
0.000000 1.000000 0.520144
0.000000 1.000000 0.616090
0.000000 1.000000 0.714745
0.000000 1.000000 0.817716
0.000000 1.000000 0.926317
0.000000 1.000000 1.000000
0.000000 1.000000 1.000000
0.000000 1.000000 1.000000
0.000000 1.000000 1.000000
0.000000 1.000000 1.000000
0.000000 0.966550 1.000000
0.000000 0.908646 1.000000
0.000000 0.832341 1.000000
0.000000 0.727920 1.000000
0.000000 0.573980 1.000000
0.000000 0.289551 1.000000
0.000000 0.000000 1.000000
0.000000 0.000000 1.000000
0.000000 0.000000 1.000000
0.000000 1.000000 0.000000
0.000000 1.000000 0.000000
0.000000 1.000000 0.000000
0.000000 1.000000 0.000000
0.000000 1.000000 0.000000
0.000000 1.000000 0.000000
0.000000 1.000000 0.000000
0.000000 1.000000 0.000000
0.000000 1.000000 0.000000
0.000000 1.000000 0.000000
0.000000 1.000000 0.000000
0.000000 1.000000 0.117430
0.000000 1.000000 0.265167
0.000000 1.000000 0.379238
0.000000 1.000000 0.483765
0.000000 1.000000 0.585898
0.000000 1.000000 0.689136
0.000000 1.000000 0.795679
0.000000 1.000000 0.907162
0.000000 1.000000 1.000000
0.000000 1.000000 1.000000
0.000000 1.000000 1.000000
0.000000 1.000000 1.000000
0.000000 1.000000 1.000000
0.000000 1.000000 1.000000
0.000000 1.000000 1.000000
0.000000 1.000000 1.000000
0.000000 0.923391 1.000000
0.000000 0.810364 1.000000
0.000000 0.644326 1.000000
0.000000 0.342132 1.000000
0.000000 0.000000 1.000000
0.000000 0.000000 1.000000
0.000000 1.000000 0.000000
0.000000 1.000000 0.000000
0.000000 1.000000 0.000000
0.000000 1.000000 0.000000
0.000000 1.000000 0.000000
0.000000 1.000000 0.000000
0.000000 1.000000 0.000000
0.000000 1.000000 0.000000
0.000000 1.000000 0.000000
0.000000 1.000000 0.000000
0.000000 1.000000 0.000000
0.000000 1.000000 0.000000
0.000000 1.000000 0.168243
0.000000 1.000000 0.315732
0.000000 1.000000 0.435464
0.000000 1.000000 0.546893
0.000000 1.000000 0.656602
0.000000 1.000000 0.767994
0.000000 1.000000 0.883285
0.000000 1.000000 1.000000
0.000000 1.000000 1.000000
0.000000 1.000000 1.000000
0.000000 1.000000 1.000000
0.000000 1.000000 1.000000
0.000000 1.000000 1.000000
0.000000 1.000000 1.000000
0.000000 1.000000 1.000000
0.000000 1.000000 1.000000
0.000000 1.000000 1.000000
0.000000 0.899583 1.000000
0.000000 0.720090 1.000000
0.000000 0.397144 1.000000
0.000000 0.000000 1.000000
0.000000 1.000000 0.000000
0.000000 1.000000 0.000000
0.000000 1.000000 0.000000
0.000000 1.000000 0.000000
0.000000 1.000000 0.000000
0.000000 1.000000 0.000000
0.000000 1.000000 0.000000
0.000000 1.000000 0.000000
0.000000 1.000000 0.000000
0.000000 1.000000 0.000000
0.000000 1.000000 0.000000
0.000000 1.000000 0.000000
0.000000 1.000000 0.000000
0.000000 1.000000 0.217305
0.000000 1.000000 0.368466
0.000000 1.000000 0.495264
0.000000 1.000000 0.614632
0.000000 1.000000 0.732849
0.000000 1.000000 0.853301
0.000000 1.000000 0.978259
0.000000 1.000000 1.000000
0.000000 1.000000 1.000000
0.000000 1.000000 1.000000
0.000000 1.000000 1.000000
0.000000 1.000000 1.000000
0.000000 1.000000 1.000000
0.000000 1.000000 1.000000
0.000000 1.000000 1.000000
0.000000 1.000000 1.000000
0.000000 1.000000 1.000000
0.000000 0.996287 1.000000
0.000000 0.801900 1.000000
0.000000 0.455263 1.000000
0.000000 1.000000 0.000000
0.000000 1.000000 0.000000
0.000000 1.000000 0.000000
0.000000 1.000000 0.000000
0.000000 1.000000 0.000000
0.000000 1.000000 0.000000
0.000000 1.000000 0.000000
0.000000 1.000000 0.000000
0.000000 1.000000 0.000000
0.000000 1.000000 0.000000
0.000000 1.000000 0.000000
0.000000 1.000000 0.000000
0.000000 1.000000 0.000000
0.000000 1.000000 0.000000
0.000000 1.000000 0.266563
0.000000 1.000000 0.424053
0.000000 1.000000 0.559213
0.000000 1.000000 0.687565
0.000000 1.000000 0.815262
0.000000 1.000000 0.945739
0.000000 1.000000 1.000000
0.000000 1.000000 1.000000
0.000000 1.000000 1.000000
0.000000 1.000000 1.000000
0.000000 1.000000 1.000000
0.000000 1.000000 1.000000
0.000000 1.000000 1.000000
0.000000 1.000000 1.000000
0.000000 1.000000 1.000000
0.000000 1.000000 1.000000
0.000000 1.000000 1.000000
0.000000 1.000000 1.000000
0.000000 0.890416 1.000000
0.000000 1.000000 0.000000
0.000000 1.000000 0.000000
0.000000 1.000000 0.000000
0.000000 1.000000 0.000000
0.000000 1.000000 0.000000
0.000000 1.000000 0.000000
0.000000 1.000000 0.000000
0.000000 1.000000 0.000000
0.000000 1.000000 0.000000
0.000000 1.000000 0.000000
0.000000 1.000000 0.000000
0.000000 1.000000 0.000000
0.000000 1.000000 0.000000
0.000000 1.000000 0.000000
0.000000 1.000000 0.045653
0.000000 1.000000 0.317178
0.000000 1.000000 0.483099
0.000000 1.000000 0.627880
0.000000 1.000000 0.766295
0.000000 1.000000 0.904503
0.000000 1.000000 1.000000
0.000000 1.000000 1.000000
0.000000 1.000000 1.000000
0.000000 1.000000 1.000000
0.000000 1.000000 1.000000
0.000000 1.000000 1.000000
0.000000 1.000000 1.000000
0.000000 1.000000 1.000000
0.000000 1.000000 1.000000
0.000000 1.000000 1.000000
0.000000 1.000000 1.000000
0.000000 1.000000 1.000000
0.000000 1.000000 1.000000
0.000000 1.000000 0.000000
0.000000 1.000000 0.000000
0.000000 1.000000 0.000000
0.000000 1.000000 0.000000
0.000000 1.000000 0.000000
0.000000 1.000000 0.000000
0.000000 1.000000 0.000000
0.000000 1.000000 0.000000
0.000000 1.000000 0.000000
0.000000 1.000000 0.000000
0.000000 1.000000 0.000000
0.000000 1.000000 0.000000
0.000000 1.000000 0.000000
0.000000 1.000000 0.000000
0.000000 1.000000 0.000000
0.000000 1.000000 0.101022
0.000000 1.000000 0.369984
0.000000 1.000000 0.546180
0.000000 1.000000 0.701851
0.000000 1.000000 0.851462
0.000000 1.000000 1.000000
0.000000 1.000000 1.000000
0.000000 1.000000 1.000000
0.000000 1.000000 1.000000
0.000000 1.000000 1.000000
0.000000 1.000000 1.000000
0.000000 1.000000 1.000000
0.000000 1.000000 1.000000
0.000000 1.000000 1.000000
0.000000 1.000000 1.000000
0.000000 1.000000 1.000000
0.000000 1.000000 1.000000
0.000000 1.000000 1.000000
0.000000 1.000000 0.000000
0.000000 1.000000 0.000000
0.000000 1.000000 0.000000
0.000000 1.000000 0.000000
0.000000 1.000000 0.000000
0.000000 1.000000 0.000000
0.000000 1.000000 0.000000
0.000000 1.000000 0.000000
0.000000 1.000000 0.000000
0.000000 1.000000 0.000000
0.000000 1.000000 0.000000
0.000000 1.000000 0.000000
0.000000 1.000000 0.000000
0.000000 1.000000 0.000000
0.000000 1.000000 0.000000
0.000000 1.000000 0.000000
0.000000 1.000000 0.153027
0.000000 1.000000 0.425659
0.000000 1.000000 0.613865
0.000000 1.000000 0.781738
0.000000 1.000000 0.943744
0.000000 1.000000 1.000000
0.000000 1.000000 1.000000
0.000000 1.000000 1.000000
