app/src/main/assets/luts/SLog3_to_Rec709.cube
TITLE "S-Log3 to Rec.709"
# Generated with colour-science (Sony published transfer functions). Free to use.
DOMAIN_MIN 0.0 0.0 0.0
DOMAIN_MAX 1.0 1.0 1.0
LUT_3D_SIZE 33
0.000000 0.000000 0.000000
0.000000 0.000000 0.000000
0.000000 0.000000 0.000000
0.000000 0.000000 0.015915
0.000000 0.000000 0.042255
0.000000 0.000000 0.068596
0.000000 0.000000 0.100556
0.000000 0.000000 0.137257
0.000000 0.000000 0.177159
0.000000 0.000000 0.221096
0.000000 0.000000 0.269890
0.000000 0.000000 0.324398
0.000000 0.000000 0.385547
0.000000 0.000000 0.454355
0.000000 0.000000 0.531953
0.000000 0.000000 0.619606
0.000000 0.000000 0.718738
0.000000 0.000000 0.830952
0.000000 0.000000 0.958062
0.000000 0.000000 1.000000
0.000000 0.000000 1.000000
0.000000 0.000000 1.000000
0.000000 0.000000 1.000000
0.000000 0.000000 1.000000
0.000000 0.000000 1.000000
0.000000 0.000000 1.000000
0.000000 0.000000 1.000000
0.000000 0.000000 1.000000
0.000000 0.000000 1.000000
0.000000 0.000000 1.000000
0.000000 0.000000 1.000000
0.000000 0.000000 1.000000
0.000000 0.000000 1.000000
0.000000 0.000000 0.000000
0.000000 0.000000 0.000000
0.000000 0.000000 0.000000
0.000000 0.000000 0.011754
0.000000 0.000000 0.038095
0.000000 0.000000 0.064435
0.000000 0.000000 0.096834
0.000000 0.000000 0.134240
0.000000 0.000000 0.174672
0.000000 0.000000 0.219023
0.000000 0.000000 0.268148
0.000000 0.000000 0.322928
0.000000 0.000000 0.384301
0.000000 0.000000 0.453296
0.000000 0.000000 0.531051
0.000000 0.000000 0.618837
0.000000 0.000000 0.718081
0.000000 0.000000 0.830391
0.000000 0.000000 0.957583
0.000000 0.000000 1.000000
0.000000 0.000000 1.000000
0.000000 0.000000 1.000000
0.000000 0.000000 1.000000
0.000000 0.000000 1.000000
0.000000 0.000000 1.000000
0.000000 0.000000 1.000000
0.000000 0.000000 1.000000
0.000000 0.000000 1.000000
0.000000 0.000000 1.000000
0.000000 0.000000 1.000000
0.000000 0.000000 1.000000
0.000000 0.000000 1.000000
0.000000 0.000000 1.000000
0.000000 0.000000 0.000000
0.000000 0.000000 0.000000
0.000000 0.000000 0.000000
0.000000 0.000000 0.007594
0.000000 0.000000 0.033934
0.000000 0.000000 0.060274
0.000000 0.000000 0.093024
0.000000 0.000000 0.131175
0.000000 0.000000 0.172157
0.000000 0.000000 0.216933
0.000000 0.000000 0.266397
0.000000 0.000000 0.321451
0.000000 0.000000 0.383051
0.000000 0.000000 0.452235
0.000000 0.000000 0.530147
0.000000 0.000000 0.618067
0.000000 0.000000 0.717424
0.000000 0.000000 0.829830
0.000000 0.000000 0.957103
0.000000 0.000000 1.000000
0.000000 0.000000 1.000000
0.000000 0.000000 1.000000
0.000000 0.000000 1.000000
0.000000 0.000000 1.000000
0.000000 0.000000 1.000000
0.000000 0.000000 1.000000
0.000000 0.000000 1.000000
0.000000 0.000000 1.000000
0.000000 0.000000 1.000000
0.000000 0.000000 1.000000
0.000000 0.000000 1.000000
0.000000 0.000000 1.000000
0.000000 0.000000 1.000000
0.000000 0.027228 0.000000
0.000000 0.022144 0.000000
0.000000 0.017059 0.000000
0.000000 0.011975 0.003433
0.000000 0.006890 0.029773
0.000000 0.001806 0.056114
0.000000 0.000000 0.089120
0.000000 0.000000 0.128059
0.000000 0.000000 0.169613
0.000000 0.000000 0.214826
0.000000 0.000000 0.264635
0.000000 0.000000 0.319968
0.000000 0.000000 0.381797
0.000000 0.000000 0.451171
0.000000 0.000000 0.529242
0.000000 0.000000 0.617296
0.000000 0.000000 0.716766
0.000000 0.000000 0.829268
0.000000 0.000000 0.956623
0.000000 0.000000 1.000000
0.000000 0.000000 1.000000
0.000000 0.000000 1.000000
0.000000 0.000000 1.000000
0.000000 0.000000 1.000000
0.000000 0.000000 1.000000
0.000000 0.000000 1.000000
0.000000 0.000000 1.000000
0.000000 0.000000 1.000000
0.000000 0.000000 1.000000
0.000000 0.000000 1.000000
0.000000 0.000000 1.000000
0.000000 0.000000 1.000000
0.000000 0.000000 1.000000
0.000000 0.057340 0.000000
0.000000 0.052256 0.000000
0.000000 0.047171 0.000000
0.000000 0.042087 0.000000
0.000000 0.037002 0.025613
0.000000 0.031918 0.051953
0.000000 0.025556 0.085113
0.000000 0.016632 0.124890
0.000000 0.004807 0.167040
0.000000 0.000000 0.212702
0.000000 0.000000 0.262863
0.000000 0.000000 0.318479
0.000000 0.000000 0.380539
0.000000 0.000000 0.450104
0.000000 0.000000 0.528336
0.000000 0.000000 0.616524
0.000000 0.000000 0.716107
0.000000 0.000000 0.828706
0.000000 0.000000 0.956142
0.000000 0.000000 1.000000
0.000000 0.000000 1.000000
0.000000 0.000000 1.000000
0.000000 0.000000 1.000000
0.000000 0.000000 1.000000
0.000000 0.000000 1.000000
0.000000 0.000000 1.000000
0.000000 0.000000 1.000000
0.000000 0.000000 1.000000
0.000000 0.000000 1.000000
0.000000 0.000000 1.000000
0.000000 0.000000 1.000000
0.000000 0.000000 1.000000
0.000000 0.000000 1.000000
0.000000 0.087573 0.000000
0.000000 0.082611 0.000000
0.000000 0.077283 0.000000
0.000000 0.072198 0.000000
0.000000 0.067114 0.021452
0.000000 0.062029 0.047793
0.000000 0.055668 0.080750
0.000000 0.046744 0.121665
0.000000 0.034919 0.164435
0.000000 0.019249 0.210560
0.000000 0.000000 0.261080
0.000000 0.000000 0.316983
0.000000 0.000000 0.379277
0.000000 0.000000 0.449035
0.000000 0.000000 0.527428
0.000000 0.000000 0.615750
0.000000 0.000000 0.715448
0.000000 0.000000 0.828143
0.000000 0.000000 0.955661
0.000000 0.000000 1.000000
0.000000 0.000000 1.000000
0.000000 0.000000 1.000000
0.000000 0.000000 1.000000
0.000000 0.000000 1.000000
0.000000 0.000000 1.000000
0.000000 0.000000 1.000000
0.000000 0.000000 1.000000
0.000000 0.000000 1.000000
0.000000 0.000000 1.000000
0.000000 0.000000 1.000000
0.000000 0.000000 1.000000
0.000000 0.000000 1.000000
0.000000 0.000000 1.000000
0.000000 0.120210 0.000000
0.000000 0.116156 0.000000
0.000000 0.112007 0.000000
0.000000 0.107755 0.000000
0.000000 0.103393 0.016246
0.000000 0.098913 0.042587
0.000000 0.093128 0.075544
0.000000 0.084633 0.117548
0.000000 0.072595 0.161132
0.000000 0.056925 0.207854
0.000000 0.036161 0.258834
0.000000 0.008647 0.315102
0.000000 0.000000 0.377692
0.000000 0.000000 0.447694
0.000000 0.000000 0.526289
0.000000 0.000000 0.614782
0.000000 0.000000 0.714623
0.000000 0.000000 0.827439
0.000000 0.000000 0.955060
0.000000 0.000000 1.000000
0.000000 0.000000 1.000000
0.000000 0.000000 1.000000
0.000000 0.000000 1.000000
0.000000 0.000000 1.000000
0.000000 0.000000 1.000000
0.000000 0.000000 1.000000
0.000000 0.000000 1.000000
0.000000 0.000000 1.000000
0.000000 0.000000 1.000000
0.000000 0.000000 1.000000
0.000000 0.000000 1.000000
0.000000 0.000000 1.000000
0.000000 0.000000 1.000000
0.000000 0.157872 0.000000
0.000000 0.154543 0.000000
0.000000 0.151160 0.000000
0.000000 0.147721 0.000000
0.000000 0.144221 0.008944
0.000000 0.140659 0.035285
0.000000 0.136109 0.068242
0.000000 0.129539 0.111605
0.000000 0.120460 0.156409
0.000000 0.107670 0.204008
0.000000 0.089062 0.255654
0.000000 0.061496 0.312446
0.000000 0.025037 0.375458
0.000000 0.000000 0.445806
0.000000 0.000000 0.524688
0.000000 0.000000 0.613420
0.000000 0.000000 0.713463
0.000000 0.000000 0.826449
0.000000 0.000000 0.954215
0.000000 0.000000 1.000000
0.000000 0.000000 1.000000
0.000000 0.000000 1.000000
0.000000 0.000000 1.000000
0.000000 0.000000 1.000000
0.000000 0.000000 1.000000
0.000000 0.000000 1.000000
0.000000 0.000000 1.000000
0.000000 0.000000 1.000000
0.000000 0.000000 1.000000
0.000000 0.000000 1.000000
0.000000 0.000000 1.000000
0.000000 0.000000 1.000000
0.000000 0.000000 1.000000
0.000000 0.199238 0.000000
0.000000 0.196471 0.000000
0.000000 0.193671 0.000000
0.000000 0.190839 0.000000
0.000000 0.187973 0.000000
0.000000 0.185071 0.025608
0.000000 0.181388 0.058565
0.000000 0.176120 0.103399
0.000000 0.168944 0.149982
0.000000 0.159056 0.198818
0.000000 0.145193 0.251386
0.000000 0.125187 0.308894
0.000000 0.094717 0.372478
0.000000 0.046755 0.443292
0.000000 0.000000 0.522558
0.000000 0.000000 0.611611
0.000000 0.000000 0.711923
0.000000 0.000000 0.825136
0.000000 0.000000 0.953094
0.000000 0.000000 1.000000
0.000000 0.000000 1.000000
0.000000 0.000000 1.000000
0.000000 0.000000 1.000000
0.000000 0.000000 1.000000
0.000000 0.000000 1.000000
0.000000 0.000000 1.000000
0.000000 0.000000 1.000000
0.000000 0.000000 1.000000
0.000000 0.000000 1.000000
0.000000 0.000000 1.000000
0.000000 0.000000 1.000000
0.000000 0.000000 1.000000
0.000000 0.000000 1.000000
0.000000 0.245098 0.000000
0.000000 0.242778 0.000000
0.000000 0.240439 0.000000
0.000000 0.238080 0.000000
0.000000 0.235701 0.000000
0.000000 0.233301 0.012786
0.000000 0.230267 0.045743
0.000000 0.225954 0.091854
0.000000 0.220128 0.141139
0.000000 0.212202 0.191765
0.000000 0.201303 0.245630
0.000000 0.186068 0.304128
0.000000 0.164200 0.368493
0.000000 0.131243 0.439938
0.000000 0.075535 0.519722
0.000000 0.000000 0.609205
0.000000 0.000000 0.709876
0.000000 0.000000 0.823392
0.000000 0.000000 0.951606
0.000000 0.000000 1.000000
0.000000 0.000000 1.000000
0.000000 0.000000 1.000000
0.000000 0.000000 1.000000
0.000000 0.000000 1.000000
0.000000 0.000000 1.000000
0.000000 0.000000 1.000000
0.000000 0.000000 1.000000
0.000000 0.000000 1.000000
0.000000 0.000000 1.000000
0.000000 0.000000 1.000000
0.000000 0.000000 1.000000
0.000000 0.000000 1.000000
0.000000 0.000000 1.000000
0.000000 0.296268 0.000000
0.000000 0.294312 0.000000
0.000000 0.292344 0.000000
0.000000 0.290364 0.000000
0.000000 0.288372 0.000000
0.000000 0.286366 0.000000
0.000000 0.283840 0.028752
0.000000 0.280260 0.074983
0.000000 0.275453 0.128769
0.000000 0.268964 0.182085
0.000000 0.260143 0.237816
0.000000 0.248030 0.297704
0.000000 0.231135 0.363148
0.000000 0.206970 0.435454
0.000000 0.170804 0.515940
0.000000 0.110940 0.606001
0.000000 0.001258 0.707155
0.000000 0.000000 0.821076
0.000000 0.000000 0.949631
0.000000 0.000000 1.000000
0.000000 0.000000 1.000000
0.000000 0.000000 1.000000
0.000000 0.000000 1.000000
0.000000 0.000000 1.000000
0.000000 0.000000 1.000000
0.000000 0.000000 1.000000
0.000000 0.000000 1.000000
0.000000 0.000000 1.000000
0.000000 0.000000 1.000000
0.000000 0.000000 1.000000
0.000000 0.000000 1.000000
0.000000 0.000000 1.000000
0.000000 0.000000 1.000000
0.000000 0.353623 0.000000
0.000000 0.351967 0.000000
0.000000 0.350304 0.000000
0.000000 0.348632 0.000000
0.000000 0.346954 0.000000
0.000000 0.345267 0.000000
0.000000 0.343146 0.006237
0.000000 0.340149 0.052468
0.000000 0.336139 0.110988
0.000000 0.330755 0.168592
0.000000 0.323490 0.227108
0.000000 0.313622 0.288990
0.000000 0.300083 0.355946
0.000000 0.281228 0.429440
0.000000 0.254325 0.510883
0.000000 0.214256 0.601728
0.000000 0.148729 0.703531
0.000000 0.015246 0.817995
0.000000 0.000000 0.947006
0.000000 0.000000 1.000000
0.000000 0.000000 1.000000
0.000000 0.000000 1.000000
0.000000 0.000000 1.000000
0.000000 0.000000 1.000000
0.000000 0.000000 1.000000
0.000000 0.000000 1.000000
0.000000 0.000000 1.000000
0.000000 0.000000 1.000000
0.000000 0.000000 1.000000
0.000000 0.000000 1.000000
0.000000 0.000000 1.000000
0.000000 0.000000 1.000000
0.000000 0.000000 1.000000
0.000000 0.418122 0.000000
0.000000 0.416716 0.000000
0.000000 0.415304 0.000000
0.000000 0.413889 0.000000
0.000000 0.412468 0.000000
0.000000 0.411042 0.000000
0.000000 0.409252 0.000000
0.000000 0.406727 0.022634
0.000000 0.403358 0.084118
0.000000 0.398850 0.149316
0.000000 0.392798 0.212220
0.000000 0.384636 0.277061
0.000000 0.373554 0.346183
0.000000 0.358361 0.421341
0.000000 0.337223 0.504103
0.000000 0.307117 0.596016
0.000000 0.262427 0.698698
0.000000 0.189949 0.813893
0.000000 0.033781 0.943516
0.000000 0.000000 1.000000
0.000000 0.000000 1.000000
0.000000 0.000000 1.000000
0.000000 0.000000 1.000000
0.000000 0.000000 1.000000
0.000000 0.000000 1.000000
0.000000 0.000000 1.000000
0.000000 0.000000 1.000000
0.000000 0.000000 1.000000
0.000000 0.000000 1.000000
0.000000 0.000000 1.000000
0.000000 0.000000 1.000000
0.000000 0.000000 1.000000
0.000000 0.000000 1.000000
0.000000 0.490827 0.000000
0.000000 0.489630 0.000000
0.000000 0.488430 0.000000
0.000000 0.487227 0.000000
0.000000 0.486021 0.000000
0.000000 0.484812 0.000000
0.000000 0.483295 0.000000
0.000000 0.481158 0.000000
0.000000 0.478312 0.044360
0.000000 0.474515 0.120533
0.000000 0.469434 0.191035
0.000000 0.462616 0.260503
0.000000 0.453421 0.332827
0.000000 0.440942 0.410364
0.000000 0.423841 0.494972
0.000000 0.400068 0.588358
0.000000 0.366253 0.692239
0.000000 0.316177 0.808422
0.000000 0.235434 0.938869
0.000000 0.058343 1.000000
0.000000 0.000000 1.000000
0.000000 0.000000 1.000000
0.000000 0.000000 1.000000
0.000000 0.000000 1.000000
0.000000 0.000000 1.000000
0.000000 0.000000 1.000000
0.000000 0.000000 1.000000
0.000000 0.000000 1.000000
0.000000 0.000000 1.000000
0.000000 0.000000 1.000000
0.000000 0.000000 1.000000
0.000000 0.000000 1.000000
0.000000 0.000000 1.000000
0.000000 0.572926 0.000000
0.000000 0.571906 0.000000
0.000000 0.570883 0.000000
0.000000 0.569859 0.000000
0.000000 0.568833 0.000000
0.000000 0.567805 0.000000
0.000000 0.566515 0.000000
0.000000 0.564702 0.000000
0.000000 0.562289 0.000000
0.000000 0.559076 0.073150
0.000000 0.554788 0.159645
0.000000 0.549052 0.237008
0.000000 0.541355 0.314311
0.000000 0.530978 0.395358
0.000000 0.516896 0.482601
0.000000 0.497607 0.578047
0.000000 0.470807 0.683578
0.000000 0.432723 0.801110
0.000000 0.376422 0.932672
0.000000 0.286022 1.000000
0.000000 0.090838 1.000000
0.000000 0.000000 1.000000
0.000000 0.000000 1.000000
0.000000 0.000000 1.000000
0.000000 0.000000 1.000000
0.000000 0.000000 1.000000
0.000000 0.000000 1.000000
0.000000 0.000000 1.000000
0.000000 0.000000 1.000000
0.000000 0.000000 1.000000
0.000000 0.000000 1.000000
0.000000 0.000000 1.000000
0.000000 0.000000 1.000000
0.000000 0.665753 0.000000
0.000000 0.664882 0.000000
0.000000 0.664010 0.000000
0.000000 0.663137 0.000000
0.000000 0.662262 0.000000
0.000000 0.661386 0.000000
0.000000 0.660288 0.000000
0.000000 0.658745 0.000000
0.000000 0.656695 0.000000
0.000000 0.653967 0.003732
0.000000 0.650334 0.108958
0.000000 0.645486 0.202373
0.000000 0.639001 0.288089
0.000000 0.630300 0.374570
0.000000 0.618571 0.465696
0.000000 0.602658 0.564080
0.000000 0.580866 0.671919
0.000000 0.550602 0.791307
0.000000 0.507624 0.924390
0.000000 0.444171 1.000000
0.000000 0.342595 1.000000
0.000000 0.127087 1.000000
0.000000 0.000000 1.000000
0.000000 0.000000 1.000000
0.000000 0.000000 1.000000
0.000000 0.000000 1.000000
0.000000 0.000000 1.000000
0.000000 0.000000 1.000000
0.000000 0.000000 1.000000
0.000000 0.000000 1.000000
0.000000 0.000000 1.000000
0.000000 0.000000 1.000000
0.000000 0.000000 1.000000
0.000000 0.770812 0.000000
0.000000 0.770068 0.000000
0.000000 0.769323 0.000000
0.000000 0.768577 0.000000
0.000000 0.767831 0.000000
0.000000 0.767083 0.000000
0.000000 0.766147 0.000000
0.000000 0.764832 0.000000
0.000000 0.763086 0.000000
0.000000 0.760765 0.000000
0.000000 0.757678 0.019314
0.000000 0.753566 0.147126
0.000000 0.748079 0.249572
0.000000 0.740742 0.345174
0.000000 0.730896 0.442292
0.000000 0.717625 0.544998
0.000000 0.699622 0.656128
0.000000 0.674974 0.778111
0.000000 0.640754 0.913287
0.000000 0.592183 1.000000
0.000000 0.520540 1.000000
0.000000 0.406107 1.000000
0.000000 0.166270 1.000000
0.000000 0.000000 1.000000
0.000000 0.000000 1.000000
0.000000 0.000000 1.000000
0.000000 0.000000 1.000000
0.000000 0.000000 1.000000
0.000000 0.000000 1.000000
0.000000 0.000000 1.000000
0.000000 0.000000 1.000000
0.000000 0.000000 1.000000
0.000000 0.000000 1.000000
0.000000 0.889799 0.000000
0.000000 0.889163 0.000000
0.000000 0.888526 0.000000
0.000000 0.887889 0.000000
0.000000 0.887251 0.000000
0.000000 0.886613 0.000000
0.000000 0.885814 0.000000
0.000000 0.884692 0.000000
0.000000 0.883203 0.000000
0.000000 0.881225 0.000000
0.000000 0.878596 0.000000
0.000000 0.875099 0.039961
0.000000 0.870442 0.188636
0.000000 0.864229 0.302103
0.000000 0.855919 0.409230
0.000000 0.844769 0.518595
0.000000 0.829741 0.634561
0.000000 0.809358 0.760241
0.000000 0.781455 0.898340
0.000000 0.742724 1.000000
0.000000 0.687773 1.000000
0.000000 0.606776 1.000000
0.000000 0.477614 1.000000
0.000000 0.209252 1.000000
0.000000 0.000000 1.000000
0.000000 0.000000 1.000000
0.000000 0.000000 1.000000
0.000000 0.000000 1.000000
0.000000 0.000000 1.000000
0.000000 0.000000 1.000000
0.000000 0.000000 1.000000
0.000000 0.000000 1.000000
0.000000 0.000000 1.000000
0.000000 1.000000 0.000000
0.000000 1.000000 0.000000
0.000000 1.000000 0.000000
0.000000 1.000000 0.000000
0.000000 1.000000 0.000000
0.000000 1.000000 0.000000
0.000000 1.000000 0.000000
0.000000 1.000000 0.000000
0.000000 1.000000 0.000000
0.000000 1.000000 0.000000
0.000000 1.000000 0.000000
0.000000 1.000000 0.000000
0.000000 1.000000 0.067321
0.000000 1.000000 0.234352
0.000000 0.995808 0.360878
0.000000 0.986392 0.481323
0.000000 0.973759 0.604728
0.000000 0.956732 0.735838
0.000000 0.933640 0.878103
0.000000 0.902031 1.000000
0.000000 0.858164 1.000000
0.000000 0.795943 1.000000
0.000000 0.704280 1.000000
0.000000 0.558287 1.000000
0.000000 0.256863 1.000000
0.000000 0.000000 1.000000
0.000000 0.000000 1.000000
0.000000 0.000000 1.000000
0.000000 0.000000 1.000000
0.000000 0.000000 1.000000
0.000000 0.000000 1.000000
0.000000 0.000000 1.000000
0.000000 0.000000 1.000000
0.000000 1.000000 0.000000
0.000000 1.000000 0.000000
0.000000 1.000000 0.000000
0.000000 1.000000 0.000000
0.000000 1.000000 0.000000
0.000000 1.000000 0.000000
0.000000 1.000000 0.000000
0.000000 1.000000 0.000000
0.000000 1.000000 0.000000
0.000000 1.000000 0.000000
0.000000 1.000000 0.000000
0.000000 1.000000 0.000000
0.000000 1.000000 0.000000
0.000000 1.000000 0.102334
0.000000 1.000000 0.285129
0.000000 1.000000 0.426887
0.000000 1.000000 0.562637
0.000000 1.000000 0.702091
0.000000 1.000000 0.850469
0.000000 1.000000 1.000000
0.000000 1.000000 1.000000
0.000000 0.988937 1.000000
0.000000 0.918442 1.000000
0.000000 0.814632 1.000000
0.000000 0.649442 1.000000
0.000000 0.309954 1.000000
0.000000 0.000000 1.000000
0.000000 0.000000 1.000000
0.000000 0.000000 1.000000
0.000000 0.000000 1.000000
0.000000 0.000000 1.000000
0.000000 0.000000 1.000000
0.000000 0.000000 1.000000
0.000000 1.000000 0.000000
0.000000 1.000000 0.000000
0.000000 1.000000 0.000000
0.000000 1.000000 0.000000
0.000000 1.000000 0.000000
0.000000 1.000000 0.000000
0.000000 1.000000 0.000000
0.000000 1.000000 0.000000
0.000000 1.000000 0.000000
0.000000 1.000000 0.000000
0.000000 1.000000 0.000000
0.000000 1.000000 0.000000
0.000000 1.000000 0.000000
0.000000 1.000000 0.000000
0.000000 1.000000 0.139995
0.000000 1.000000 0.341859
0.000000 1.000000 0.501224
0.000000 1.000000 0.654497
0.000000 1.000000 0.812262
0.000000 1.000000 0.980306
0.000000 1.000000 1.000000
0.000000 1.000000 1.000000
0.000000 1.000000 1.000000
0.000000 1.000000 1.000000
0.000000 0.939614 1.000000
0.000000 0.752557 1.000000
0.000000 0.369436 1.000000
0.000000 0.000000 1.000000
0.000000 0.000000 1.000000
0.000000 0.000000 1.000000
0.000000 0.000000 1.000000
0.000000 0.000000 1.000000
0.000000 0.000000 1.000000
0.000000 1.000000 0.000000
0.000000 1.000000 0.000000
0.000000 1.000000 0.000000
0.000000 1.000000 0.000000
0.000000 1.000000 0.000000
0.000000 1.000000 0.000000
0.000000 1.000000 0.000000
0.000000 1.000000 0.000000
0.000000 1.000000 0.000000
0.000000 1.000000 0.000000
0.000000 1.000000 0.000000
0.000000 1.000000 0.000000
0.000000 1.000000 0.000000
0.000000 1.000000 0.000000
0.000000 1.000000 0.000000
0.000000 1.000000 0.180835
0.000000 1.000000 0.405505
0.000000 1.000000 0.585107
0.000000 1.000000 0.758396
0.000000 1.000000 0.937023
0.000000 1.000000 1.000000
0.000000 1.000000 1.000000
0.000000 1.000000 1.000000
0.000000 1.000000 1.000000
0.000000 1.000000 1.000000
0.000000 1.000000 1.000000
0.000000 0.869299 1.000000
0.000000 0.436306 1.000000
0.000000 0.000000 1.000000
0.000000 0.000000 1.000000
0.000000 0.000000 1.000000
0.000000 0.000000 1.000000
0.000000 0.000000 1.000000
0.000000 1.000000 0.000000
0.000000 1.000000 0.000000
0.000000 1.000000 0.000000
0.000000 1.000000 0.000000
0.000000 1.000000 0.000000
0.000000 1.000000 0.000000
0.000000 1.000000 0.000000
0.000000 1.000000 0.000000
0.000000 1.000000 0.000000
0.000000 1.000000 0.000000
0.000000 1.000000 0.000000
0.000000 1.000000 0.000000
0.000000 1.000000 0.000000
0.000000 1.000000 0.000000
0.000000 1.000000 0.000000
0.000000 1.000000 0.000000
0.000000 1.000000 0.225727
0.000000 1.000000 0.477126
0.000000 1.000000 0.679902
0.000000 1.000000 0.876013
0.000000 1.000000 1.000000
0.000000 1.000000 1.000000
0.000000 1.000000 1.000000
0.000000 1.000000 1.000000
0.000000 1.000000 1.000000
0.000000 1.000000 1.000000
0.000000 1.000000 1.000000
0.000000 1.000000 1.000000
0.000000 0.511666 1.000000
0.000000 0.000000 1.000000
0.000000 0.000000 1.000000
0.000000 0.000000 1.000000
0.000000 0.000000 1.000000
0.000000 1.000000 0.000000
0.000000 1.000000 0.000000
0.000000 1.000000 0.000000
0.000000 1.000000 0.000000
0.000000 1.000000 0.000000
0.000000 1.000000 0.000000
0.000000 1.000000 0.000000
0.000000 1.000000 0.000000
0.000000 1.000000 0.000000
0.000000 1.000000 0.000000
0.000000 1.000000 0.000000
0.000000 1.000000 0.000000
0.000000 1.000000 0.000000
0.000000 1.000000 0.000000
0.000000 1.000000 0.000000
0.000000 1.000000 0.000000
0.000000 1.000000 0.000000
0.000000 1.000000 0.275523
0.000000 1.000000 0.557899
0.000000 1.000000 0.787146
0.000000 1.000000 1.000000
0.000000 1.000000 1.000000
0.000000 1.000000 1.000000
0.000000 1.000000 1.000000
0.000000 1.000000 1.000000
0.000000 1.000000 1.000000
0.000000 1.000000 1.000000
0.000000 1.000000 1.000000
0.000000 1.000000 1.000000
0.000000 0.596749 1.000000
0.000000 0.000000 1.000000
0.000000 0.000000 1.000000
0.000000 0.000000 1.000000
0.000000 1.000000 0.000000
0.000000 1.000000 0.000000
0.000000 1.000000 0.000000
0.000000 1.000000 0.000000
0.000000 1.000000 0.000000
0.000000 1.000000 0.000000
0.000000 1.000000 0.000000
0.000000 1.000000 0.000000
0.000000 1.000000 0.000000
0.000000 1.000000 0.000000
0.000000 1.000000 0.000000
0.000000 1.000000 0.000000
0.000000 1.000000 0.000000
0.000000 1.000000 0.000000
0.000000 1.000000 0.000000
0.000000 1.000000 0.000000
0.000000 1.000000 0.000000
0.000000 1.000000 0.000000
0.000000 1.000000 0.331106
0.000000 1.000000 0.649142
0.000000 1.000000 0.908574
0.000000 1.000000 1.000000
0.000000 1.000000 1.000000
0.000000 1.000000 1.000000
0.000000 1.000000 1.000000
0.000000 1.000000 1.000000
0.000000 1.000000 1.000000
0.000000 1.000000 1.000000
0.000000 1.000000 1.000000
0.000000 1.000000 1.000000
0.000000 0.692938 1.000000
0.000000 0.000000 1.000000
0.000000 0.000000 1.000000
0.000000 1.000000 0.000000
0.000000 1.000000 0.000000
0.000000 1.000000 0.000000
0.000000 1.000000 0.000000
0.000000 1.000000 0.000000
0.000000 1.000000 0.000000
0.000000 1.000000 0.000000
0.000000 1.000000 0.000000
0.000000 1.000000 0.000000
0.000000 1.000000 0.000000
0.000000 1.000000 0.000000
0.000000 1.000000 0.000000
0.000000 1.000000 0.000000
0.000000 1.000000 0.000000
0.000000 1.000000 0.000000
0.000000 1.000000 0.000000
0.000000 1.000000 0.000000
0.000000 1.000000 0.000000
0.000000 1.000000 0.000000
0.000000 1.000000 0.393425
0.000000 1.000000 0.752335
0.000000 1.000000 1.000000
0.000000 1.000000 1.000000
0.000000 1.000000 1.000000
0.000000 1.000000 1.000000
0.000000 1.000000 1.000000
0.000000 1.000000 1.000000
0.000000 1.000000 1.000000
0.000000 1.000000 1.000000
0.000000 1.000000 1.000000
0.000000 1.000000 1.000000
0.000000 0.801791 1.000000
0.000000 0.000000 1.000000
0.000000 1.000000 0.000000
0.000000 1.000000 0.000000
0.000000 1.000000 0.000000
0.000000 1.000000 0.000000
0.000000 1.000000 0.000000
0.000000 1.000000 0.000000
0.000000 1.000000 0.000000
0.000000 1.000000 0.000000
0.000000 1.000000 0.000000
0.000000 1.000000 0.000000
0.000000 1.000000 0.000000
0.000000 1.000000 0.000000
0.000000 1.000000 0.000000
0.000000 1.000000 0.000000
0.000000 1.000000 0.000000
0.000000 1.000000 0.000000
0.000000 1.000000 0.000000
0.000000 1.000000 0.000000
0.000000 1.000000 0.000000
0.000000 1.000000 0.000000
0.000000 1.000000 0.463519
0.000000 1.000000 0.869150
0.000000 1.000000 1.000000
0.000000 1.000000 1.000000
