app/src/main/assets/luts/SLog2_to_Rec709.cube
TITLE "S-Log2 to Rec.709"
# Generated with colour-science (Sony published transfer functions). Free to use.
DOMAIN_MIN 0.0 0.0 0.0
DOMAIN_MAX 1.0 1.0 1.0
LUT_3D_SIZE 9
0.000000 0.000000 0.000000
0.000000 0.000000 0.085597
0.000000 0.000000 0.294135
0.000000 0.000000 0.522730
0.000000 0.000000 0.821071
0.000000 0.000000 1.000000
0.000000 0.000000 1.000000
0.000000 0.000000 1.000000
0.000000 0.000000 1.000000
0.000000 0.112817 0.000000
0.000000 0.085964 0.059712
0.000000 0.030496 0.284057
0.000000 0.000000 0.517033
0.000000 0.000000 0.817553
0.000000 0.000000 1.000000
0.000000 0.000000 1.000000
0.000000 0.000000 1.000000
0.000000 0.000000 1.000000
0.000000 0.325953 0.000000
0.000000 0.315201 0.012602
0.000000 0.294548 0.264686
0.000000 0.244311 0.506417
0.000000 0.077645 0.811062
0.000000 0.000000 1.000000
0.000000 0.000000 1.000000
0.000000 0.000000 1.000000
0.000000 0.000000 1.000000
0.000000 0.566732 0.000000
0.000000 0.560582 0.000000
0.000000 0.549120 0.217482
0.000000 0.523298 0.482510
0.000000 0.462067 0.796747
0.000000 0.287649 1.000000
0.000000 0.000000 1.000000
0.000000 0.000000 1.000000
0.000000 0.000000 1.000000
0.000000 0.883091 0.000000
0.000000 0.879279 0.000000
0.000000 0.872243 0.060233
0.000000 0.856725 0.425866
0.000000 0.821870 0.764612
0.000000 0.739889 1.000000
0.000000 0.514750 1.000000
0.000000 0.000000 1.000000
0.000000 0.000000 1.000000
0.000000 1.000000 0.000000
0.000000 1.000000 0.000000
0.000000 1.000000 0.000000
0.000000 1.000000 0.265167
0.000000 1.000000 0.689136
0.000000 1.000000 1.000000
0.000000 1.000000 1.000000
0.000000 0.810364 1.000000
0.000000 0.000000 1.000000
0.000000 1.000000 0.000000
0.000000 1.000000 0.000000
0.000000 1.000000 0.000000
0.000000 1.000000 0.000000
0.000000 1.000000 0.483099
0.000000 1.000000 1.000000
0.000000 1.000000 1.000000
0.000000 1.000000 1.000000
0.000000 1.000000 1.000000
0.000000 1.000000 0.000000
0.000000 1.000000 0.000000
0.000000 1.000000 0.000000
0.000000 1.000000 0.000000
0.000000 1.000000 0.000000
0.000000 1.000000 0.765402
0.000000 1.000000 1.000000
0.000000 1.000000 1.000000
0.000000 1.000000 1.000000
0.000000 1.000000 0.000000
0.000000 1.000000 0.000000
0.000000 1.000000 0.000000
0.000000 1.000000 0.000000
0.000000 1.000000 0.000000
0.000000 1.000000 0.000000
0.000000 1.000000 1.000000
0.000000 1.000000 1.000000
0.000000 1.000000 1.000000
0.176038 0.000000 0.000000
0.167203 0.000000 0.080871
0.150000 0.000000 0.292379
0.106402 0.000000 0.521729
0.000000 0.000000 0.820451
0.000000 0.000000 1.000000
0.000000 0.000000 1.000000
0.000000 0.000000 1.000000
0.000000 0.000000 1.000000
0.069674 0.085524 0.000000
0.055176 0.055176 0.055176
0.028594 0.000000 0.282244
0.000000 0.000000 0.516021
0.000000 0.000000 0.816931
0.000000 0.000000 1.000000
0.000000 0.000000 1.000000
0.000000 0.000000 1.000000
0.000000 0.000000 1.000000
0.000000 0.315037 0.000000
0.000000 0.303927 0.008066
0.000000 0.282522 0.262754
0.000000 0.230001 0.505383
0.000000 0.047035 0.810434
0.000000 0.000000 1.000000
0.000000 0.000000 1.000000
0.000000 0.000000 1.000000
0.000000 0.000000 1.000000
0.000000 0.560489 0.000000
0.000000 0.554266 0.000000
0.000000 0.542666 0.215189
0.000000 0.516512 0.481423
0.000000 0.454351 0.796107
0.000000 0.275350 1.000000
0.000000 0.000000 1.000000
0.000000 0.000000 1.000000
0.000000 0.000000 1.000000
0.000000 0.879222 0.000000
0.000000 0.875392 0.000000
0.000000 0.868321 0.055697
0.000000 0.852724 0.424634
0.000000 0.817683 0.763942
0.000000 0.735193 1.000000
0.000000 0.507846 1.000000
0.000000 0.000000 1.000000
0.000000 0.000000 1.000000
0.000000 1.000000 0.000000
0.000000 1.000000 0.000000
0.000000 1.000000 0.000000
0.000000 1.000000 0.263238
0.000000 1.000000 0.688387
0.000000 1.000000 1.000000
0.000000 1.000000 1.000000
0.000000 0.806112 1.000000
0.000000 0.000000 1.000000
0.000000 1.000000 0.000000
0.000000 1.000000 0.000000
0.000000 1.000000 0.000000
0.000000 1.000000 0.000000
0.000000 1.000000 0.482014
0.000000 1.000000 1.000000
0.000000 1.000000 1.000000
0.000000 1.000000 1.000000
0.000000 1.000000 1.000000
0.000000 1.000000 0.000000
0.000000 1.000000 0.000000
0.000000 1.000000 0.000000
0.000000 1.000000 0.000000
0.000000 1.000000 0.000000
0.000000 1.000000 0.764733
0.000000 1.000000 1.000000
0.000000 1.000000 1.000000
0.000000 1.000000 1.000000
0.000000 1.000000 0.000000
0.000000 1.000000 0.000000
0.000000 1.000000 0.000000
0.000000 1.000000 0.000000
0.000000 1.000000 0.000000
0.000000 1.000000 0.000000
0.000000 1.000000 1.000000
0.000000 1.000000 1.000000
0.000000 1.000000 1.000000
0.407089 0.000000 0.000000
0.402957 0.000000 0.072555
0.395273 0.000000 0.289134
0.378038 0.000000 0.519889
0.337654 0.000000 0.819313
0.228492 0.000000 1.000000
0.000000 0.000000 1.000000
0.000000 0.000000 1.000000
0.000000 0.000000 1.000000
0.366088 0.029214 0.000000
0.361502 0.000000 0.046859
0.352947 0.000000 0.278892
0.333625 0.000000 0.514159
0.287473 0.000000 0.815788
0.151184 0.000000 1.000000
0.000000 0.000000 1.000000
0.000000 0.000000 1.000000
0.000000 0.000000 1.000000
0.276439 0.294053 0.000000
0.270460 0.282189 0.000000
0.259178 0.259178 0.259178
0.233011 0.201576 0.503481
0.164967 0.000000 0.809281
0.000000 0.000000 1.000000
0.000000 0.000000 1.000000
0.000000 0.000000 1.000000
0.000000 0.000000 1.000000
0.000000 0.548851 0.000000
0.000000 0.542490 0.000000
0.000000 0.530623 0.210931
0.000000 0.503826 0.479425
0.000000 0.439853 0.794931
0.000000 0.251418 1.000000
0.000000 0.000000 1.000000
0.000000 0.000000 1.000000
0.000000 0.000000 1.000000
0.000000 0.872079 0.000000
0.000000 0.868215 0.000000
0.000000 0.861080 0.047380
0.000000 0.845336 0.422367
0.000000 0.809944 0.762713
0.000000 0.726499 1.000000
0.000000 0.494933 1.000000
0.000000 0.000000 1.000000
0.000000 0.000000 1.000000
0.000000 1.000000 0.000000
0.000000 1.000000 0.000000
0.000000 1.000000 0.000000
0.000000 1.000000 0.259668
0.000000 1.000000 0.687012
0.000000 1.000000 1.000000
0.000000 1.000000 1.000000
0.000000 0.798251 1.000000
0.000000 0.000000 1.000000
0.000000 1.000000 0.000000
0.000000 1.000000 0.000000
0.000000 1.000000 0.000000
0.000000 1.000000 0.000000
0.000000 1.000000 0.480018
0.000000 1.000000 1.000000
0.000000 1.000000 1.000000
0.000000 1.000000 1.000000
0.000000 1.000000 1.000000
0.000000 1.000000 0.000000
0.000000 1.000000 0.000000
0.000000 1.000000 0.000000
0.000000 1.000000 0.000000
0.000000 1.000000 0.000000
0.000000 1.000000 0.763505
0.000000 1.000000 1.000000
0.000000 1.000000 1.000000
0.000000 1.000000 1.000000
0.000000 1.000000 0.000000
0.000000 1.000000 0.000000
0.000000 1.000000 0.000000
0.000000 1.000000 0.000000
0.000000 1.000000 0.000000
0.000000 1.000000 0.000000
0.000000 1.000000 1.000000
0.000000 1.000000 1.000000
0.000000 1.000000 1.000000
0.680811 0.000000 0.000000
0.678382 0.000000 0.054471
0.673907 0.000000 0.281961
0.664063 0.000000 0.515863
0.642103 0.000000 0.816834
0.591373 0.000000 1.000000
0.461327 0.000000 1.000000
0.000000 0.000000 1.000000
0.000000 0.000000 1.000000
0.657400 0.000000 0.000000
0.654879 0.000000 0.028776
0.650231 0.000000 0.271476
0.640000 0.000000 0.510087
0.617132 0.000000 0.813297
0.564042 0.000000 1.000000
0.425513 0.000000 1.000000
0.000000 0.000000 1.000000
0.000000 0.000000 1.000000
0.612009 0.242901 0.000000
0.609289 0.228734 0.000000
0.604270 0.200607 0.251248
0.593202 0.124258 0.499320
0.568354 0.000000 0.806768
0.509992 0.000000 1.000000
0.350638 0.000000 1.000000
0.000000 0.000000 1.000000
0.000000 0.000000 1.000000
0.498497 0.522618 0.000000
0.495130 0.515924 0.000000
0.488895 0.503413 0.201416
0.475050 0.475050 0.475050
0.443440 0.406555 0.792369
0.365472 0.190889 1.000000
0.069447 0.000000 1.000000
0.000000 0.000000 1.000000
0.000000 0.000000 1.000000
0.000000 0.856322 0.000000
0.000000 0.852379 0.000000
0.000000 0.845097 0.029296
0.000000 0.829021 0.417393
0.000000 0.792834 0.760033
0.000000 0.707197 1.000000
0.000000 0.465599 1.000000
0.000000 0.000000 1.000000
0.000000 0.000000 1.000000
0.000000 1.000000 0.000000
0.000000 1.000000 0.000000
0.000000 1.000000 0.000000
0.000000 1.000000 0.251751
0.000000 1.000000 0.684012
0.000000 1.000000 1.000000
0.000000 1.000000 1.000000
0.000000 0.780862 1.000000
0.000000 0.000000 1.000000
0.000000 1.000000 0.000000
0.000000 1.000000 0.000000
0.000000 1.000000 0.000000
0.000000 1.000000 0.000000
0.000000 1.000000 0.475648
0.000000 1.000000 1.000000
0.000000 1.000000 1.000000
0.000000 1.000000 1.000000
0.000000 1.000000 1.000000
0.000000 1.000000 0.000000
0.000000 1.000000 0.000000
0.000000 1.000000 0.000000
0.000000 1.000000 0.000000
0.000000 1.000000 0.000000
0.000000 1.000000 0.760827
0.000000 1.000000 1.000000
0.000000 1.000000 1.000000
0.000000 1.000000 1.000000
0.000000 1.000000 0.000000
0.000000 1.000000 0.000000
0.000000 1.000000 0.000000
0.000000 1.000000 0.000000
0.000000 1.000000 0.000000
0.000000 1.000000 0.000000
0.000000 1.000000 1.000000
0.000000 1.000000 1.000000
0.000000 1.000000 1.000000
1.000000 0.000000 0.000000
1.000000 0.000000 0.015148
1.000000 0.000000 0.265765
1.000000 0.000000 0.506997
1.000000 0.000000 0.811414
0.991152 0.000000 1.000000
0.922563 0.000000 1.000000
0.749602 0.000000 1.000000
0.000000 0.000000 1.000000
1.000000 0.000000 0.000000
1.000000 0.000000 0.000000
1.000000 0.000000 0.254689
1.000000 0.000000 0.501116
1.000000 0.000000 0.807851
0.975759 0.000000 1.000000
0.905875 0.000000 1.000000
0.728558 0.000000 1.000000
0.000000 0.000000 1.000000
1.000000 0.070634 0.000000
1.000000 0.040478 0.000000
0.998585 0.000000 0.233198
0.992199 0.000000 0.490148
0.978155 0.000000 0.801274
0.946816 0.000000 1.000000
0.874367 0.000000 1.000000
0.688175 0.000000 1.000000
0.000000 0.000000 1.000000
0.940928 0.460312 0.000000
0.939222 0.452681 0.000000
0.936085 0.438346 0.179339
0.929222 0.405440 0.465392
0.914102 0.322860 0.786765
0.880233 0.000000 1.000000
0.801145 0.000000 1.000000
0.590221 0.000000 1.000000
0.000000 0.000000 1.000000
0.787024 0.820913 0.000000
0.784948 0.816782 0.000000
0.781126 0.809150 0.000000
0.772744 0.792277 0.406371
0.754168 0.754168 0.754168
0.711966 0.663144 1.000000
0.609418 0.394333 1.000000
0.272308 0.000000 1.000000
0.000000 0.000000 1.000000
0.169478 1.000000 0.000000
0.160368 1.000000 0.000000
0.142564 1.000000 0.000000
0.096896 1.000000 0.233735
0.000000 1.000000 0.677438
0.000000 1.000000 1.000000
0.000000 1.000000 1.000000
0.000000 0.741519 1.000000
0.000000 0.000000 1.000000
0.000000 1.000000 0.000000
0.000000 1.000000 0.000000
0.000000 1.000000 0.000000
0.000000 1.000000 0.000000
0.000000 1.000000 0.466003
0.000000 1.000000 1.000000
0.000000 1.000000 1.000000
0.000000 1.000000 1.000000
0.000000 1.000000 1.000000
0.000000 1.000000 0.000000
0.000000 1.000000 0.000000
0.000000 1.000000 0.000000
0.000000 1.000000 0.000000
0.000000 1.000000 0.000000
0.000000 1.000000 0.754970
0.000000 1.000000 1.000000
0.000000 1.000000 1.000000
0.000000 1.000000 1.000000
0.000000 1.000000 0.000000
0.000000 1.000000 0.000000
0.000000 1.000000 0.000000
0.000000 1.000000 0.000000
0.000000 1.000000 0.000000
0.000000 1.000000 0.000000
0.000000 1.000000 1.000000
0.000000 1.000000 1.000000
0.000000 1.000000 1.000000
1.000000 0.000000 0.000000
1.000000 0.000000 0.000000
1.000000 0.000000 0.227104
1.000000 0.000000 0.487147
1.000000 0.000000 0.799490
1.000000 0.000000 1.000000
1.000000 0.000000 1.000000
1.000000 0.000000 1.000000
1.000000 0.000000 1.000000
1.000000 0.000000 0.000000
1.000000 0.000000 0.000000
1.000000 0.000000 0.214332
1.000000 0.000000 0.481019
1.000000 0.000000 0.795869
1.000000 0.000000 1.000000
1.000000 0.000000 1.000000
1.000000 0.000000 1.000000
1.000000 0.000000 1.000000
1.000000 0.000000 0.000000
1.000000 0.000000 0.000000
1.000000 0.000000 0.189098
1.000000 0.000000 0.469575
1.000000 0.000000 0.789183
1.000000 0.000000 1.000000
1.000000 0.000000 1.000000
1.000000 0.000000 1.000000
1.000000 0.000000 1.000000
1.000000 0.281465 0.000000
1.000000 0.269102 0.000000
1.000000 0.245010 0.121853
1.000000 0.183805 0.443663
1.000000 0.000000 0.774428
1.000000 0.000000 1.000000
1.000000 0.000000 1.000000
1.000000 0.000000 1.000000
1.000000 0.000000 1.000000
1.000000 0.737508 0.000000
1.000000 0.732866 0.000000
1.000000 0.724272 0.000000
1.000000 0.705195 0.381329
1.000000 0.661676 0.741243
1.000000 0.554609 1.000000
1.000000 0.160403 1.000000
1.000000 0.000000 1.000000
0.910033 0.000000 1.000000
1.000000 1.000000 0.000000
1.000000 1.000000 0.000000
1.000000 1.000000 0.000000
1.000000 1.000000 0.189737
1.000000 1.000000 0.662902
1.000000 1.000000 1.000000
1.000000 1.000000 1.000000
0.936261 0.647083 1.000000
0.491175 0.000000 1.000000
0.373366 1.000000 0.000000
0.368867 1.000000 0.000000
0.360479 1.000000 0.000000
0.341562 1.000000 0.000000
0.296555 1.000000 0.444303
0.166300 1.000000 1.000000
0.000000 1.000000 1.000000
0.000000 1.000000 1.000000
0.000000 1.000000 1.000000
0.000000 1.000000 0.000000
0.000000 1.000000 0.000000
0.000000 1.000000 0.000000
0.000000 1.000000 0.000000
0.000000 1.000000 0.000000
0.000000 1.000000 0.742059
0.000000 1.000000 1.000000
0.000000 1.000000 1.000000
0.000000 1.000000 1.000000
0.000000 1.000000 0.000000
0.000000 1.000000 0.000000
0.000000 1.000000 0.000000
0.000000 1.000000 0.000000
0.000000 1.000000 0.000000
0.000000 1.000000 0.000000
0.000000 1.000000 1.000000
0.000000 1.000000 1.000000
0.000000 1.000000 1.000000
1.000000 0.000000 0.000000
1.000000 0.000000 0.000000
1.000000 0.000000 0.113295
1.000000 0.000000 0.440869
1.000000 0.000000 0.772870
1.000000 0.000000 1.000000
1.000000 0.000000 1.000000
1.000000 0.000000 1.000000
1.000000 0.000000 1.000000
1.000000 0.000000 0.000000
1.000000 0.000000 0.000000
1.000000 0.000000 0.090781
1.000000 0.000000 0.434085
1.000000 0.000000 0.769112
1.000000 0.000000 1.000000
1.000000 0.000000 1.000000
1.000000 0.000000 1.000000
1.000000 0.000000 1.000000
1.000000 0.000000 0.000000
1.000000 0.000000 0.000000
1.000000 0.000000 0.043719
1.000000 0.000000 0.421364
1.000000 0.000000 0.762171
1.000000 0.000000 1.000000
1.000000 0.000000 1.000000
1.000000 0.000000 1.000000
1.000000 0.000000 1.000000
1.000000 0.000000 0.000000
1.000000 0.000000 0.000000
1.000000 0.000000 0.000000
1.000000 0.000000 0.392302
1.000000 0.000000 0.746837
1.000000 0.000000 1.000000
1.000000 0.000000 1.000000
1.000000 0.000000 1.000000
1.000000 0.000000 1.000000
1.000000 0.507054 0.000000
1.000000 0.500146 0.000000
1.000000 0.487222 0.000000
1.000000 0.457842 0.320465
1.000000 0.386331 0.712262
1.000000 0.148144 1.000000
1.000000 0.000000 1.000000
1.000000 0.000000 1.000000
1.000000 0.000000 1.000000
1.000000 1.000000 0.000000
1.000000 1.000000 0.000000
1.000000 1.000000 0.000000
1.000000 1.000000 0.044852
1.000000 1.000000 0.630064
1.000000 1.000000 1.000000
1.000000 0.861545 1.000000
1.000000 0.360517 1.000000
1.000000 0.000000 1.000000
1.000000 1.000000 0.000000
1.000000 1.000000 0.000000
1.000000 1.000000 0.000000
1.000000 1.000000 0.000000
1.000000 1.000000 0.393026
1.000000 1.000000 1.000000
1.000000 1.000000 1.000000
1.000000 1.000000 1.000000
1.000000 0.987876 1.000000
0.621442 1.000000 0.000000
0.618766 1.000000 0.000000
0.613829 1.000000 0.000000
0.602945 1.000000 0.000000
0.578535 1.000000 0.000000
0.521354 1.000000 0.713115
0.366926 1.000000 1.000000
0.000000 1.000000 1.000000
0.000000 1.000000 1.000000
0.000000 1.000000 0.000000
0.000000 1.000000 0.000000
0.000000 1.000000 0.000000
0.000000 1.000000 0.000000
0.000000 1.000000 0.000000
0.000000 1.000000 0.000000
0.000000 1.000000 1.000000
0.000000 1.000000 1.000000
0.000000 1.000000 1.000000
1.000000 0.000000 0.000000
1.000000 0.000000 0.000000
1.000000 0.000000 0.000000
1.000000 0.000000 0.318200
1.000000 0.000000 0.711254
1.000000 0.000000 1.000000
1.000000 0.000000 1.000000
1.000000 0.000000 1.000000
1.000000 0.000000 1.000000
1.000000 0.000000 0.000000
1.000000 0.000000 0.000000
1.000000 0.000000 0.000000
1.000000 0.000000 0.308846
1.000000 0.000000 0.707142
1.000000 0.000000 1.000000
1.000000 0.000000 1.000000
1.000000 0.000000 1.000000
1.000000 0.000000 1.000000
1.000000 0.000000 0.000000
1.000000 0.000000 0.000000
1.000000 0.000000 0.000000
1.000000 0.000000 0.290981
1.000000 0.000000 0.699537
1.000000 0.000000 1.000000
1.000000 0.000000 1.000000
1.000000 0.000000 1.000000
1.000000 0.000000 1.000000
1.000000 0.000000 0.000000
1.000000 0.000000 0.000000
1.000000 0.000000 0.000000
1.000000 0.000000 0.248196
1.000000 0.000000 0.682686
1.000000 0.000000 1.000000
1.000000 0.000000 1.000000
1.000000 0.000000 1.000000
1.000000 0.000000 1.000000
1.000000 0.000000 0.000000
1.000000 0.000000 0.000000
1.000000 0.000000 0.000000
1.000000 0.000000 0.120037
1.000000 0.000000 0.644420
1.000000 0.000000 1.000000
1.000000 0.000000 1.000000
1.000000 0.000000 1.000000
1.000000 0.000000 1.000000
1.000000 0.799980 0.000000
1.000000 0.795731 0.000000
1.000000 0.787876 0.000000
1.000000 0.770496 0.000000
1.000000 0.731157 0.551561
1.000000 0.636601 1.000000
1.000000 0.347418 1.000000
1.000000 0.000000 1.000000
1.000000 0.000000 1.000000
1.000000 1.000000 0.000000
1.000000 1.000000 0.000000
1.000000 1.000000 0.000000
1.000000 1.000000 0.000000
1.000000 1.000000 0.249300
1.000000 1.000000 0.964529
1.000000 1.000000 1.000000
1.000000 1.000000 1.000000
1.000000 0.602994 1.000000
1.000000 1.000000 0.000000
1.000000 1.000000 0.000000
1.000000 1.000000 0.000000
1.000000 1.000000 0.000000
1.000000 1.000000 0.000000
1.000000 1.000000 0.645368
1.000000 1.000000 1.000000
1.000000 1.000000 1.000000
1.000000 1.000000 1.000000
0.953824 1.000000 0.000000
0.952143 1.000000 0.000000
0.949053 1.000000 0.000000
0.942294 1.000000 0.000000
0.927410 1.000000 0.000000
0.894098 1.000000 0.000000
0.816486 1.000000 1.000000
0.611307 1.000000 1.000000
0.000000 1.000000 1.000000
1.000000 0.000000 0.000000
1.000000 0.000000 0.000000
1.000000 0.000000 0.000000
1.000000 0.000000 0.000000
1.000000 0.000000 0.552221
1.000000 0.000000 1.000000
1.000000 0.000000 1.000000
1.000000 0.000000 1.000000
1.000000 0.000000 1.000000
1.000000 0.000000 0.000000
1.000000 0.000000 0.000000
1.000000 0.000000 0.000000
1.000000 0.000000 0.000000
1.000000 0.000000 0.546841
1.000000 0.000000 1.000000
1.000000 0.000000 1.000000
1.000000 0.000000 1.000000
1.000000 0.000000 1.000000
1.000000 0.000000 0.000000
1.000000 0.000000 0.000000
1.000000 0.000000 0.000000
1.000000 0.000000 0.000000
1.000000 0.000000 0.536832
1.000000 0.000000 1.000000
1.000000 0.000000 1.000000
1.000000 0.000000 1.000000
1.000000 0.000000 1.000000
1.000000 0.000000 0.000000
1.000000 0.000000 0.000000
1.000000 0.000000 0.000000
1.000000 0.000000 0.000000
1.000000 0.000000 0.514373
1.000000 0.000000 1.000000
1.000000 0.000000 1.000000
1.000000 0.000000 1.000000
1.000000 0.000000 1.000000
1.000000 0.000000 0.000000
1.000000 0.000000 0.000000
1.000000 0.000000 0.000000
1.000000 0.000000 0.000000
1.000000 0.000000 0.461693
1.000000 0.000000 1.000000
1.000000 0.000000 1.000000
1.000000 0.000000 1.000000
1.000000 0.000000 1.000000
1.000000 0.000000 0.000000
1.000000 0.000000 0.000000
1.000000 0.000000 0.000000
1.000000 0.000000 0.000000
1.000000 0.000000 0.318667
1.000000 0.000000 0.984221
1.000000 0.000000 1.000000
1.000000 0.000000 1.000000
1.000000 0.000000 1.000000
1.000000 1.000000 0.000000
1.000000 1.000000 0.000000
1.000000 1.000000 0.000000
1.000000 1.000000 0.000000
1.000000 1.000000 0.000000
1.000000 1.000000 0.857406
1.000000 0.973493 1.000000
1.000000 0.586070 1.000000
1.000000 0.000000 1.000000
1.000000 1.000000 0.000000
1.000000 1.000000 0.000000
1.000000 1.000000 0.000000
1.000000 1.000000 0.000000
1.000000 1.000000 0.000000
1.000000 1.000000 0.463031
1.000000 1.000000 1.000000
1.000000 1.000000 1.000000
1.000000 1.000000 1.000000
1.000000 1.000000 0.000000
1.000000 1.000000 0.000000
1.000000 1.000000 0.000000
1.000000 1.000000 0.000000
1.000000 1.000000 0.000000
1.000000 1.000000 0.000000
1.000000 1.000000 0.985522
1.000000 1.000000 1.000000
1.000000 1.000000 1.000000
