app/src/main/assets/luts/SLog2_to_Rec709.cube
TITLE "S-Log2 to Rec.709"
# Generated with colour-science (Sony published transfer functions). Free to use.
DOMAIN_MIN 0.0 0.0 0.0
DOMAIN_MAX 1.0 1.0 1.0
LUT_3D_SIZE 5
0.000000 0.000000 0.000000
0.000000 0.000000 0.294135
0.000000 0.000000 0.821071
0.000000 0.000000 1.000000
0.000000 0.000000 1.000000
0.000000 0.325953 0.000000
0.000000 0.294548 0.264686
0.000000 0.077645 0.811062
0.000000 0.000000 1.000000
0.000000 0.000000 1.000000
0.000000 0.883091 0.000000
0.000000 0.872243 0.060233
0.000000 0.821870 0.764612
0.000000 0.514750 1.000000
0.000000 0.000000 1.000000
0.000000 1.000000 0.000000
0.000000 1.000000 0.000000
0.000000 1.000000 0.483099
0.000000 1.000000 1.000000
0.000000 1.000000 1.000000
0.000000 1.000000 0.000000
0.000000 1.000000 0.000000
0.000000 1.000000 0.000000
0.000000 1.000000 1.000000
0.000000 1.000000 1.000000
0.407089 0.000000 0.000000
0.395273 0.000000 0.289134
0.337654 0.000000 0.819313
0.000000 0.000000 1.000000
0.000000 0.000000 1.000000
0.276439 0.294053 0.000000
0.259178 0.259178 0.259178
0.164967 0.000000 0.809281
0.000000 0.000000 1.000000
0.000000 0.000000 1.000000
0.000000 0.872079 0.000000
0.000000 0.861080 0.047380
0.000000 0.809944 0.762713
0.000000 0.494933 1.000000
0.000000 0.000000 1.000000
0.000000 1.000000 0.000000
0.000000 1.000000 0.000000
0.000000 1.000000 0.480018
0.000000 1.000000 1.000000
0.000000 1.000000 1.000000
0.000000 1.000000 0.000000
0.000000 1.000000 0.000000
0.000000 1.000000 0.000000
0.000000 1.000000 1.000000
0.000000 1.000000 1.000000
1.000000 0.000000 0.000000
1.000000 0.000000 0.265765
1.000000 0.000000 0.811414
0.922563 0.000000 1.000000
0.000000 0.000000 1.000000
1.000000 0.070634 0.000000
0.998585 0.000000 0.233198
0.978155 0.000000 0.801274
0.874367 0.000000 1.000000
0.000000 0.000000 1.000000
0.787024 0.820913 0.000000
0.781126 0.809150 0.000000
0.754168 0.754168 0.754168
0.609418 0.394333 1.000000
0.000000 0.000000 1.000000
0.000000 1.000000 0.000000
0.000000 1.000000 0.000000
0.000000 1.000000 0.466003
0.000000 1.000000 1.000000
0.000000 1.000000 1.000000
0.000000 1.000000 0.000000
0.000000 1.000000 0.000000
0.000000 1.000000 0.000000
0.000000 1.000000 1.000000
0.000000 1.000000 1.000000
1.000000 0.000000 0.000000
1.000000 0.000000 0.113295
1.000000 0.000000 0.772870
1.000000 0.000000 1.000000
1.000000 0.000000 1.000000
1.000000 0.000000 0.000000
1.000000 0.000000 0.043719
1.000000 0.000000 0.762171
1.000000 0.000000 1.000000
1.000000 0.000000 1.000000
1.000000 0.507054 0.000000
1.000000 0.487222 0.000000
1.000000 0.386331 0.712262
1.000000 0.000000 1.000000
1.000000 0.000000 1.000000
1.000000 1.000000 0.000000
1.000000 1.000000 0.000000
1.000000 1.000000 0.393026
1.000000 1.000000 1.000000
1.000000 0.987876 1.000000
0.000000 1.000000 0.000000
0.000000 1.000000 0.000000
0.000000 1.000000 0.000000
0.000000 1.000000 1.000000
0.000000 1.000000 1.000000
1.000000 0.000000 0.000000
1.000000 0.000000 0.000000
1.000000 0.000000 0.552221
1.000000 0.000000 1.000000
1.000000 0.000000 1.000000
1.000000 0.000000 0.000000
1.000000 0.000000 0.000000
1.000000 0.000000 0.536832
1.000000 0.000000 1.000000
1.000000 0.000000 1.000000
1.000000 0.000000 0.000000
1.000000 0.000000 0.000000
1.000000 0.000000 0.461693
1.000000 0.000000 1.000000
1.000000 0.000000 1.000000
1.000000 1.000000 0.000000
1.000000 1.000000 0.000000
1.000000 1.000000 0.000000
1.000000 0.973493 1.000000
1.000000 0.000000 1.000000
1.000000 1.000000 0.000000
1.000000 1.000000 0.000000
1.000000 1.000000 0.000000
1.000000 1.000000 0.985522
1.000000 1.000000 1.000000
