app/src/main/assets/luts/SLog3_to_Rec709.cube
TITLE "S-Log3 to Rec.709"
# Generated with colour-science (Sony published transfer functions). Free to use.
DOMAIN_MIN 0.0 0.0 0.0
DOMAIN_MAX 1.0 1.0 1.0
LUT_3D_SIZE 5
0.000000 0.000000 0.000000
0.000000 0.000000 0.177159
0.000000 0.000000 0.718738
0.000000 0.000000 1.000000
0.000000 0.000000 1.000000
0.000000 0.199238 0.000000
0.000000 0.168944 0.149982
0.000000 0.000000 0.711923
0.000000 0.000000 1.000000
0.000000 0.000000 1.000000
0.000000 0.770812 0.000000
0.000000 0.763086 0.000000
0.000000 0.699622 0.656128
0.000000 0.000000 1.000000
0.000000 0.000000 1.000000
0.000000 1.000000 0.000000
0.000000 1.000000 0.000000
0.000000 1.000000 0.000000
0.000000 1.000000 1.000000
0.000000 0.000000 1.000000
0.000000 1.000000 0.000000
0.000000 1.000000 0.000000
0.000000 1.000000 0.000000
0.000000 1.000000 0.000000
0.000000 1.000000 1.000000
0.222900 0.000000 0.000000
0.213338 0.000000 0.171287
0.121031 0.000000 0.717198
0.000000 0.000000 1.000000
0.000000 0.000000 1.000000
0.156161 0.177038 0.000000
0.143294 0.143294 0.143294
0.007657 0.000000 0.710367
0.000000 0.000000 1.000000
0.000000 0.000000 1.000000
0.000000 0.765059 0.000000
0.000000 0.757270 0.000000
0.000000 0.693232 0.654431
0.000000 0.000000 1.000000
0.000000 0.000000 1.000000
0.000000 1.000000 0.000000
0.000000 1.000000 0.000000
0.000000 1.000000 0.000000
0.000000 1.000000 1.000000
0.000000 0.000000 1.000000
0.000000 1.000000 0.000000
0.000000 1.000000 0.000000
0.000000 1.000000 0.000000
0.000000 1.000000 0.000000
0.000000 1.000000 1.000000
0.827591 0.000000 0.000000
0.825008 0.000000 0.118687
0.804538 0.000000 0.705058
0.571138 0.000000 1.000000
0.000000 0.000000 1.000000
0.811373 0.000000 0.000000
0.808733 0.000000 0.080216
0.787802 0.000000 0.698100
0.546756 0.000000 1.000000
0.000000 0.000000 1.000000
0.670199 0.718454 0.000000
0.666953 0.710112 0.000000
0.641020 0.641020 0.641020
0.293107 0.000000 1.000000
0.000000 0.000000 1.000000
0.000000 1.000000 0.000000
0.000000 1.000000 0.000000
0.000000 1.000000 0.000000
0.000000 1.000000 1.000000
0.000000 0.000000 1.000000
0.000000 1.000000 0.000000
0.000000 1.000000 0.000000
0.000000 1.000000 0.000000
0.000000 1.000000 0.000000
0.000000 1.000000 1.000000
1.000000 0.000000 0.000000
1.000000 0.000000 0.000000
1.000000 0.000000 0.576105
1.000000 0.000000 1.000000
1.000000 0.000000 1.000000
1.000000 0.000000 0.000000
1.000000 0.000000 0.000000
1.000000 0.000000 0.567467
1.000000 0.000000 1.000000
1.000000 0.000000 1.000000
1.000000 0.000000 0.000000
1.000000 0.000000 0.000000
1.000000 0.000000 0.494707
1.000000 0.000000 1.000000
1.000000 0.000000 1.000000
1.000000 1.000000 0.000000
1.000000 1.000000 0.000000
1.000000 1.000000 0.000000
1.000000 1.000000 1.000000
1.000000 0.000000 1.000000
0.000000 1.000000 0.000000
0.000000 1.000000 0.000000
0.000000 1.000000 0.000000
0.000000 1.000000 0.000000
0.000000 1.000000 1.000000
1.000000 0.000000 0.000000
1.000000 0.000000 0.000000
1.000000 0.000000 0.000000
1.000000 0.000000 1.000000
1.000000 0.000000 1.000000
1.000000 0.000000 0.000000
1.000000 0.000000 0.000000
1.000000 0.000000 0.000000
1.000000 0.000000 1.000000
1.000000 0.000000 1.000000
1.000000 0.000000 0.000000
1.000000 0.000000 0.000000
1.000000 0.000000 0.000000
1.000000 0.000000 1.000000
1.000000 0.000000 1.000000
1.000000 0.000000 0.000000
1.000000 0.000000 0.000000
1.000000 0.000000 0.000000
1.000000 0.000000 1.000000
1.000000 0.000000 1.000000
1.000000 1.000000 0.000000
1.000000 1.000000 0.000000
1.000000 1.000000 0.000000
1.000000 1.000000 0.000000
1.000000 1.000000 1.000000
