app/src/main/assets/luts/Soft_Matte.cube
TITLE "Soft Matte"
# Generated by editclips.online — free to use
DOMAIN_MIN 0.0 0.0 0.0
DOMAIN_MAX 1.0 1.0 1.0
LUT_3D_SIZE 9
0.100000 0.100000 0.100000
0.203642 0.102392 0.102392
0.307284 0.104784 0.104784
0.410925 0.107175 0.107175
0.514567 0.109567 0.109567
0.618209 0.111959 0.111959
0.721851 0.114350 0.114350
0.825492 0.116742 0.116742
0.929134 0.119134 0.119134
0.108046 0.209296 0.108046
0.211688 0.211688 0.110438
0.315330 0.214080 0.112829
0.418971 0.216471 0.115221
0.522613 0.218863 0.117613
0.626255 0.221255 0.120005
0.729897 0.223646 0.122396
0.833538 0.226038 0.124788
0.937180 0.228430 0.127180
0.116092 0.318592 0.116092
0.219734 0.320984 0.118484
0.323376 0.323376 0.120875
0.427017 0.325767 0.123267
0.530659 0.328159 0.125659
0.634301 0.330551 0.128051
0.737943 0.332942 0.130442
0.841584 0.335334 0.132834
0.945226 0.337726 0.135226
0.124138 0.427888 0.124138
0.227780 0.430280 0.126530
0.331422 0.432671 0.128921
0.435063 0.435063 0.131313
0.538705 0.437455 0.133705
0.642347 0.439847 0.136097
0.745988 0.442238 0.138489
0.849630 0.444630 0.140880
0.953272 0.447022 0.143272
0.132184 0.537184 0.132184
0.235826 0.539576 0.134576
0.339467 0.541968 0.136967
0.443109 0.544359 0.139359
0.546751 0.546751 0.141751
0.650393 0.549143 0.144143
0.754035 0.551534 0.146535
0.857676 0.553926 0.148926
0.961318 0.556318 0.151318
0.140230 0.646480 0.140230
0.243872 0.648872 0.142622
0.347514 0.651263 0.145013
0.451155 0.653655 0.147405
0.554797 0.656047 0.149797
0.658439 0.658439 0.152189
0.762080 0.660830 0.154580
0.865722 0.663222 0.156972
0.969364 0.665614 0.159364
0.148276 0.755776 0.148276
0.251918 0.758168 0.150668
0.355560 0.760560 0.153059
0.459201 0.762951 0.155451
0.562843 0.765343 0.157843
0.666485 0.767735 0.160235
0.770127 0.770127 0.162627
0.873768 0.772518 0.165018
0.977410 0.774910 0.167410
0.156322 0.865072 0.156322
0.259964 0.867464 0.158714
0.363606 0.869856 0.161105
0.467247 0.872247 0.163497
0.570889 0.874639 0.165889
0.674531 0.877031 0.168281
0.778173 0.879422 0.170672
0.881814 0.881814 0.173064
0.985456 0.884206 0.175456
0.164368 0.974368 0.164368
0.268010 0.976760 0.166760
0.371652 0.979151 0.169152
0.475293 0.981543 0.171543
0.578935 0.983935 0.173935
0.682577 0.986327 0.176327
0.786218 0.988719 0.178719
0.889860 0.991110 0.181110
0.993502 0.993502 0.183502
0.100812 0.100812 0.202062
0.204454 0.103204 0.204454
0.308096 0.105596 0.206846
0.411737 0.107988 0.209238
0.515379 0.110379 0.211629
0.619021 0.112771 0.214021
0.722663 0.115163 0.216413
0.826304 0.117555 0.218805
0.929946 0.119946 0.221196
0.108858 0.210108 0.210108
0.212500 0.212500 0.212500
0.316142 0.214892 0.214892
0.419783 0.217284 0.217284
0.523425 0.219675 0.219675
0.627067 0.222067 0.222067
0.730709 0.224459 0.224459
0.834350 0.226851 0.226851
0.937992 0.229242 0.229242
0.116904 0.319404 0.218154
0.220546 0.321796 0.220546
0.324188 0.324188 0.222938
0.427829 0.326580 0.225329
0.531471 0.328971 0.227721
0.635113 0.331363 0.230113
0.738755 0.333755 0.232505
0.842396 0.336147 0.234897
0.946038 0.338538 0.237288
0.124950 0.428700 0.226200
0.228592 0.431092 0.228592
0.332234 0.433484 0.230984
0.435875 0.435875 0.233376
0.539517 0.438267 0.235767
0.643159 0.440659 0.238159
0.746801 0.443051 0.240551
0.850442 0.445442 0.242943
0.954084 0.447834 0.245334
0.132996 0.537996 0.234246
0.236638 0.540388 0.236638
0.340280 0.542780 0.239030
0.443921 0.545172 0.241421
0.547563 0.547563 0.243813
0.651205 0.549955 0.246205
0.754847 0.552347 0.248597
0.858488 0.554739 0.250989
0.962130 0.557130 0.253380
0.141042 0.647292 0.242292
0.244684 0.649684 0.244684
0.348326 0.652076 0.247076
0.451967 0.654467 0.249467
0.555609 0.656859 0.251859
0.659251 0.659251 0.254251
0.762893 0.661643 0.256643
0.866534 0.664034 0.259035
0.970176 0.666426 0.261426
0.149088 0.756588 0.250338
0.252730 0.758980 0.252730
0.356372 0.761372 0.255122
0.460014 0.763764 0.257513
0.563655 0.766155 0.259905
0.667297 0.768547 0.262297
0.770939 0.770939 0.264689
0.874580 0.773330 0.267080
0.978222 0.775722 0.269472
0.157134 0.865884 0.258384
0.260776 0.868276 0.260776
0.364418 0.870668 0.263168
0.468059 0.873059 0.265560
0.571701 0.875451 0.267951
0.675343 0.877843 0.270343
0.778985 0.880235 0.272735
0.882626 0.882626 0.275127
0.986268 0.885018 0.277518
0.165180 0.975180 0.266430
0.268822 0.977572 0.268822
0.372464 0.979964 0.271214
0.476105 0.982356 0.273605
0.579747 0.984747 0.275997
0.683389 0.987139 0.278389
0.787031 0.989531 0.280781
0.890672 0.991923 0.283172
0.994314 0.994314 0.285564
0.101625 0.101625 0.304125
0.205266 0.104016 0.306516
0.308908 0.106408 0.308908
0.412550 0.108800 0.311300
0.516192 0.111192 0.313692
0.619833 0.113583 0.316083
0.723475 0.115975 0.318475
0.827117 0.118367 0.320867
0.930759 0.120759 0.323259
0.109671 0.210921 0.312171
0.213312 0.213312 0.314562
0.316954 0.215704 0.316954
0.420596 0.218096 0.319346
0.524238 0.220488 0.321738
0.627879 0.222879 0.324129
0.731521 0.225271 0.326521
0.835163 0.227663 0.328913
0.938804 0.230054 0.331305
0.117717 0.320217 0.320217
0.221358 0.322608 0.322608
0.325000 0.325000 0.325000
0.428642 0.327392 0.327392
0.532284 0.329784 0.329784
0.635925 0.332175 0.332175
0.739567 0.334567 0.334567
0.843209 0.336959 0.336959
0.946851 0.339350 0.339350
0.125763 0.429513 0.328263
0.229404 0.431904 0.330654
0.333046 0.434296 0.333046
0.436688 0.436688 0.335438
0.540330 0.439080 0.337830
0.643971 0.441471 0.340221
0.747613 0.443863 0.342613
0.851255 0.446255 0.345005
0.954897 0.448646 0.347396
0.133809 0.538809 0.336309
0.237450 0.541200 0.338700
0.341092 0.543592 0.341092
0.444734 0.545984 0.343484
0.548376 0.548376 0.345876
0.652017 0.550767 0.348267
0.755659 0.553159 0.350659
0.859301 0.555551 0.353051
0.962943 0.557943 0.355442
0.141854 0.648104 0.344355
0.245496 0.650496 0.346746
0.349138 0.652888 0.349138
0.452780 0.655280 0.351530
0.556422 0.657671 0.353921
0.660063 0.660063 0.356313
0.763705 0.662455 0.358705
0.867347 0.664847 0.361097
0.970989 0.667238 0.363488
0.149900 0.757401 0.352401
0.253542 0.759792 0.354792
0.357184 0.762184 0.357184
0.460826 0.764576 0.359576
0.564468 0.766968 0.361967
0.668109 0.769359 0.364359
0.771751 0.771751 0.366751
0.875393 0.774143 0.369143
0.979035 0.776534 0.371534
0.157947 0.866696 0.360447
0.261588 0.869088 0.362838
0.365230 0.871480 0.365230
0.468872 0.873872 0.367622
0.572514 0.876263 0.370013
0.676155 0.878655 0.372405
0.779797 0.881047 0.374797
0.883439 0.883439 0.377189
0.987081 0.885830 0.379580
0.165992 0.975993 0.368493
0.269634 0.978384 0.370884
0.373276 0.980776 0.373276
0.476918 0.983168 0.375668
0.580560 0.985560 0.378059
0.684201 0.987951 0.380451
0.787843 0.990343 0.382843
0.891485 0.992735 0.385235
0.995127 0.995127 0.387626
0.102437 0.102437 0.406187
0.206078 0.104829 0.408579
0.309720 0.107220 0.410970
0.413362 0.109612 0.413362
0.517004 0.112004 0.415754
0.620645 0.114396 0.418146
0.724287 0.116787 0.420537
0.827929 0.119179 0.422929
0.931571 0.121571 0.425321
0.110483 0.211733 0.414233
0.214124 0.214124 0.416625
0.317766 0.216516 0.419016
0.421408 0.218908 0.421408
0.525050 0.221300 0.423800
0.628691 0.223692 0.426192
0.732333 0.226083 0.428583
0.835975 0.228475 0.430975
0.939617 0.230867 0.433367
0.118529 0.321029 0.422279
0.222170 0.323420 0.424670
0.325812 0.325812 0.427062
0.429454 0.328204 0.429454
0.533096 0.330596 0.431846
0.636737 0.332987 0.434238
0.740379 0.335379 0.436629
0.844021 0.337771 0.439021
0.947663 0.340163 0.441413
0.126575 0.430325 0.430325
0.230217 0.432716 0.432716
0.333858 0.435108 0.435108
0.437500 0.437500 0.437500
0.541142 0.439892 0.439892
0.644784 0.442284 0.442284
0.748425 0.444675 0.444675
0.852067 0.447067 0.447067
0.955709 0.449459 0.449459
0.134621 0.539621 0.438371
0.238263 0.542013 0.440763
0.341904 0.544404 0.443154
0.445546 0.546796 0.445546
0.549188 0.549188 0.447938
0.652829 0.551580 0.450330
0.756471 0.553971 0.452721
0.860113 0.556363 0.455113
0.963755 0.558755 0.457505
0.142667 0.648917 0.446417
0.246308 0.651309 0.448809
0.349950 0.653700 0.451200
0.453592 0.656092 0.453592
0.557234 0.658484 0.455984
0.660875 0.660875 0.458375
0.764517 0.663267 0.460767
0.868159 0.665659 0.463159
0.971801 0.668051 0.465551
0.150713 0.758213 0.454463
0.254354 0.760605 0.456855
0.357996 0.762996 0.459246
0.461638 0.765388 0.461638
0.565280 0.767780 0.464030
0.668921 0.770172 0.466421
0.772563 0.772563 0.468813
0.876205 0.774955 0.471205
0.979847 0.777347 0.473597
0.158759 0.867509 0.462509
0.262400 0.869900 0.464901
0.366042 0.872292 0.467292
0.469684 0.874684 0.469684
0.573326 0.877076 0.472076
0.676967 0.879468 0.474468
0.780609 0.881859 0.476859
0.884251 0.884251 0.479251
0.987893 0.886643 0.481643
0.166805 0.976805 0.470555
0.270447 0.979197 0.472947
0.374088 0.981588 0.475338
0.477730 0.983980 0.477730
0.581372 0.986372 0.480122
0.685014 0.988764 0.482514
0.788655 0.991155 0.484905
0.892297 0.993547 0.487297
0.995939 0.995939 0.489689
0.103249 0.103249 0.508249
0.206891 0.105641 0.510641
0.310532 0.108033 0.513033
0.414174 0.110424 0.515424
0.517816 0.112816 0.517816
0.621458 0.115208 0.520208
0.725100 0.117599 0.522599
0.828741 0.119991 0.524991
0.932383 0.122383 0.527383
0.111295 0.212545 0.516295
0.214937 0.214937 0.518687
0.318578 0.217329 0.521079
0.422220 0.219720 0.523470
0.525862 0.222112 0.525862
0.629504 0.224504 0.528254
0.733146 0.226896 0.530645
0.836787 0.229287 0.533037
0.940429 0.231679 0.535429
0.119341 0.321841 0.524341
0.222983 0.324233 0.526733
0.326624 0.326624 0.529124
0.430266 0.329016 0.531516
0.533908 0.331408 0.533908
0.637550 0.333800 0.536300
0.741191 0.336191 0.538691
0.844833 0.338583 0.541083
0.948475 0.340975 0.543475
0.127387 0.431137 0.532387
0.231029 0.433529 0.534779
0.334670 0.435921 0.537170
0.438312 0.438312 0.539562
0.541954 0.440704 0.541954
0.645596 0.443096 0.544346
0.749238 0.445488 0.546737
0.852879 0.447879 0.549129
0.956521 0.450271 0.551521
0.135433 0.540433 0.540433
0.239075 0.542825 0.542825
0.342716 0.545216 0.545216
0.446358 0.547608 0.547608
0.550000 0.550000 0.550000
0.653642 0.552392 0.552392
0.757283 0.554783 0.554783
0.860925 0.557175 0.557175
0.964567 0.559567 0.559567
0.143479 0.649729 0.548479
0.247121 0.652121 0.550871
0.350762 0.654513 0.553262
0.454404 0.656904 0.555654
0.558046 0.659296 0.558046
0.661688 0.661688 0.560438
0.765329 0.664079 0.562829
0.868971 0.666471 0.565221
0.972613 0.668863 0.567613
0.151525 0.759025 0.556525
0.255167 0.761417 0.558917
0.358808 0.763809 0.561309
0.462450 0.766200 0.563700
0.566092 0.768592 0.566092
0.669734 0.770984 0.568484
0.773375 0.773375 0.570875
0.877017 0.775767 0.573267
0.980659 0.778159 0.575659
0.159571 0.868321 0.564571
0.263213 0.870713 0.566963
0.366854 0.873105 0.569354
0.470496 0.875496 0.571746
0.574138 0.877888 0.574138
0.677780 0.880280 0.576530
0.781421 0.882671 0.578922
0.885063 0.885063 0.581313
0.988705 0.887455 0.583705
0.167617 0.977617 0.572617
0.271259 0.980009 0.575009
0.374900 0.982401 0.577401
0.478542 0.984792 0.579792
0.582184 0.987184 0.582184
0.685826 0.989576 0.584576
0.789467 0.991968 0.586967
0.893109 0.994359 0.589359
0.996751 0.996751 0.591751
0.104061 0.104061 0.610311
0.207703 0.106453 0.612703
0.311345 0.108845 0.615095
0.414987 0.111237 0.617486
0.518628 0.113628 0.619878
0.622270 0.116020 0.622270
0.725912 0.118412 0.624662
0.829553 0.120804 0.627054
0.933195 0.123195 0.629445
0.112107 0.213357 0.618357
0.215749 0.215749 0.620749
0.319391 0.218141 0.623141
0.423033 0.220533 0.625533
0.526674 0.222924 0.627924
0.630316 0.225316 0.630316
0.733958 0.227708 0.632708
0.837600 0.230100 0.635099
0.941241 0.232491 0.637491
0.120153 0.322653 0.626403
0.223795 0.325045 0.628795
0.327437 0.327437 0.631187
0.431079 0.329829 0.633578
0.534720 0.332220 0.635970
0.638362 0.334612 0.638362
0.742004 0.337004 0.640754
0.845645 0.339395 0.643146
0.949287 0.341787 0.645537
0.128199 0.431949 0.634449
0.231841 0.434341 0.636841
0.335483 0.436733 0.639233
0.439125 0.439125 0.641625
0.542766 0.441516 0.644016
0.646408 0.443908 0.646408
0.750050 0.446300 0.648800
0.853691 0.448692 0.651191
0.957333 0.451083 0.653583
0.136245 0.541245 0.642495
0.239887 0.543637 0.644887
0.343529 0.546029 0.647279
0.447171 0.548420 0.649670
0.550812 0.550812 0.652062
0.654454 0.553204 0.654454
0.758096 0.555596 0.656846
0.861737 0.557987 0.659238
0.965379 0.560379 0.661629
0.144291 0.650541 0.650541
0.247933 0.652933 0.652933
0.351575 0.655325 0.655325
0.455217 0.657717 0.657717
0.558858 0.660108 0.660108
0.662500 0.662500 0.662500
0.766142 0.664892 0.664892
0.869784 0.667283 0.667283
0.973425 0.669675 0.669675
0.152337 0.759837 0.658587
0.255979 0.762229 0.660979
0.359621 0.764621 0.663371
0.463263 0.767012 0.665763
0.566904 0.769404 0.668154
0.670546 0.771796 0.670546
0.774188 0.774188 0.672938
0.877830 0.776579 0.675330
0.981471 0.778971 0.677721
0.160383 0.869133 0.666633
0.264025 0.871525 0.669025
0.367667 0.873917 0.671417
0.471309 0.876309 0.673808
0.574950 0.878700 0.676200
0.678592 0.881092 0.678592
0.782234 0.883484 0.680984
0.885875 0.885875 0.683375
0.989517 0.888267 0.685767
0.168429 0.978429 0.674679
0.272071 0.980821 0.677071
0.375713 0.983213 0.679463
0.479355 0.985604 0.681855
0.582996 0.987996 0.684246
0.686638 0.990388 0.686638
0.790280 0.992780 0.689030
0.893922 0.995171 0.691422
0.997563 0.997563 0.693813
0.104874 0.104874 0.712373
0.208515 0.107265 0.714765
0.312157 0.109657 0.717157
0.415799 0.112049 0.719549
0.519441 0.114441 0.721940
0.623082 0.116832 0.724332
0.726724 0.119224 0.726724
0.830366 0.121616 0.729116
0.934007 0.124008 0.731508
0.112920 0.214170 0.720419
0.216561 0.216561 0.722811
0.320203 0.218953 0.725203
0.423845 0.221345 0.727595
0.527486 0.223737 0.729986
0.631128 0.226128 0.732378
0.734770 0.228520 0.734770
0.838412 0.230912 0.737162
0.942053 0.233303 0.739553
0.120965 0.323465 0.728465
0.224607 0.325857 0.730857
0.328249 0.328249 0.733249
0.431891 0.330641 0.735641
0.535533 0.333033 0.738032
0.639174 0.335424 0.740424
0.742816 0.337816 0.742816
0.846458 0.340208 0.745208
0.950099 0.342600 0.747599
0.129012 0.432762 0.736512
0.232653 0.435153 0.738903
0.336295 0.437545 0.741295
0.439937 0.439937 0.743687
0.543578 0.442329 0.746078
0.647220 0.444720 0.748470
0.750862 0.447112 0.750862
0.854504 0.449504 0.753254
0.958145 0.451896 0.755645
0.137057 0.542058 0.744557
0.240699 0.544449 0.746949
0.344341 0.546841 0.749341
0.447983 0.549233 0.751733
0.551625 0.551625 0.754124
0.655266 0.554016 0.756516
0.758908 0.556408 0.758908
0.862550 0.558800 0.761300
0.966191 0.561191 0.763692
0.145103 0.651354 0.752603
0.248745 0.653745 0.754995
0.352387 0.656137 0.757387
0.456029 0.658529 0.759779
0.559671 0.660921 0.762170
0.663312 0.663312 0.764562
0.766954 0.665704 0.766954
0.870596 0.668096 0.769346
0.974237 0.670488 0.771737
0.153149 0.760649 0.760649
0.256791 0.763041 0.763041
0.360433 0.765433 0.765433
0.464075 0.767825 0.767825
0.567716 0.770217 0.770217
0.671358 0.772608 0.772608
0.775000 0.775000 0.775000
0.878642 0.777392 0.777392
0.982284 0.779783 0.779783
0.161196 0.869946 0.768695
0.264837 0.872337 0.771087
0.368479 0.874729 0.773479
0.472121 0.877121 0.775871
0.575763 0.879513 0.778262
0.679404 0.881904 0.780654
0.783046 0.884296 0.783046
0.886688 0.886688 0.785438
0.990329 0.889079 0.787829
0.169241 0.979241 0.776741
0.272883 0.981633 0.779133
0.376525 0.984025 0.781525
0.480167 0.986417 0.783917
0.583808 0.988808 0.786308
0.687450 0.991200 0.788700
0.791092 0.993592 0.791092
0.894734 0.995984 0.793484
0.998375 0.998375 0.795875
0.105686 0.105686 0.814436
0.209327 0.108078 0.816828
0.312969 0.110469 0.819219
0.416611 0.112861 0.821611
0.520253 0.115253 0.824003
0.623895 0.117644 0.826394
0.727536 0.120036 0.828786
0.831178 0.122428 0.831178
0.934820 0.124820 0.833570
0.113732 0.214982 0.822482
0.217373 0.217373 0.824874
0.321015 0.219765 0.827265
0.424657 0.222157 0.829657
0.528299 0.224549 0.832049
0.631941 0.226941 0.834441
0.735582 0.229332 0.836832
0.839224 0.231724 0.839224
0.942866 0.234116 0.841616
0.121778 0.324278 0.830528
0.225419 0.326670 0.832920
0.329061 0.329061 0.835311
0.432703 0.331453 0.837703
0.536345 0.333845 0.840095
0.639987 0.336236 0.842487
0.743628 0.338628 0.844878
0.847270 0.341020 0.847270
0.950912 0.343412 0.849662
0.129824 0.433574 0.838574
0.233465 0.435966 0.840966
0.337107 0.438357 0.843357
0.440749 0.440749 0.845749
0.544391 0.443141 0.848141
0.648032 0.445532 0.850533
0.751674 0.447924 0.852924
0.855316 0.450316 0.855316
0.958958 0.452708 0.857708
0.137870 0.542870 0.846620
0.241512 0.545261 0.849012
0.345153 0.547653 0.851403
0.448795 0.550045 0.853795
0.552437 0.552437 0.856187
0.656079 0.554828 0.858579
0.759720 0.557220 0.860970
0.863362 0.559612 0.863362
0.967004 0.562004 0.865754
0.145916 0.652166 0.854666
0.249557 0.654558 0.857058
0.353199 0.656949 0.859449
0.456841 0.659341 0.861841
0.560483 0.661733 0.864233
0.664124 0.664124 0.866625
0.767766 0.666516 0.869016
0.871408 0.668908 0.871408
0.975050 0.671300 0.873800
0.153962 0.761462 0.862712
0.257603 0.763853 0.865103
0.361245 0.766245 0.867495
0.464887 0.768637 0.869887
0.568529 0.771029 0.872279
0.672171 0.773421 0.874671
0.775812 0.775812 0.877062
0.879454 0.778204 0.879454
0.983096 0.780596 0.881846
0.162008 0.870758 0.870758
0.265649 0.873150 0.873150
0.369291 0.875541 0.875541
0.472933 0.877933 0.877933
0.576575 0.880325 0.880325
0.680217 0.882717 0.882717
0.783858 0.885108 0.885108
0.887500 0.887500 0.887500
0.991142 0.889892 0.889892
0.170054 0.980054 0.878804
0.273696 0.982445 0.881195
0.377337 0.984837 0.883587
0.480979 0.987229 0.885979
0.584621 0.989621 0.888371
0.688262 0.992013 0.890763
0.791904 0.994404 0.893154
0.895546 0.996796 0.895546
0.999188 0.999188 0.897938
0.106498 0.106498 0.916498
0.210140 0.108890 0.918890
0.313782 0.111282 0.921281
0.417423 0.113673 0.923673
0.521065 0.116065 0.926065
0.624707 0.118457 0.928457
0.728349 0.120848 0.930848
0.831990 0.123240 0.933240
0.935632 0.125632 0.935632
0.114544 0.215794 0.924544
0.218186 0.218186 0.926936
0.321828 0.220578 0.929328
0.425469 0.222969 0.931719
0.529111 0.225361 0.934111
0.632753 0.227753 0.936503
0.736394 0.230145 0.938894
0.840036 0.232536 0.941286
0.943678 0.234928 0.943678
0.122590 0.325090 0.932590
0.226232 0.327482 0.934982
0.329874 0.329874 0.937373
0.433515 0.332265 0.939765
0.537157 0.334657 0.942157
0.640799 0.337049 0.944549
0.744441 0.339440 0.946940
0.848082 0.341832 0.949332
0.951724 0.344224 0.951724
0.130636 0.434386 0.940636
0.234278 0.436778 0.943028
0.337920 0.439169 0.945419
0.441561 0.441561 0.947811
0.545203 0.443953 0.950203
0.648845 0.446345 0.952595
0.752486 0.448736 0.954987
0.856128 0.451128 0.957378
0.959770 0.453520 0.959770
0.138682 0.543682 0.948682
0.242324 0.546074 0.951074
0.345965 0.548466 0.953465
0.449607 0.550857 0.955857
0.553249 0.553249 0.958249
0.656891 0.555641 0.960641
0.760533 0.558032 0.963033
0.864174 0.560424 0.965424
0.967816 0.562816 0.967816
0.146728 0.652978 0.956728
0.250370 0.655370 0.959120
0.354012 0.657761 0.961512
0.457653 0.660153 0.963903
0.561295 0.662545 0.966295
0.664937 0.664937 0.968687
0.768578 0.667328 0.971078
0.872220 0.669720 0.973470
0.975862 0.672112 0.975862
0.154774 0.762274 0.964774
0.258416 0.764666 0.967166
0.362058 0.767058 0.969557
0.465699 0.769449 0.971949
0.569341 0.771841 0.974341
0.672983 0.774233 0.976733
0.776625 0.776625 0.979125
0.880266 0.779016 0.981516
0.983908 0.781408 0.983908
0.162820 0.871570 0.972820
0.266462 0.873962 0.975212
0.370104 0.876354 0.977603
0.473745 0.878745 0.979995
0.577387 0.881137 0.982387
0.681029 0.883529 0.984779
0.784671 0.885920 0.987170
0.888312 0.888312 0.989562
0.991954 0.890704 0.991954
0.170866 0.980866 0.980866
0.274508 0.983258 0.983258
0.378150 0.985649 0.985649
0.481791 0.988041 0.988041
0.585433 0.990433 0.990433
0.689075 0.992825 0.992825
0.792716 0.995217 0.995217
0.896358 0.997608 0.997608
1.000000 1.000000 1.000000
