app/src/main/assets/luts/Soft_Matte.cube
TITLE "Soft Matte"
# Generated by editclips.online — free to use
DOMAIN_MIN 0.0 0.0 0.0
DOMAIN_MAX 1.0 1.0 1.0
LUT_3D_SIZE 5
0.100000 0.100000 0.100000
0.307284 0.104784 0.104784
0.514567 0.109567 0.109567
0.721851 0.114350 0.114350
0.929134 0.119134 0.119134
0.116092 0.318592 0.116092
0.323376 0.323376 0.120875
0.530659 0.328159 0.125659
0.737943 0.332942 0.130442
0.945226 0.337726 0.135226
0.132184 0.537184 0.132184
0.339467 0.541968 0.136967
0.546751 0.546751 0.141751
0.754035 0.551534 0.146535
0.961318 0.556318 0.151318
0.148276 0.755776 0.148276
0.355560 0.760560 0.153059
0.562843 0.765343 0.157843
0.770127 0.770127 0.162627
0.977410 0.774910 0.167410
0.164368 0.974368 0.164368
0.371652 0.979151 0.169152
0.578935 0.983935 0.173935
0.786218 0.988719 0.178719
0.993502 0.993502 0.183502
0.101625 0.101625 0.304125
0.308908 0.106408 0.308908
0.516192 0.111192 0.313692
0.723475 0.115975 0.318475
0.930759 0.120759 0.323259
0.117717 0.320217 0.320217
0.325000 0.325000 0.325000
0.532284 0.329784 0.329784
0.739567 0.334567 0.334567
0.946851 0.339350 0.339350
0.133809 0.538809 0.336309
0.341092 0.543592 0.341092
0.548376 0.548376 0.345876
0.755659 0.553159 0.350659
0.962943 0.557943 0.355442
0.149900 0.757401 0.352401
0.357184 0.762184 0.357184
0.564468 0.766968 0.361967
0.771751 0.771751 0.366751
0.979035 0.776534 0.371534
0.165992 0.975993 0.368493
0.373276 0.980776 0.373276
0.580560 0.985560 0.378059
0.787843 0.990343 0.382843
0.995127 0.995127 0.387626
0.103249 0.103249 0.508249
0.310532 0.108033 0.513033
0.517816 0.112816 0.517816
0.725100 0.117599 0.522599
0.932383 0.122383 0.527383
0.119341 0.321841 0.524341
0.326624 0.326624 0.529124
0.533908 0.331408 0.533908
0.741191 0.336191 0.538691
0.948475 0.340975 0.543475
0.135433 0.540433 0.540433
0.342716 0.545216 0.545216
0.550000 0.550000 0.550000
0.757283 0.554783 0.554783
0.964567 0.559567 0.559567
0.151525 0.759025 0.556525
0.358808 0.763809 0.561309
0.566092 0.768592 0.566092
0.773375 0.773375 0.570875
0.980659 0.778159 0.575659
0.167617 0.977617 0.572617
0.374900 0.982401 0.577401
0.582184 0.987184 0.582184
0.789467 0.991968 0.586967
0.996751 0.996751 0.591751
0.104874 0.104874 0.712373
0.312157 0.109657 0.717157
0.519441 0.114441 0.721940
0.726724 0.119224 0.726724
0.934007 0.124008 0.731508
0.120965 0.323465 0.728465
0.328249 0.328249 0.733249
0.535533 0.333033 0.738032
0.742816 0.337816 0.742816
0.950099 0.342600 0.747599
0.137057 0.542058 0.744557
0.344341 0.546841 0.749341
0.551625 0.551625 0.754124
0.758908 0.556408 0.758908
0.966191 0.561191 0.763692
0.153149 0.760649 0.760649
0.360433 0.765433 0.765433
0.567716 0.770217 0.770217
0.775000 0.775000 0.775000
0.982284 0.779783 0.779783
0.169241 0.979241 0.776741
0.376525 0.984025 0.781525
0.583808 0.988808 0.786308
0.791092 0.993592 0.791092
0.998375 0.998375 0.795875
0.106498 0.106498 0.916498
0.313782 0.111282 0.921281
0.521065 0.116065 0.926065
0.728349 0.120848 0.930848
0.935632 0.125632 0.935632
0.122590 0.325090 0.932590
0.329874 0.329874 0.937373
0.537157 0.334657 0.942157
0.744441 0.339440 0.946940
0.951724 0.344224 0.951724
0.138682 0.543682 0.948682
0.345965 0.548466 0.953465
0.553249 0.553249 0.958249
0.760533 0.558032 0.963033
0.967816 0.562816 0.967816
0.154774 0.762274 0.964774
0.362058 0.767058 0.969557
0.569341 0.771841 0.974341
0.776625 0.776625 0.979125
0.983908 0.781408 0.983908
0.170866 0.980866 0.980866
0.378150 0.985649 0.985649
0.585433 0.990433 0.990433
0.792716 0.995217 0.995217
1.000000 1.000000 1.000000
