app/src/main/assets/luts/Soft_Matte.cube
TITLE "Soft Matte"
# Generated by editclips.online — free to use
DOMAIN_MIN 0.0 0.0 0.0
DOMAIN_MAX 1.0 1.0 1.0
LUT_3D_SIZE 33
0.100000 0.100000 0.100000
0.125910 0.100598 0.100598
0.151821 0.101196 0.101196
0.177731 0.101794 0.101794
0.203642 0.102392 0.102392
0.229552 0.102990 0.102990
0.255463 0.103588 0.103588
0.281373 0.104186 0.104186
0.307284 0.104784 0.104784
0.333194 0.105381 0.105381
0.359104 0.105979 0.105979
0.385015 0.106577 0.106577
0.410925 0.107175 0.107175
0.436836 0.107773 0.107773
0.462746 0.108371 0.108371
0.488657 0.108969 0.108969
0.514567 0.109567 0.109567
0.540477 0.110165 0.110165
0.566388 0.110763 0.110763
0.592298 0.111361 0.111361
0.618209 0.111959 0.111959
0.644119 0.112557 0.112557
0.670030 0.113155 0.113155
0.695940 0.113753 0.113753
0.721851 0.114350 0.114350
0.747761 0.114948 0.114948
0.773671 0.115546 0.115546
0.799582 0.116144 0.116144
0.825492 0.116742 0.116742
0.851403 0.117340 0.117340
0.877313 0.117938 0.117938
0.903224 0.118536 0.118536
0.929134 0.119134 0.119134
0.102012 0.127324 0.102012
0.127922 0.127922 0.102609
0.153832 0.128520 0.103207
0.179743 0.129118 0.103805
0.205653 0.129716 0.104403
0.231564 0.130314 0.105001
0.257474 0.130912 0.105599
0.283385 0.131510 0.106197
0.309295 0.132107 0.106795
0.335205 0.132705 0.107393
0.361116 0.133303 0.107991
0.387026 0.133901 0.108589
0.412937 0.134499 0.109187
0.438847 0.135097 0.109785
0.464758 0.135695 0.110383
0.490668 0.136293 0.110981
0.516578 0.136891 0.111579
0.542489 0.137489 0.112176
0.568399 0.138087 0.112774
0.594310 0.138685 0.113372
0.620220 0.139283 0.113970
0.646131 0.139881 0.114568
0.672041 0.140479 0.115166
0.697952 0.141077 0.115764
0.723862 0.141674 0.116362
0.749772 0.142272 0.116960
0.775683 0.142870 0.117558
0.801593 0.143468 0.118156
0.827504 0.144066 0.118754
0.853414 0.144664 0.119352
0.879325 0.145262 0.119950
0.905235 0.145860 0.120548
0.931146 0.146458 0.121145
0.104023 0.154648 0.104023
0.129933 0.155246 0.104621
0.155844 0.155844 0.105219
0.181754 0.156442 0.105817
0.207665 0.157040 0.106415
0.233575 0.157638 0.107013
0.259486 0.158236 0.107611
0.285396 0.158834 0.108209
0.311307 0.159432 0.108807
0.337217 0.160029 0.109404
0.363127 0.160627 0.110002
0.389038 0.161225 0.110600
0.414948 0.161823 0.111198
0.440859 0.162421 0.111796
0.466769 0.163019 0.112394
0.492680 0.163617 0.112992
0.518590 0.164215 0.113590
0.544500 0.164813 0.114188
0.570411 0.165411 0.114786
0.596321 0.166009 0.115384
0.622232 0.166607 0.115982
0.648142 0.167205 0.116580
0.674053 0.167803 0.117178
0.699963 0.168401 0.117776
0.725873 0.168998 0.118373
0.751784 0.169596 0.118971
0.777694 0.170194 0.119569
0.803605 0.170792 0.120167
0.829515 0.171390 0.120765
0.855426 0.171988 0.121363
0.881336 0.172586 0.121961
0.907247 0.173184 0.122559
0.933157 0.173782 0.123157
0.106035 0.181972 0.106035
0.131945 0.182570 0.106632
0.157855 0.183168 0.107230
0.183766 0.183766 0.107828
0.209676 0.184364 0.108426
0.235587 0.184962 0.109024
0.261497 0.185560 0.109622
0.287408 0.186158 0.110220
0.313318 0.186756 0.110818
0.339228 0.187353 0.111416
0.365139 0.187951 0.112014
0.391049 0.188549 0.112612
0.416960 0.189147 0.113210
0.442870 0.189745 0.113808
0.468781 0.190343 0.114406
0.494691 0.190941 0.115004
0.520602 0.191539 0.115601
0.546512 0.192137 0.116199
0.572422 0.192735 0.116797
0.598333 0.193333 0.117395
0.624243 0.193931 0.117993
0.650154 0.194529 0.118591
0.676064 0.195127 0.119189
0.701975 0.195725 0.119787
0.727885 0.196323 0.120385
0.753795 0.196920 0.120983
0.779706 0.197518 0.121581
0.805616 0.198116 0.122179
0.831527 0.198714 0.122777
0.857437 0.199312 0.123375
0.883348 0.199910 0.123973
0.909258 0.200508 0.124571
0.935169 0.201106 0.125169
0.108046 0.209296 0.108046
0.133956 0.209894 0.108644
0.159867 0.210492 0.109242
0.185777 0.211090 0.109840
0.211688 0.211688 0.110438
0.237598 0.212286 0.111036
0.263509 0.212884 0.111634
0.289419 0.213482 0.112232
0.315330 0.214080 0.112829
0.341240 0.214677 0.113427
0.367150 0.215275 0.114025
0.393061 0.215873 0.114623
0.418971 0.216471 0.115221
0.444882 0.217069 0.115819
0.470792 0.217667 0.116417
0.496703 0.218265 0.117015
0.522613 0.218863 0.117613
0.548523 0.219461 0.118211
0.574434 0.220059 0.118809
0.600344 0.220657 0.119407
0.626255 0.221255 0.120005
0.652165 0.221853 0.120603
0.678076 0.222451 0.121201
0.703986 0.223049 0.121799
0.729897 0.223646 0.122396
0.755807 0.224244 0.122994
0.781717 0.224842 0.123592
0.807628 0.225440 0.124190
0.833538 0.226038 0.124788
0.859449 0.226636 0.125386
0.885359 0.227234 0.125984
0.911270 0.227832 0.126582
0.937180 0.228430 0.127180
0.110058 0.236620 0.110058
0.135968 0.237218 0.110655
0.161878 0.237816 0.111253
0.187789 0.238414 0.111851
0.213699 0.239012 0.112449
0.239610 0.239610 0.113047
0.265520 0.240208 0.113645
0.291431 0.240806 0.114243
0.317341 0.241404 0.114841
0.343251 0.242001 0.115439
0.369162 0.242599 0.116037
0.395072 0.243197 0.116635
0.420983 0.243795 0.117233
0.446893 0.244393 0.117831
0.472804 0.244991 0.118429
0.498714 0.245589 0.119027
0.524625 0.246187 0.119624
0.550535 0.246785 0.120222
0.576445 0.247383 0.120820
0.602356 0.247981 0.121418
0.628266 0.248579 0.122016
0.654177 0.249177 0.122614
0.680087 0.249775 0.123212
0.705998 0.250373 0.123810
0.731908 0.250970 0.124408
0.757818 0.251568 0.125006
0.783729 0.252166 0.125604
0.809639 0.252764 0.126202
0.835550 0.253362 0.126800
0.861460 0.253960 0.127398
0.887371 0.254558 0.127996
0.913281 0.255156 0.128594
0.939191 0.255754 0.129191
0.112069 0.263944 0.112069
0.137979 0.264542 0.112667
0.163890 0.265140 0.113265
0.189800 0.265738 0.113863
0.215711 0.266336 0.114461
0.241621 0.266934 0.115059
0.267532 0.267532 0.115657
0.293442 0.268130 0.116255
0.319353 0.268728 0.116852
0.345263 0.269325 0.117450
0.371173 0.269923 0.118048
0.397084 0.270521 0.118646
0.422994 0.271119 0.119244
0.448905 0.271717 0.119842
0.474815 0.272315 0.120440
0.500726 0.272913 0.121038
0.526636 0.273511 0.121636
0.552546 0.274109 0.122234
0.578457 0.274707 0.122832
0.604367 0.275305 0.123430
0.630278 0.275903 0.124028
0.656188 0.276501 0.124626
0.682099 0.277099 0.125224
0.708009 0.277697 0.125822
0.733920 0.278295 0.126419
0.759830 0.278892 0.127017
0.785740 0.279490 0.127615
0.811651 0.280088 0.128213
0.837561 0.280686 0.128811
0.863472 0.281284 0.129409
0.889382 0.281882 0.130007
0.915293 0.282480 0.130605
0.941203 0.283078 0.131203
0.114081 0.291268 0.114081
0.139991 0.291866 0.114678
0.165901 0.292464 0.115276
0.191812 0.293062 0.115874
0.217722 0.293660 0.116472
0.243633 0.294258 0.117070
0.269543 0.294856 0.117668
0.295454 0.295454 0.118266
0.321364 0.296052 0.118864
0.347274 0.296649 0.119462
0.373185 0.297247 0.120060
0.399095 0.297845 0.120658
0.425006 0.298443 0.121256
0.450916 0.299041 0.121854
0.476827 0.299639 0.122452
0.502737 0.300237 0.123050
0.528648 0.300835 0.123647
0.554558 0.301433 0.124245
0.580468 0.302031 0.124843
0.606379 0.302629 0.125441
0.632289 0.303227 0.126039
0.658200 0.303825 0.126637
0.684110 0.304423 0.127235
0.710021 0.305021 0.127833
0.735931 0.305619 0.128431
0.761841 0.306216 0.129029
0.787752 0.306814 0.129627
0.813662 0.307412 0.130225
0.839573 0.308010 0.130823
0.865483 0.308608 0.131421
0.891394 0.309206 0.132019
0.917304 0.309804 0.132617
0.943214 0.310402 0.133214
0.116092 0.318592 0.116092
0.142002 0.319190 0.116690
0.167913 0.319788 0.117288
0.193823 0.320386 0.117886
0.219734 0.320984 0.118484
0.245644 0.321582 0.119082
0.271555 0.322180 0.119680
0.297465 0.322778 0.120278
0.323376 0.323376 0.120875
0.349286 0.323973 0.121473
0.375196 0.324571 0.122071
0.401107 0.325169 0.122669
0.427017 0.325767 0.123267
0.452928 0.326365 0.123865
0.478838 0.326963 0.124463
0.504749 0.327561 0.125061
0.530659 0.328159 0.125659
0.556569 0.328757 0.126257
0.582480 0.329355 0.126855
0.608390 0.329953 0.127453
0.634301 0.330551 0.128051
0.660211 0.331149 0.128649
0.686122 0.331747 0.129247
0.712032 0.332345 0.129845
0.737943 0.332942 0.130442
0.763853 0.333540 0.131040
0.789763 0.334138 0.131638
0.815674 0.334736 0.132236
0.841584 0.335334 0.132834
0.867495 0.335932 0.133432
0.893405 0.336530 0.134030
0.919316 0.337128 0.134628
0.945226 0.337726 0.135226
0.118104 0.345916 0.118104
0.144014 0.346514 0.118701
0.169924 0.347112 0.119299
0.195835 0.347710 0.119897
0.221745 0.348308 0.120495
0.247656 0.348906 0.121093
0.273566 0.349504 0.121691
0.299477 0.350102 0.122289
0.325387 0.350700 0.122887
0.351297 0.351297 0.123485
0.377208 0.351895 0.124083
0.403118 0.352493 0.124681
0.429029 0.353091 0.125279
0.454939 0.353689 0.125877
0.480850 0.354287 0.126475
0.506760 0.354885 0.127073
0.532671 0.355483 0.127670
0.558581 0.356081 0.128268
0.584491 0.356679 0.128866
0.610402 0.357277 0.129464
0.636312 0.357875 0.130062
0.662223 0.358473 0.130660
0.688133 0.359071 0.131258
0.714044 0.359669 0.131856
0.739954 0.360267 0.132454
0.765864 0.360864 0.133052
0.791775 0.361462 0.133650
0.817685 0.362060 0.134248
0.843596 0.362658 0.134846
0.869506 0.363256 0.135444
0.895417 0.363854 0.136042
0.921327 0.364452 0.136640
0.947238 0.365050 0.137238
0.120115 0.373240 0.120115
0.146025 0.373838 0.120713
0.171936 0.374436 0.121311
0.197846 0.375034 0.121909
0.223757 0.375632 0.122507
0.249667 0.376230 0.123105
0.275578 0.376828 0.123703
0.301488 0.377426 0.124301
0.327398 0.378023 0.124898
0.353309 0.378621 0.125496
0.379219 0.379219 0.126094
0.405130 0.379817 0.126692
0.431040 0.380415 0.127290
0.456951 0.381013 0.127888
0.482861 0.381611 0.128486
0.508772 0.382209 0.129084
0.534682 0.382807 0.129682
0.560592 0.383405 0.130280
0.586503 0.384003 0.130878
0.612413 0.384601 0.131476
0.638324 0.385199 0.132074
0.664234 0.385797 0.132672
0.690145 0.386395 0.133270
0.716055 0.386993 0.133868
0.741966 0.387590 0.134465
0.767876 0.388188 0.135063
0.793786 0.388786 0.135661
0.819697 0.389384 0.136259
0.845607 0.389982 0.136857
0.871518 0.390580 0.137455
0.897428 0.391178 0.138053
0.923339 0.391776 0.138651
0.949249 0.392374 0.139249
0.122126 0.400564 0.122126
0.148037 0.401162 0.122724
0.173947 0.401760 0.123322
0.199858 0.402358 0.123920
0.225768 0.402956 0.124518
0.251679 0.403554 0.125116
0.277589 0.404152 0.125714
0.303500 0.404750 0.126312
0.329410 0.405347 0.126910
0.355320 0.405945 0.127508
0.381231 0.406543 0.128106
0.407141 0.407141 0.128704
0.433052 0.407739 0.129302
0.458962 0.408337 0.129900
0.484873 0.408935 0.130498
0.510783 0.409533 0.131096
0.536694 0.410131 0.131694
0.562604 0.410729 0.132291
0.588514 0.411327 0.132889
0.614425 0.411925 0.133487
0.640335 0.412523 0.134085
0.666246 0.413121 0.134683
0.692156 0.413719 0.135281
0.718067 0.414317 0.135879
0.743977 0.414915 0.136477
0.769887 0.415512 0.137075
0.795798 0.416110 0.137673
0.821708 0.416708 0.138271
0.847619 0.417306 0.138869
0.873529 0.417904 0.139467
0.899440 0.418502 0.140065
0.925350 0.419100 0.140663
0.951261 0.419698 0.141260
0.124138 0.427888 0.124138
0.150048 0.428486 0.124736
0.175959 0.429084 0.125334
0.201869 0.429682 0.125932
0.227780 0.430280 0.126530
0.253690 0.430878 0.127128
0.279601 0.431476 0.127726
0.305511 0.432074 0.128324
0.331422 0.432671 0.128921
0.357332 0.433269 0.129519
0.383242 0.433867 0.130117
0.409153 0.434465 0.130715
0.435063 0.435063 0.131313
0.460974 0.435661 0.131911
0.486884 0.436259 0.132509
0.512795 0.436857 0.133107
0.538705 0.437455 0.133705
0.564615 0.438053 0.134303
0.590526 0.438651 0.134901
0.616436 0.439249 0.135499
0.642347 0.439847 0.136097
0.668257 0.440445 0.136695
0.694168 0.441043 0.137293
0.720078 0.441641 0.137891
0.745988 0.442238 0.138489
0.771899 0.442836 0.139086
0.797809 0.443434 0.139684
0.823720 0.444032 0.140282
0.849630 0.444630 0.140880
0.875541 0.445228 0.141478
0.901451 0.445826 0.142076
0.927362 0.446424 0.142674
0.953272 0.447022 0.143272
0.126149 0.455212 0.126149
0.152060 0.455810 0.126747
0.177970 0.456408 0.127345
0.203881 0.457006 0.127943
0.229791 0.457604 0.128541
0.255702 0.458202 0.129139
0.281612 0.458800 0.129737
0.307523 0.459398 0.130335
0.333433 0.459996 0.130933
0.359343 0.460593 0.131531
0.385254 0.461191 0.132129
0.411164 0.461789 0.132727
0.437075 0.462387 0.133325
0.462985 0.462985 0.133923
0.488896 0.463583 0.134521
0.514806 0.464181 0.135119
0.540717 0.464779 0.135716
0.566627 0.465377 0.136314
0.592537 0.465975 0.136912
0.618448 0.466573 0.137510
0.644358 0.467171 0.138108
0.670269 0.467769 0.138706
0.696179 0.468367 0.139304
0.722090 0.468965 0.139902
0.748000 0.469562 0.140500
0.773910 0.470160 0.141098
0.799821 0.470758 0.141696
0.825731 0.471356 0.142294
0.851642 0.471954 0.142892
0.877552 0.472552 0.143490
0.903463 0.473150 0.144088
0.929373 0.473748 0.144686
0.955284 0.474346 0.145284
0.128161 0.482536 0.128161
0.154071 0.483134 0.128759
0.179982 0.483732 0.129357
0.205892 0.484330 0.129955
0.231803 0.484928 0.130553
0.257713 0.485526 0.131151
0.283624 0.486124 0.131749
0.309534 0.486722 0.132347
0.335444 0.487320 0.132945
0.361355 0.487917 0.133542
0.387265 0.488515 0.134140
0.413176 0.489113 0.134738
0.439086 0.489711 0.135336
0.464997 0.490309 0.135934
0.490907 0.490907 0.136532
0.516818 0.491505 0.137130
0.542728 0.492103 0.137728
0.568638 0.492701 0.138326
0.594549 0.493299 0.138924
0.620459 0.493897 0.139522
0.646370 0.494495 0.140120
0.672280 0.495093 0.140718
0.698191 0.495691 0.141316
0.724101 0.496289 0.141914
0.750011 0.496887 0.142511
0.775922 0.497484 0.143109
0.801832 0.498082 0.143707
0.827743 0.498680 0.144305
0.853653 0.499278 0.144903
0.879564 0.499876 0.145501
0.905474 0.500474 0.146099
0.931385 0.501072 0.146697
0.957295 0.501670 0.147295
0.130172 0.509860 0.130172
0.156083 0.510458 0.130770
0.181993 0.511056 0.131368
0.207904 0.511654 0.131966
0.233814 0.512252 0.132564
0.259725 0.512850 0.133162
0.285635 0.513448 0.133760
0.311546 0.514046 0.134358
0.337456 0.514644 0.134956
0.363366 0.515241 0.135554
0.389277 0.515839 0.136152
0.415187 0.516437 0.136750
0.441098 0.517035 0.137348
0.467008 0.517633 0.137946
0.492919 0.518231 0.138544
0.518829 0.518829 0.139142
0.544740 0.519427 0.139740
0.570650 0.520025 0.140337
0.596560 0.520623 0.140935
0.622471 0.521221 0.141533
0.648381 0.521819 0.142131
0.674292 0.522417 0.142729
0.700202 0.523015 0.143327
0.726113 0.523613 0.143925
0.752023 0.524211 0.144523
0.777933 0.524808 0.145121
0.803844 0.525406 0.145719
0.829754 0.526004 0.146317
0.855665 0.526602 0.146915
0.881575 0.527200 0.147513
0.907486 0.527798 0.148111
0.933396 0.528396 0.148709
0.959306 0.528994 0.149306
0.132184 0.537184 0.132184
0.158094 0.537782 0.132782
0.184005 0.538380 0.133380
0.209915 0.538978 0.133978
0.235826 0.539576 0.134576
0.261736 0.540174 0.135174
0.287647 0.540772 0.135772
0.313557 0.541370 0.136370
0.339467 0.541968 0.136967
0.365378 0.542565 0.137565
0.391288 0.543163 0.138163
0.417199 0.543761 0.138761
0.443109 0.544359 0.139359
0.469020 0.544957 0.139957
0.494930 0.545555 0.140555
0.520841 0.546153 0.141153
0.546751 0.546751 0.141751
0.572661 0.547349 0.142349
0.598572 0.547947 0.142947
0.624482 0.548545 0.143545
0.650393 0.549143 0.144143
0.676303 0.549741 0.144741
0.702214 0.550339 0.145339
0.728124 0.550937 0.145937
0.754035 0.551534 0.146535
0.779945 0.552132 0.147132
0.805855 0.552730 0.147730
0.831766 0.553328 0.148328
0.857676 0.553926 0.148926
0.883587 0.554524 0.149524
0.909497 0.555122 0.150122
0.935408 0.555720 0.150720
0.961318 0.556318 0.151318
0.134196 0.564508 0.134196
0.160106 0.565106 0.134793
0.186016 0.565704 0.135391
0.211927 0.566302 0.135989
0.237837 0.566900 0.136587
0.263748 0.567498 0.137185
0.289658 0.568096 0.137783
0.315569 0.568694 0.138381
0.341479 0.569291 0.138979
0.367389 0.569889 0.139577
0.393300 0.570487 0.140175
0.419210 0.571085 0.140773
0.445121 0.571683 0.141371
0.471031 0.572281 0.141969
0.496942 0.572879 0.142567
0.522852 0.573477 0.143165
0.548763 0.574075 0.143762
0.574673 0.574673 0.144360
0.600583 0.575271 0.144958
0.626494 0.575869 0.145556
0.652404 0.576467 0.146154
0.678315 0.577065 0.146752
0.704225 0.577663 0.147350
0.730136 0.578261 0.147948
0.756046 0.578859 0.148546
0.781956 0.579456 0.149144
0.807867 0.580054 0.149742
0.833777 0.580652 0.150340
0.859688 0.581250 0.150938
0.885598 0.581848 0.151536
0.911509 0.582446 0.152134
0.937419 0.583044 0.152732
0.963329 0.583642 0.153329
0.136207 0.591832 0.136207
0.162117 0.592430 0.136805
0.188028 0.593028 0.137403
0.213938 0.593626 0.138001
0.239849 0.594224 0.138599
0.265759 0.594822 0.139197
0.291670 0.595420 0.139795
0.317580 0.596018 0.140393
0.343491 0.596616 0.140991
0.369401 0.597213 0.141588
0.395311 0.597811 0.142186
0.421222 0.598409 0.142784
0.447132 0.599007 0.143382
0.473043 0.599605 0.143980
0.498953 0.600203 0.144578
0.524864 0.600801 0.145176
0.550774 0.601399 0.145774
0.576684 0.601997 0.146372
0.602595 0.602595 0.146970
0.628505 0.603193 0.147568
0.654416 0.603791 0.148166
0.680326 0.604389 0.148764
0.706237 0.604987 0.149362
0.732147 0.605585 0.149960
0.758058 0.606182 0.150557
0.783968 0.606780 0.151155
0.809878 0.607378 0.151753
0.835789 0.607976 0.152351
0.861699 0.608574 0.152949
0.887610 0.609172 0.153547
0.913520 0.609770 0.154145
0.939431 0.610368 0.154743
0.965341 0.610966 0.155341
0.138218 0.619156 0.138218
0.164129 0.619754 0.138816
0.190039 0.620352 0.139414
0.215950 0.620950 0.140012
0.241860 0.621548 0.140610
0.267771 0.622146 0.141208
0.293681 0.622744 0.141806
0.319592 0.623342 0.142404
0.345502 0.623939 0.143002
0.371412 0.624537 0.143600
0.397323 0.625135 0.144198
0.423233 0.625733 0.144796
0.449144 0.626331 0.145394
0.475054 0.626929 0.145992
0.500965 0.627527 0.146590
0.526875 0.628125 0.147188
0.552785 0.628723 0.147786
0.578696 0.629321 0.148383
0.604606 0.629919 0.148981
0.630517 0.630517 0.149579
0.656427 0.631115 0.150177
0.682338 0.631713 0.150775
0.708248 0.632311 0.151373
0.734159 0.632909 0.151971
0.760069 0.633506 0.152569
0.785979 0.634104 0.153167
0.811890 0.634702 0.153765
0.837800 0.635300 0.154363
0.863711 0.635898 0.154961
0.889621 0.636496 0.155559
0.915532 0.637094 0.156157
0.941442 0.637692 0.156755
0.967352 0.638290 0.157353
0.140230 0.646480 0.140230
0.166140 0.647078 0.140828
0.192051 0.647676 0.141426
0.217961 0.648274 0.142024
0.243872 0.648872 0.142622
0.269782 0.649470 0.143220
0.295693 0.650068 0.143818
0.321603 0.650666 0.144416
0.347514 0.651263 0.145013
0.373424 0.651861 0.145611
0.399334 0.652459 0.146209
0.425245 0.653057 0.146807
0.451155 0.653655 0.147405
0.477066 0.654253 0.148003
0.502976 0.654851 0.148601
0.528887 0.655449 0.149199
0.554797 0.656047 0.149797
0.580707 0.656645 0.150395
0.606618 0.657243 0.150993
0.632528 0.657841 0.151591
0.658439 0.658439 0.152189
0.684349 0.659037 0.152787
0.710260 0.659635 0.153385
0.736170 0.660233 0.153983
0.762080 0.660830 0.154580
0.787991 0.661428 0.155178
0.813901 0.662026 0.155776
0.839812 0.662624 0.156374
0.865722 0.663222 0.156972
0.891633 0.663820 0.157570
0.917543 0.664418 0.158168
0.943454 0.665016 0.158766
0.969364 0.665614 0.159364
0.142242 0.673804 0.142242
0.168152 0.674402 0.142839
0.194062 0.675000 0.143437
0.219973 0.675598 0.144035
0.245883 0.676196 0.144633
0.271794 0.676794 0.145231
0.297704 0.677392 0.145829
0.323615 0.677990 0.146427
0.349525 0.678588 0.147025
0.375435 0.679185 0.147623
0.401346 0.679783 0.148221
0.427256 0.680381 0.148819
0.453167 0.680979 0.149417
0.479077 0.681577 0.150015
0.504988 0.682175 0.150613
0.530898 0.682773 0.151211
0.556809 0.683371 0.151808
0.582719 0.683969 0.152406
0.608629 0.684567 0.153004
0.634540 0.685165 0.153602
0.660450 0.685763 0.154200
0.686361 0.686361 0.154798
0.712271 0.686959 0.155396
0.738182 0.687557 0.155994
0.764092 0.688155 0.156592
0.790002 0.688752 0.157190
0.815913 0.689350 0.157788
0.841823 0.689948 0.158386
0.867734 0.690546 0.158984
0.893644 0.691144 0.159582
0.919555 0.691742 0.160180
0.945465 0.692340 0.160778
0.971376 0.692938 0.161376
0.144253 0.701128 0.144253
0.170163 0.701726 0.144851
0.196074 0.702324 0.145449
0.221984 0.702922 0.146047
0.247895 0.703520 0.146645
0.273805 0.704118 0.147243
0.299716 0.704716 0.147841
0.325626 0.705314 0.148439
0.351537 0.705912 0.149037
0.377447 0.706509 0.149634
0.403357 0.707107 0.150232
0.429268 0.707705 0.150830
0.455178 0.708303 0.151428
0.481089 0.708901 0.152026
0.506999 0.709499 0.152624
0.532910 0.710097 0.153222
0.558820 0.710695 0.153820
0.584730 0.711293 0.154418
0.610641 0.711891 0.155016
0.636551 0.712489 0.155614
0.662462 0.713087 0.156212
0.688372 0.713685 0.156810
0.714283 0.714283 0.157408
0.740193 0.714881 0.158006
0.766103 0.715478 0.158604
0.792014 0.716076 0.159201
0.817924 0.716674 0.159799
0.843835 0.717272 0.160397
0.869745 0.717870 0.160995
0.895656 0.718468 0.161593
0.921566 0.719066 0.162191
0.947477 0.719664 0.162789
0.973387 0.720262 0.163387
0.146264 0.728452 0.146264
0.172175 0.729050 0.146862
0.198085 0.729648 0.147460
0.223996 0.730246 0.148058
0.249906 0.730844 0.148656
0.275817 0.731442 0.149254
0.301727 0.732040 0.149852
0.327638 0.732638 0.150450
0.353548 0.733235 0.151048
0.379458 0.733833 0.151646
0.405369 0.734431 0.152244
0.431279 0.735029 0.152842
0.457190 0.735627 0.153440
0.483100 0.736225 0.154038
0.509011 0.736823 0.154636
0.534921 0.737421 0.155234
0.560832 0.738019 0.155831
0.586742 0.738617 0.156429
0.612652 0.739215 0.157027
0.638563 0.739813 0.157625
0.664473 0.740411 0.158223
0.690384 0.741009 0.158821
0.716294 0.741607 0.159419
0.742205 0.742205 0.160017
0.768115 0.742803 0.160615
0.794025 0.743400 0.161213
0.819936 0.743998 0.161811
0.845846 0.744596 0.162409
0.871757 0.745194 0.163007
0.897667 0.745792 0.163605
0.923578 0.746390 0.164203
0.949488 0.746988 0.164801
0.975398 0.747586 0.165399
0.148276 0.755776 0.148276
0.174186 0.756374 0.148874
0.200097 0.756972 0.149472
0.226007 0.757570 0.150070
0.251918 0.758168 0.150668
0.277828 0.758766 0.151266
0.303739 0.759364 0.151864
0.329649 0.759962 0.152462
0.355560 0.760560 0.153059
0.381470 0.761157 0.153657
0.407380 0.761755 0.154255
0.433291 0.762353 0.154853
0.459201 0.762951 0.155451
0.485112 0.763549 0.156049
0.511022 0.764147 0.156647
0.536933 0.764745 0.157245
0.562843 0.765343 0.157843
0.588753 0.765941 0.158441
0.614664 0.766539 0.159039
0.640574 0.767137 0.159637
0.666485 0.767735 0.160235
0.692395 0.768333 0.160833
0.718306 0.768931 0.161431
0.744216 0.769529 0.162029
0.770127 0.770127 0.162627
0.796037 0.770724 0.163224
0.821947 0.771322 0.163822
0.847858 0.771920 0.164420
0.873768 0.772518 0.165018
0.899679 0.773116 0.165616
0.925589 0.773714 0.166214
0.951500 0.774312 0.166812
0.977410 0.774910 0.167410
0.150288 0.783100 0.150288
0.176198 0.783698 0.150885
0.202108 0.784296 0.151483
0.228019 0.784894 0.152081
0.253929 0.785492 0.152679
0.279840 0.786090 0.153277
0.305750 0.786688 0.153875
0.331661 0.787286 0.154473
0.357571 0.787883 0.155071
0.383481 0.788481 0.155669
0.409392 0.789079 0.156267
0.435302 0.789677 0.156865
0.461213 0.790275 0.157463
0.487123 0.790873 0.158061
0.513034 0.791471 0.158659
0.538944 0.792069 0.159257
0.564855 0.792667 0.159854
0.590765 0.793265 0.160452
0.616675 0.793863 0.161050
0.642586 0.794461 0.161648
0.668496 0.795059 0.162246
0.694407 0.795657 0.162844
0.720317 0.796255 0.163442
0.746228 0.796853 0.164040
0.772138 0.797450 0.164638
0.798048 0.798048 0.165236
0.823959 0.798646 0.165834
0.849869 0.799244 0.166432
0.875780 0.799842 0.167030
0.901690 0.800440 0.167628
0.927601 0.801038 0.168226
0.953511 0.801636 0.168824
0.979421 0.802234 0.169421
0.152299 0.810424 0.152299
0.178209 0.811022 0.152897
0.204120 0.811620 0.153495
0.230030 0.812218 0.154093
0.255941 0.812816 0.154691
0.281851 0.813414 0.155289
0.307762 0.814012 0.155887
0.333672 0.814610 0.156485
0.359583 0.815207 0.157082
0.385493 0.815805 0.157680
0.411403 0.816403 0.158278
0.437314 0.817001 0.158876
0.463224 0.817599 0.159474
0.489135 0.818197 0.160072
0.515045 0.818795 0.160670
0.540956 0.819393 0.161268
0.566866 0.819991 0.161866
0.592776 0.820589 0.162464
0.618687 0.821187 0.163062
0.644597 0.821785 0.163660
0.670508 0.822383 0.164258
0.696418 0.822981 0.164856
0.722329 0.823579 0.165454
0.748239 0.824177 0.166052
0.774150 0.824774 0.166650
0.800060 0.825372 0.167247
