app/src/main/assets/luts/Teal_Orange.cube
TITLE "Teal & Orange"
# Generated by editclips.online — free to use
DOMAIN_MIN 0.0 0.0 0.0
DOMAIN_MAX 1.0 1.0 1.0
LUT_3D_SIZE 33
0.000000 0.010674 0.055474
0.000000 0.010015 0.054206
0.024039 0.009328 0.052884
0.054874 0.008614 0.051511
0.086770 0.007876 0.050091
0.119644 0.007116 0.048627
0.153415 0.006334 0.047123
0.188001 0.005534 0.045583
0.223322 0.004717 0.044010
0.259294 0.003884 0.042408
0.295837 0.003038 0.040781
0.332870 0.002182 0.039132
0.370310 0.001315 0.037465
0.408077 0.000441 0.035783
0.446088 0.000000 0.034091
0.484262 0.000000 0.032391
0.522518 0.000000 0.030687
0.560773 0.000000 0.028984
0.598947 0.000000 0.027284
0.636958 0.000000 0.025592
0.674725 0.000000 0.023910
0.712165 0.000000 0.022243
0.749198 0.000000 0.020594
0.785741 0.000000 0.018967
0.821713 0.000000 0.017365
0.857034 0.000000 0.015792
0.891620 0.000000 0.014252
0.925391 0.000000 0.012748
0.958265 0.000000 0.011284
0.990161 0.000000 0.009864
1.000000 0.000000 0.008491
1.000000 0.000000 0.007169
1.000000 0.000000 0.005901
0.000000 0.037100 0.051209
0.000000 0.036441 0.049941
0.023461 0.035754 0.048619
0.054297 0.035041 0.047246
0.086192 0.034303 0.045826
0.119066 0.033542 0.044362
0.152837 0.032760 0.042858
0.187424 0.031960 0.041318
0.222744 0.031143 0.039745
0.258717 0.030310 0.038144
0.295260 0.029465 0.036516
0.332293 0.028608 0.034867
0.369733 0.027741 0.033200
0.407499 0.026868 0.031518
0.445510 0.025988 0.029826
0.483684 0.025105 0.028126
0.521940 0.024219 0.026423
0.560196 0.023334 0.024719
0.598370 0.022451 0.023019
0.636381 0.021571 0.021327
0.674147 0.020697 0.019645
0.711588 0.019831 0.017978
0.748620 0.018974 0.016329
0.785163 0.018128 0.014702
0.821136 0.017296 0.013100
0.856456 0.016479 0.011527
0.891043 0.015678 0.009987
0.924814 0.014897 0.008483
0.957688 0.014136 0.007019
0.989583 0.013398 0.005599
1.000000 0.012684 0.004226
1.000000 0.011997 0.002904
1.000000 0.011338 0.001636
0.000000 0.064662 0.046761
0.000000 0.064003 0.045493
0.022859 0.063316 0.044171
0.053695 0.062602 0.042798
0.085590 0.061864 0.041378
0.118464 0.061103 0.039914
0.152235 0.060322 0.038410
0.186822 0.059522 0.036870
0.222142 0.058704 0.035297
0.258114 0.057872 0.033695
0.294658 0.057026 0.032068
0.331690 0.056169 0.030419
0.369130 0.055303 0.028752
0.406897 0.054429 0.027070
0.444908 0.053549 0.025378
0.483082 0.052666 0.023678
0.521338 0.051781 0.021975
0.559593 0.050896 0.020271
0.597767 0.050012 0.018571
0.635779 0.049133 0.016879
0.673545 0.048259 0.015197
0.710985 0.047392 0.013530
0.748018 0.046535 0.011881
0.784561 0.045690 0.010254
0.820534 0.044857 0.008652
0.855854 0.044040 0.007079
0.890440 0.043240 0.005539
0.924211 0.042458 0.004035
0.957085 0.041698 0.002571
0.988981 0.040959 0.001151
1.000000 0.040246 0.000000
1.000000 0.039559 0.000000
1.000000 0.038900 0.000000
0.000000 0.093283 0.042142
0.000000 0.092624 0.040874
0.022234 0.091937 0.039552
0.053069 0.091223 0.038179
0.084965 0.090485 0.036759
0.117839 0.089724 0.035295
0.151610 0.088943 0.033791
0.186196 0.088143 0.032251
0.221516 0.087325 0.030678
0.257489 0.086493 0.029076
0.294032 0.085647 0.027449
0.331065 0.084790 0.025800
0.368505 0.083924 0.024133
0.406271 0.083050 0.022451
0.444282 0.082171 0.020759
0.482457 0.081287 0.019059
0.520712 0.080402 0.017356
0.558968 0.079517 0.015652
0.597142 0.078633 0.013952
0.635153 0.077754 0.012260
0.672919 0.076880 0.010578
0.710360 0.076013 0.008911
0.747392 0.075156 0.007262
0.783936 0.074311 0.005635
0.819908 0.073478 0.004033
0.855228 0.072661 0.002460
0.889815 0.071861 0.000920
0.923586 0.071079 0.000000
0.956460 0.070319 0.000000
0.988355 0.069581 0.000000
1.000000 0.068867 0.000000
1.000000 0.068180 0.000000
1.000000 0.067521 0.000000
0.000000 0.122888 0.037364
0.000000 0.122229 0.036096
0.021587 0.121542 0.034774
0.052422 0.120828 0.033401
0.084318 0.120090 0.031981
0.117192 0.119329 0.030517
0.150963 0.118548 0.029013
0.185549 0.117748 0.027473
0.220869 0.116930 0.025900
0.256842 0.116098 0.024299
0.293385 0.115252 0.022671
0.330418 0.114395 0.021022
0.367858 0.113529 0.019355
0.405624 0.112655 0.017674
0.443635 0.111775 0.015981
0.481810 0.110892 0.014281
0.520065 0.110007 0.012578
0.558321 0.109122 0.010874
0.596495 0.108238 0.009174
0.634506 0.107359 0.007482
0.672273 0.106485 0.005800
0.709713 0.105618 0.004133
0.746745 0.104761 0.002484
0.783289 0.103916 0.000857
0.819261 0.103083 0.000000
0.854581 0.102266 0.000000
0.889168 0.101466 0.000000
0.922939 0.100684 0.000000
0.955813 0.099924 0.000000
0.987708 0.099186 0.000000
1.000000 0.098472 0.000000
1.000000 0.097785 0.000000
1.000000 0.097126 0.000000
0.000000 0.153401 0.032440
0.000000 0.152742 0.031172
0.020920 0.152055 0.029850
0.051755 0.151341 0.028477
0.083651 0.150603 0.027056
0.116525 0.149843 0.025593
0.150296 0.149061 0.024089
0.184882 0.148261 0.022549
0.220202 0.147444 0.020976
0.256175 0.146611 0.019374
0.292718 0.145765 0.017747
0.329751 0.144909 0.016098
0.367191 0.144042 0.014431
0.404958 0.143168 0.012749
0.442969 0.142289 0.011057
0.481143 0.141405 0.009357
0.519398 0.140520 0.007653
0.557654 0.139635 0.005950
0.595828 0.138751 0.004250
0.633839 0.137872 0.002557
0.671606 0.136998 0.000876
0.709046 0.136132 0.000000
0.746079 0.135275 0.000000
0.782622 0.134429 0.000000
0.818594 0.133597 0.000000
0.853915 0.132779 0.000000
0.888501 0.131979 0.000000
0.922272 0.131197 0.000000
0.955146 0.130437 0.000000
0.987042 0.129699 0.000000
1.000000 0.128985 0.000000
1.000000 0.128298 0.000000
1.000000 0.127639 0.000000
0.000000 0.184747 0.027381
0.000000 0.184088 0.026113
0.020235 0.183401 0.024791
0.051070 0.182687 0.023418
0.082966 0.181949 0.021998
0.115840 0.181188 0.020534
0.149611 0.180407 0.019030
0.184197 0.179607 0.017490
0.219517 0.178789 0.015917
0.255490 0.177957 0.014315
0.292033 0.177111 0.012688
0.329066 0.176254 0.011039
0.366506 0.175388 0.009372
0.404273 0.174514 0.007690
0.442284 0.173634 0.005998
0.480458 0.172751 0.004298
0.518713 0.171866 0.002594
0.556969 0.170981 0.000891
0.595143 0.170097 0.000000
0.633154 0.169218 0.000000
0.670921 0.168344 0.000000
0.708361 0.167477 0.000000
0.745393 0.166620 0.000000
0.781937 0.165775 0.000000
0.817909 0.164942 0.000000
0.853230 0.164125 0.000000
0.887816 0.163325 0.000000
0.921587 0.162543 0.000000
0.954461 0.161782 0.000000
0.986357 0.161044 0.000000
1.000000 0.160331 0.000000
1.000000 0.159644 0.000000
1.000000 0.158985 0.000000
0.000000 0.216849 0.022200
0.000000 0.216190 0.020932
0.019533 0.215503 0.019610
0.050369 0.214790 0.018237
0.082264 0.214052 0.016817
0.115138 0.213291 0.015353
0.148909 0.212509 0.013849
0.183496 0.211709 0.012309
0.218816 0.210892 0.010736
0.254788 0.210059 0.009134
0.291332 0.209214 0.007507
0.328364 0.208357 0.005858
0.365805 0.207490 0.004191
0.403571 0.206616 0.002509
0.441582 0.205737 0.000817
0.479756 0.204854 0.000000
0.518012 0.203968 0.000000
0.556268 0.203083 0.000000
0.594442 0.202200 0.000000
0.632453 0.201320 0.000000
0.670219 0.200446 0.000000
0.707659 0.199580 0.000000
0.744692 0.198723 0.000000
0.781235 0.197877 0.000000
0.817208 0.197045 0.000000
0.852528 0.196228 0.000000
0.887114 0.195427 0.000000
0.920885 0.194646 0.000000
0.953759 0.193885 0.000000
0.985655 0.193147 0.000000
1.000000 0.192433 0.000000
1.000000 0.191746 0.000000
1.000000 0.191087 0.000000
0.000000 0.249633 0.016909
0.000000 0.248974 0.015641
0.018817 0.248287 0.014319
0.049652 0.247573 0.012946
0.081548 0.246835 0.011526
0.114422 0.246075 0.010062
0.148193 0.245293 0.008558
0.182779 0.244493 0.007018
0.218099 0.243675 0.005445
0.254072 0.242843 0.003844
0.290615 0.241997 0.002216
0.327648 0.241140 0.000567
0.365088 0.240274 0.000000
0.402855 0.239400 0.000000
0.440866 0.238521 0.000000
0.479040 0.237637 0.000000
0.517295 0.236752 0.000000
0.555551 0.235867 0.000000
0.593725 0.234983 0.000000
0.631736 0.234104 0.000000
0.669503 0.233230 0.000000
0.706943 0.232364 0.000000
0.743975 0.231507 0.000000
0.780519 0.230661 0.000000
0.816491 0.229829 0.000000
0.851812 0.229011 0.000000
0.886398 0.228211 0.000000
0.920169 0.227429 0.000000
0.953043 0.226669 0.000000
0.984939 0.225931 0.000000
1.000000 0.225217 0.000000
1.000000 0.224530 0.000000
1.000000 0.223871 0.000000
0.000000 0.283022 0.011521
0.000000 0.282363 0.010253
0.018087 0.281676 0.008931
0.048923 0.280963 0.007558
0.080818 0.280224 0.006137
0.113692 0.279464 0.004673
0.147463 0.278682 0.003170
0.182050 0.277882 0.001630
0.217370 0.277065 0.000057
0.253342 0.276232 0.000000
0.289886 0.275387 0.000000
0.326918 0.274530 0.000000
0.364359 0.273663 0.000000
0.402125 0.272789 0.000000
0.440136 0.271910 0.000000
0.478310 0.271026 0.000000
0.516566 0.270141 0.000000
0.554821 0.269256 0.000000
0.592996 0.268373 0.000000
0.631007 0.267493 0.000000
0.668773 0.266619 0.000000
0.706213 0.265753 0.000000
0.743246 0.264896 0.000000
0.779789 0.264050 0.000000
0.815762 0.263218 0.000000
0.851082 0.262400 0.000000
0.885668 0.261600 0.000000
0.919439 0.260819 0.000000
0.952313 0.260058 0.000000
0.984209 0.259320 0.000000
1.000000 0.258606 0.000000
1.000000 0.257919 0.000000
1.000000 0.257260 0.000000
0.000000 0.316941 0.006047
0.000000 0.316282 0.004779
0.017346 0.315595 0.003457
0.048181 0.314881 0.002084
0.080077 0.314143 0.000663
0.112951 0.313383 0.000000
0.146722 0.312601 0.000000
0.181308 0.311801 0.000000
0.216629 0.310984 0.000000
0.252601 0.310151 0.000000
0.289144 0.309306 0.000000
0.326177 0.308449 0.000000
0.363617 0.307582 0.000000
0.401384 0.306708 0.000000
0.439395 0.305829 0.000000
0.477569 0.304945 0.000000
0.515825 0.304060 0.000000
0.554080 0.303175 0.000000
0.592254 0.302292 0.000000
0.630265 0.301412 0.000000
0.668032 0.300538 0.000000
0.705472 0.299672 0.000000
0.742505 0.298815 0.000000
0.779048 0.297969 0.000000
0.815020 0.297137 0.000000
0.850341 0.296319 0.000000
0.884927 0.295519 0.000000
0.918698 0.294738 0.000000
0.951572 0.293977 0.000000
0.983468 0.293239 0.000000
1.000000 0.292525 0.000000
1.000000 0.291838 0.000000
1.000000 0.291179 0.000000
0.000000 0.351314 0.000499
0.000000 0.350655 0.000000
0.016595 0.349968 0.000000
0.047430 0.349255 0.000000
0.079326 0.348516 0.000000
0.112200 0.347756 0.000000
0.145971 0.346974 0.000000
0.180557 0.346174 0.000000
0.215877 0.345357 0.000000
0.251850 0.344524 0.000000
0.288393 0.343679 0.000000
0.325426 0.342822 0.000000
0.362866 0.341955 0.000000
0.400633 0.341081 0.000000
0.438644 0.340202 0.000000
0.476818 0.339318 0.000000
0.515073 0.338433 0.000000
0.553329 0.337548 0.000000
0.591503 0.336665 0.000000
0.629514 0.335785 0.000000
0.667281 0.334911 0.000000
0.704721 0.334045 0.000000
0.741753 0.333188 0.000000
0.778297 0.332342 0.000000
0.814269 0.331510 0.000000
0.849590 0.330692 0.000000
0.884176 0.329892 0.000000
0.917947 0.329111 0.000000
0.950821 0.328350 0.000000
0.982716 0.327612 0.000000
1.000000 0.326898 0.000000
1.000000 0.326211 0.000000
1.000000 0.325552 0.000000
0.000000 0.386065 0.000000
0.000000 0.385407 0.000000
0.015835 0.384720 0.000000
0.046671 0.384006 0.000000
0.078566 0.383268 0.000000
0.111440 0.382507 0.000000
0.145211 0.381726 0.000000
0.179798 0.380925 0.000000
0.215118 0.380108 0.000000
0.251090 0.379276 0.000000
0.287634 0.378430 0.000000
0.324666 0.377573 0.000000
0.362107 0.376707 0.000000
0.399873 0.375833 0.000000
0.437884 0.374953 0.000000
0.476058 0.374070 0.000000
0.514314 0.373185 0.000000
0.552570 0.372299 0.000000
0.590744 0.371416 0.000000
0.628755 0.370536 0.000000
0.666521 0.369663 0.000000
0.703961 0.368796 0.000000
0.740994 0.367939 0.000000
0.777537 0.367094 0.000000
0.813510 0.366261 0.000000
0.848830 0.365444 0.000000
0.883416 0.364644 0.000000
0.917187 0.363862 0.000000
0.950061 0.363101 0.000000
0.981957 0.362363 0.000000
1.000000 0.361650 0.000000
1.000000 0.360963 0.000000
1.000000 0.360304 0.000000
0.000000 0.421120 0.000000
0.000000 0.420461 0.000000
0.015069 0.419774 0.000000
0.045905 0.419060 0.000000
0.077800 0.418322 0.000000
0.110674 0.417561 0.000000
0.144445 0.416780 0.000000
0.179032 0.415980 0.000000
0.214352 0.415162 0.000000
0.250324 0.414330 0.000000
0.286868 0.413484 0.000000
0.323900 0.412627 0.000000
0.361341 0.411761 0.000000
0.399107 0.410887 0.000000
0.437118 0.410007 0.000000
0.475292 0.409124 0.000000
0.513548 0.408239 0.000000
0.551803 0.407354 0.000000
0.589978 0.406470 0.000000
0.627989 0.405591 0.000000
0.665755 0.404717 0.000000
0.703195 0.403850 0.000000
0.740228 0.402993 0.000000
0.776771 0.402148 0.000000
0.812744 0.401315 0.000000
0.848064 0.400498 0.000000
0.882650 0.399698 0.000000
0.916421 0.398916 0.000000
0.949295 0.398156 0.000000
0.981191 0.397417 0.000000
1.000000 0.396704 0.000000
1.000000 0.396017 0.000000
1.000000 0.395358 0.000000
0.000000 0.456401 0.000000
0.000000 0.455742 0.000000
0.014298 0.455055 0.000000
0.045134 0.454341 0.000000
0.077029 0.453603 0.000000
0.109903 0.452843 0.000000
0.143674 0.452061 0.000000
0.178261 0.451261 0.000000
0.213581 0.450444 0.000000
0.249553 0.449611 0.000000
0.286097 0.448766 0.000000
0.323129 0.447909 0.000000
0.360570 0.447042 0.000000
0.398336 0.446168 0.000000
0.436347 0.445289 0.000000
0.474521 0.444405 0.000000
0.512777 0.443520 0.000000
0.551032 0.442635 0.000000
0.589207 0.441752 0.000000
0.627218 0.440872 0.000000
0.664984 0.439998 0.000000
0.702424 0.439132 0.000000
0.739457 0.438275 0.000000
0.776000 0.437429 0.000000
0.811973 0.436597 0.000000
0.847293 0.435779 0.000000
0.881879 0.434979 0.000000
0.915650 0.434198 0.000000
0.948524 0.433437 0.000000
0.980420 0.432699 0.000000
1.000000 0.431985 0.000000
1.000000 0.431298 0.000000
1.000000 0.430639 0.000000
0.000000 0.491834 0.000000
0.000000 0.491175 0.000000
0.013524 0.490488 0.000000
0.044359 0.489774 0.000000
0.076255 0.489036 0.000000
0.109129 0.488275 0.000000
0.142900 0.487494 0.000000
0.177486 0.486694 0.000000
0.212807 0.485876 0.000000
0.248779 0.485044 0.000000
0.285322 0.484198 0.000000
0.322355 0.483341 0.000000
0.359795 0.482475 0.000000
0.397562 0.481601 0.000000
0.435573 0.480721 0.000000
0.473747 0.479838 0.000000
0.512002 0.478953 0.000000
0.550258 0.478067 0.000000
0.588432 0.477184 0.000000
0.626443 0.476305 0.000000
0.664210 0.475431 0.000000
0.701650 0.474564 0.000000
0.738683 0.473707 0.000000
0.775226 0.472862 0.000000
0.811198 0.472029 0.000000
0.846519 0.471212 0.000000
0.881105 0.470412 0.000000
0.914876 0.469630 0.000000
0.947750 0.468869 0.000000
0.979646 0.468131 0.000000
1.000000 0.467418 0.000000
1.000000 0.466731 0.000000
1.000000 0.466072 0.000000
0.000000 0.527342 0.000000
0.000000 0.526683 0.000000
0.012748 0.525996 0.000000
0.043583 0.525282 0.000000
0.075479 0.524544 0.000000
0.108353 0.523784 0.000000
0.142124 0.523002 0.000000
0.176710 0.522202 0.000000
0.212031 0.521385 0.000000
0.248003 0.520552 0.000000
0.284546 0.519706 0.000000
0.321579 0.518850 0.000000
0.359019 0.517983 0.000000
0.396786 0.517109 0.000000
0.434797 0.516230 0.000000
0.472971 0.515346 0.000000
0.511226 0.514461 0.000000
0.549482 0.513576 0.000000
0.587656 0.512692 0.000000
0.625667 0.511813 0.000000
0.663434 0.510939 0.000000
0.700874 0.510073 0.000000
0.737907 0.509216 0.000000
0.774450 0.508370 0.000000
0.810422 0.507538 0.000000
0.845743 0.506720 0.000000
0.880329 0.505920 0.000000
0.914100 0.505138 0.000000
0.946974 0.504378 0.000000
0.978870 0.503640 0.000000
1.000000 0.502926 0.000000
1.000000 0.502239 0.000000
1.000000 0.501580 0.000000
0.000000 0.562850 0.000000
0.000000 0.562191 0.000000
0.011972 0.561504 0.000000
0.042807 0.560791 0.000000
0.074703 0.560053 0.000000
0.107577 0.559292 0.000000
0.141348 0.558510 0.000000
0.175934 0.557710 0.000000
0.211255 0.556893 0.000000
0.247227 0.556060 0.000000
0.283770 0.555215 0.000000
0.320803 0.554358 0.000000
0.358243 0.553491 0.000000
0.396010 0.552618 0.000000
0.434021 0.551738 0.000000
0.472195 0.550855 0.000000
0.510450 0.549969 0.000000
0.548706 0.549084 0.000000
0.586880 0.548201 0.000000
0.624891 0.547321 0.000000
0.662658 0.546447 0.000000
0.700098 0.545581 0.000000
0.737131 0.544724 0.000000
0.773674 0.543878 0.000000
0.809646 0.543046 0.000000
0.844967 0.542229 0.000000
0.879553 0.541428 0.000000
0.913324 0.540647 0.000000
0.946198 0.539886 0.000000
0.978094 0.539148 0.000000
1.000000 0.538434 0.000000
1.000000 0.537747 0.000000
1.000000 0.537088 0.000000
0.000000 0.598283 0.000000
0.000000 0.597624 0.000000
0.011197 0.596937 0.000000
0.042033 0.596223 0.000000
0.073929 0.595485 0.000000
0.106803 0.594725 0.000000
0.140574 0.593943 0.000000
0.175160 0.593143 0.000000
0.210480 0.592325 0.000000
0.246453 0.591493 0.000000
0.282996 0.590647 0.000000
0.320029 0.589790 0.000000
0.357469 0.588924 0.000000
0.395235 0.588050 0.000000
0.433246 0.587171 0.000000
0.471421 0.586287 0.000000
0.509676 0.585402 0.000000
0.547932 0.584517 0.000000
0.586106 0.583633 0.000000
0.624117 0.582754 0.000000
0.661883 0.581880 0.000000
0.699324 0.581013 0.000000
0.736356 0.580157 0.000000
0.772900 0.579311 0.000000
0.808872 0.578479 0.000000
0.844192 0.577661 0.000000
0.878779 0.576861 0.000000
0.912550 0.576079 0.000000
0.945424 0.575319 0.000000
0.977319 0.574581 0.000000
1.000000 0.573867 0.000000
1.000000 0.573180 0.000000
1.000000 0.572521 0.000000
0.000000 0.633564 0.000000
0.000000 0.632905 0.000000
0.010426 0.632218 0.000000
0.041262 0.631505 0.000000
0.073158 0.630767 0.000000
0.106032 0.630006 0.000000
0.139803 0.629224 0.000000
0.174389 0.628424 0.000000
0.209709 0.627607 0.000000
0.245682 0.626774 0.000000
0.282225 0.625929 0.000000
0.319258 0.625072 0.000000
0.356698 0.624205 0.000000
0.394464 0.623331 0.000000
0.432475 0.622452 0.000000
0.470649 0.621568 0.000000
0.508905 0.620683 0.000000
0.547161 0.619798 0.000000
0.585335 0.618915 0.000000
0.623346 0.618035 0.000000
0.661112 0.617161 0.000000
0.698553 0.616295 0.000000
0.735585 0.615438 0.000000
0.772129 0.614592 0.000000
0.808101 0.613760 0.000000
0.843421 0.612942 0.000000
0.878008 0.612142 0.000000
0.911779 0.611361 0.000000
0.944653 0.610600 0.000000
0.976548 0.609862 0.000000
1.000000 0.609148 0.000000
1.000000 0.608461 0.000000
1.000000 0.607802 0.000000
0.000000 0.668618 0.000000
0.000000 0.667959 0.000000
0.009660 0.667272 0.000000
0.040496 0.666559 0.000000
0.072391 0.665821 0.000000
0.105266 0.665060 0.000000
0.139037 0.664279 0.000000
0.173623 0.663478 0.000000
0.208943 0.662661 0.000000
0.244916 0.661828 0.000000
0.281459 0.660983 0.000000
0.318492 0.660126 0.000000
0.355932 0.659260 0.000000
0.393698 0.658386 0.000000
0.431709 0.657506 0.000000
0.469883 0.656623 0.000000
0.508139 0.655737 0.000000
0.546395 0.654852 0.000000
0.584569 0.653969 0.000000
0.622580 0.653089 0.000000
0.660346 0.652215 0.000000
0.697787 0.651349 0.000000
0.734819 0.650492 0.000000
0.771362 0.649646 0.000000
0.807335 0.648814 0.000000
0.842655 0.647997 0.000000
0.877242 0.647196 0.000000
0.911013 0.646415 0.000000
0.943887 0.645654 0.000000
0.975782 0.644916 0.000000
1.000000 0.644203 0.000000
1.000000 0.643515 0.000000
1.000000 0.642857 0.000000
0.000000 0.703370 0.000000
0.000000 0.702711 0.000000
0.008901 0.702024 0.000000
0.039736 0.701310 0.000000
0.071632 0.700572 0.000000
0.104506 0.699811 0.000000
0.138277 0.699030 0.000000
0.172863 0.698230 0.000000
0.208184 0.697412 0.000000
0.244156 0.696580 0.000000
0.280700 0.695734 0.000000
0.317732 0.694877 0.000000
0.355172 0.694011 0.000000
0.392939 0.693137 0.000000
0.430950 0.692258 0.000000
0.469124 0.691374 0.000000
0.507380 0.690489 0.000000
0.545635 0.689604 0.000000
0.583809 0.688720 0.000000
0.621820 0.687841 0.000000
0.659587 0.686967 0.000000
0.697027 0.686100 0.000000
0.734060 0.685243 0.000000
0.770603 0.684398 0.000000
0.806576 0.683565 0.000000
0.841896 0.682748 0.000000
0.876482 0.681948 0.000000
0.910253 0.681166 0.000000
0.943127 0.680406 0.000000
0.975023 0.679668 0.000000
1.000000 0.678954 0.000000
1.000000 0.678267 0.000000
1.000000 0.677608 0.000000
0.000000 0.737743 0.000000
0.000000 0.737084 0.000000
0.008150 0.736397 0.000000
0.038985 0.735683 0.000000
0.070881 0.734945 0.000000
0.103755 0.734185 0.000000
0.137526 0.733403 0.000000
0.172112 0.732603 0.000000
0.207433 0.731785 0.000000
0.243405 0.730953 0.000000
0.279948 0.730107 0.000000
0.316981 0.729250 0.000000
0.354421 0.728384 0.000000
0.392188 0.727510 0.000000
0.430199 0.726631 0.000000
0.468373 0.725747 0.000000
0.506628 0.724862 0.000000
0.544884 0.723977 0.000000
0.583058 0.723093 0.000000
0.621069 0.722214 0.000000
0.658836 0.721340 0.000000
0.696276 0.720473 0.000000
0.733309 0.719617 0.000000
0.769852 0.718771 0.000000
0.805824 0.717939 0.000000
0.841145 0.717121 0.000000
0.875731 0.716321 0.000000
0.909502 0.715539 0.000000
0.942376 0.714779 0.000000
0.974272 0.714041 0.000000
1.000000 0.713327 0.000000
1.000000 0.712640 0.000000
1.000000 0.711981 0.000000
0.000000 0.771662 0.000000
0.000000 0.771003 0.000000
0.007408 0.770316 0.000000
0.038244 0.769602 0.000000
0.070140 0.768864 0.000000
0.103014 0.768103 0.000000
0.136785 0.767322 0.000000
0.171371 0.766522 0.000000
0.206691 0.765704 0.000000
0.242664 0.764872 0.000000
0.279207 0.764026 0.000000
0.316240 0.763169 0.000000
0.353680 0.762303 0.000000
0.391446 0.761429 0.000000
0.429457 0.760550 0.000000
0.467632 0.759666 0.000000
0.505887 0.758781 0.000000
0.544143 0.757896 0.000000
0.582317 0.757012 0.000000
0.620328 0.756133 0.000000
0.658094 0.755259 0.000000
0.695535 0.754392 0.000000
0.732567 0.753535 0.000000
0.769111 0.752690 0.000000
0.805083 0.751857 0.000000
0.840403 0.751040 0.000000
0.874990 0.750240 0.000000
0.908761 0.749458 0.000000
0.941635 0.748698 0.000000
0.973530 0.747960 0.000000
1.000000 0.747246 0.000000
1.000000 0.746559 0.000000
1.000000 0.745900 0.000000
0.000000 0.805051 0.000000
0.000000 0.804392 0.000000
0.006679 0.803705 0.000000
0.037514 0.802991 0.000000
0.069410 0.802253 0.000000
0.102284 0.801493 0.000000
0.136055 0.800711 0.000000
0.170641 0.799911 0.000000
0.205962 0.799094 0.000000
0.241934 0.798261 0.000000
0.278477 0.797416 0.000000
0.315510 0.796559 0.000000
0.352950 0.795692 0.000000
0.390717 0.794818 0.000000
0.428728 0.793939 0.000000
0.466902 0.793055 0.000000
0.505158 0.792170 0.000000
0.543413 0.791285 0.000000
0.581587 0.790401 0.000000
0.619598 0.789522 0.000000
0.657365 0.788648 0.000000
0.694805 0.787782 0.000000
0.731838 0.786925 0.000000
0.768381 0.786079 0.000000
0.804353 0.785247 0.000000
0.839674 0.784429 0.000000
0.874260 0.783629 0.000000
0.908031 0.782847 0.000000
0.940905 0.782087 0.000000
0.972801 0.781349 0.000000
1.000000 0.780635 0.000000
1.000000 0.779948 0.000000
1.000000 0.779289 0.000000
0.000000 0.837835 0.000000
0.000000 0.837176 0.000000
0.005962 0.836489 0.000000
0.036798 0.835775 0.000000
0.068694 0.835037 0.000000
0.101568 0.834276 0.000000
0.135339 0.833495 0.000000
0.169925 0.832695 0.000000
0.205245 0.831877 0.000000
0.241218 0.831045 0.000000
0.277761 0.830199 0.000000
0.314794 0.829342 0.000000
0.352234 0.828476 0.000000
0.390000 0.827602 0.000000
0.428011 0.826722 0.000000
0.466185 0.825839 0.000000
0.504441 0.824954 0.000000
0.542697 0.824069 0.000000
0.580871 0.823185 0.000000
0.618882 0.822306 0.000000
0.656648 0.821432 0.000000
0.694089 0.820565 0.000000
0.731121 0.819708 0.000000
0.767664 0.818863 0.000000
0.803637 0.818030 0.000000
0.838957 0.817213 0.000000
0.873544 0.816413 0.000000
0.907315 0.815631 0.000000
0.940189 0.814870 0.000000
0.972084 0.814132 0.000000
1.000000 0.813419 0.000000
1.000000 0.812732 0.000000
1.000000 0.812073 0.000000
0.000000 0.869937 0.000000
0.000000 0.869278 0.000000
0.005261 0.868591 0.000000
0.036096 0.867878 0.000000
0.067992 0.867140 0.000000
0.100866 0.866379 0.000000
0.134637 0.865597 0.000000
0.169223 0.864797 0.000000
0.204544 0.863980 0.000000
0.240516 0.863147 0.000000
0.277059 0.862302 0.000000
0.314092 0.861445 0.000000
0.351532 0.860578 0.000000
0.389299 0.859704 0.000000
0.427310 0.858825 0.000000
0.465484 0.857942 0.000000
0.503740 0.857056 0.000000
0.541995 0.856171 0.000000
0.580169 0.855288 0.000000
0.618180 0.854408 0.000000
0.655947 0.853534 0.000000
0.693387 0.852668 0.000000
0.730420 0.851811 0.000000
0.766963 0.850965 0.000000
0.802935 0.850133 0.000000
0.838256 0.849316 0.000000
