app/src/main/assets/luts/Teal_Orange.cube
TITLE "Teal & Orange"
# Generated by editclips.online — free to use
DOMAIN_MIN 0.0 0.0 0.0
DOMAIN_MAX 1.0 1.0 1.0
LUT_3D_SIZE 9
0.000000 0.010674 0.055474
0.086770 0.007876 0.050091
0.223322 0.004717 0.044010
0.370310 0.001315 0.037465
0.522518 0.000000 0.030687
0.674725 0.000000 0.023910
0.821713 0.000000 0.017365
0.958265 0.000000 0.011284
1.000000 0.000000 0.005901
0.000000 0.122888 0.037364
0.084318 0.120090 0.031981
0.220869 0.116930 0.025900
0.367858 0.113529 0.019355
0.520065 0.110007 0.012578
0.672273 0.106485 0.005800
0.819261 0.103083 0.000000
0.955813 0.099924 0.000000
1.000000 0.097126 0.000000
0.000000 0.249633 0.016909
0.081548 0.246835 0.011526
0.218099 0.243675 0.005445
0.365088 0.240274 0.000000
0.517295 0.236752 0.000000
0.669503 0.233230 0.000000
0.816491 0.229829 0.000000
0.953043 0.226669 0.000000
1.000000 0.223871 0.000000
0.000000 0.386065 0.000000
0.078566 0.383268 0.000000
0.215118 0.380108 0.000000
0.362107 0.376707 0.000000
0.514314 0.373185 0.000000
0.666521 0.369663 0.000000
0.813510 0.366261 0.000000
0.950061 0.363101 0.000000
1.000000 0.360304 0.000000
0.000000 0.527342 0.000000
0.075479 0.524544 0.000000
0.212031 0.521385 0.000000
0.359019 0.517983 0.000000
0.511226 0.514461 0.000000
0.663434 0.510939 0.000000
0.810422 0.507538 0.000000
0.946974 0.504378 0.000000
1.000000 0.501580 0.000000
0.000000 0.668618 0.000000
0.072391 0.665821 0.000000
0.208943 0.662661 0.000000
0.355932 0.659260 0.000000
0.508139 0.655737 0.000000
0.660346 0.652215 0.000000
0.807335 0.648814 0.000000
0.943887 0.645654 0.000000
1.000000 0.642857 0.000000
0.000000 0.805051 0.000000
0.069410 0.802253 0.000000
0.205962 0.799094 0.000000
0.352950 0.795692 0.000000
0.505158 0.792170 0.000000
0.657365 0.788648 0.000000
0.804353 0.785247 0.000000
0.940905 0.782087 0.000000
1.000000 0.779289 0.000000
0.000000 0.931796 0.000000
0.066640 0.928998 0.000000
0.203192 0.925839 0.000000
0.350180 0.922437 0.000000
0.502388 0.918915 0.000000
0.654595 0.915393 0.000000
0.801584 0.911992 0.000000
0.938135 0.908832 0.000000
1.000000 0.906034 0.000000
0.000000 1.000000 0.000000
0.064188 1.000000 0.000000
0.200739 1.000000 0.000000
0.347728 1.000000 0.000000
0.499935 1.000000 0.000000
0.652143 1.000000 0.000000
0.799131 1.000000 0.000000
0.935683 1.000000 0.000000
1.000000 1.000000 0.000000
0.000000 0.009724 0.175271
0.086522 0.006926 0.169887
0.223074 0.003766 0.163807
0.370063 0.000365 0.157262
0.522270 0.000000 0.150484
0.674477 0.000000 0.143707
0.821466 0.000000 0.137162
0.958018 0.000000 0.131081
1.000000 0.000000 0.125698
0.000000 0.121938 0.157161
0.084070 0.119140 0.151778
0.220622 0.115980 0.145697
0.367610 0.112579 0.139152
0.519818 0.109057 0.132374
0.672025 0.105535 0.125597
0.819014 0.102133 0.119052
0.955565 0.098974 0.112971
1.000000 0.096176 0.107588
0.000000 0.248683 0.136706
0.081300 0.245885 0.131323
0.217852 0.242725 0.125242
0.364841 0.239324 0.118697
0.517048 0.235802 0.111920
0.669255 0.232280 0.105142
0.816244 0.228878 0.098597
0.952795 0.225719 0.092516
1.000000 0.222921 0.087133
0.000000 0.385115 0.114688
0.078319 0.382318 0.109304
0.214870 0.379158 0.103224
0.361859 0.375757 0.096679
0.514066 0.372235 0.089901
0.666274 0.368712 0.083124
0.813262 0.365311 0.076578
0.949814 0.362151 0.070498
1.000000 0.359354 0.065115
0.000000 0.526392 0.091887
0.075231 0.523594 0.086504
0.211783 0.520434 0.080424
0.358772 0.517033 0.073879
0.510979 0.513511 0.067101
0.663186 0.509989 0.060323
0.810175 0.506588 0.053778
0.946727 0.503428 0.047698
1.000000 0.500630 0.042315
0.000000 0.667668 0.069087
0.072144 0.664871 0.063704
0.208696 0.661711 0.057624
0.355684 0.658309 0.051078
0.507892 0.654787 0.044301
0.660099 0.651265 0.037523
0.807087 0.647864 0.030978
0.943639 0.644704 0.024898
1.000000 0.641907 0.019514
0.000000 0.804101 0.047069
0.069162 0.801303 0.041686
0.205714 0.798143 0.035605
0.352703 0.794742 0.029060
0.504910 0.791220 0.022283
0.657117 0.787698 0.015505
0.804106 0.784297 0.008960
0.940658 0.781137 0.002879
1.000000 0.778339 0.000000
0.000000 0.930846 0.026614
0.066393 0.928048 0.021231
0.202944 0.924889 0.015150
0.349933 0.921487 0.008605
0.502140 0.917965 0.001828
0.654347 0.914443 0.000000
0.801336 0.911042 0.000000
0.937888 0.907882 0.000000
1.000000 0.905084 0.000000
0.000000 1.000000 0.008504
0.063940 1.000000 0.003121
0.200492 1.000000 0.000000
0.347481 1.000000 0.000000
0.499688 1.000000 0.000000
0.651895 1.000000 0.000000
0.798884 1.000000 0.000000
0.935435 1.000000 0.000000
1.000000 1.000000 0.000000
0.000000 0.008651 0.310581
0.086243 0.005853 0.305197
0.222794 0.002693 0.299117
0.369783 0.000000 0.292572
0.521990 0.000000 0.285794
0.674198 0.000000 0.279017
0.821186 0.000000 0.272472
0.957738 0.000000 0.266391
1.000000 0.000000 0.261008
0.000000 0.120865 0.292471
0.083791 0.118067 0.287088
0.220342 0.114907 0.281007
0.367331 0.111506 0.274462
0.519538 0.107984 0.267685
0.671745 0.104462 0.260907
0.818734 0.101060 0.254362
0.955286 0.097900 0.248281
1.000000 0.095103 0.242898
0.000000 0.247610 0.272016
0.081021 0.244812 0.266633
0.217572 0.241652 0.260552
0.364561 0.238251 0.254007
0.516768 0.234729 0.247230
0.668975 0.231207 0.240452
0.815964 0.227805 0.233907
0.952516 0.224646 0.227826
1.000000 0.221848 0.222443
0.000000 0.384042 0.249998
0.078039 0.381245 0.244614
0.214591 0.378085 0.238534
0.361579 0.374684 0.231989
0.513787 0.371161 0.225211
0.665994 0.367639 0.218434
0.812983 0.364238 0.211888
0.949534 0.361078 0.205808
1.000000 0.358281 0.200425
0.000000 0.525319 0.227198
0.074952 0.522521 0.221814
0.211503 0.519361 0.215734
0.358492 0.515960 0.209189
0.510699 0.512438 0.202411
0.662907 0.508916 0.195634
0.809895 0.505514 0.189088
0.946447 0.502355 0.183008
1.000000 0.499557 0.177625
0.000000 0.666595 0.204397
0.071864 0.663798 0.199014
0.208416 0.660638 0.192934
0.355405 0.657236 0.186389
0.507612 0.653714 0.179611
0.659819 0.650192 0.172833
0.806808 0.646791 0.166288
0.943359 0.643631 0.160208
1.000000 0.640833 0.154825
0.000000 0.803028 0.182379
0.068883 0.800230 0.176996
0.205434 0.797070 0.170915
0.352423 0.793669 0.164370
0.504630 0.790147 0.157593
0.656838 0.786625 0.150815
0.803826 0.783223 0.144270
0.940378 0.780064 0.138189
1.000000 0.777266 0.132806
0.000000 0.929773 0.161924
0.066113 0.926975 0.156541
0.202665 0.923815 0.150460
0.349653 0.920414 0.143915
0.501861 0.916892 0.137138
0.654068 0.913370 0.130360
0.801056 0.909969 0.123815
0.937608 0.906809 0.117735
1.000000 0.904011 0.112351
0.000000 1.000000 0.143814
0.063661 1.000000 0.138431
0.200212 1.000000 0.132351
0.347201 1.000000 0.125805
0.499408 1.000000 0.119028
0.651615 1.000000 0.112250
0.798604 1.000000 0.105705
0.935156 1.000000 0.099625
1.000000 1.000000 0.094241
0.000000 0.007496 0.456233
0.085942 0.004698 0.450850
0.222493 0.001538 0.444769
0.369482 0.000000 0.438224
0.521689 0.000000 0.431447
0.673897 0.000000 0.424669
0.820885 0.000000 0.418124
0.957437 0.000000 0.412043
1.000000 0.000000 0.406660
0.000000 0.119709 0.438123
0.083490 0.116912 0.432740
0.220041 0.113752 0.426659
0.367030 0.110351 0.420114
0.519237 0.106829 0.413337
0.671444 0.103307 0.406559
0.818433 0.099905 0.400014
0.954985 0.096745 0.393934
1.000000 0.093948 0.388550
0.000000 0.246455 0.417668
0.080720 0.243657 0.412285
0.217271 0.240497 0.406205
0.364260 0.237096 0.399659
0.516467 0.233574 0.392882
0.668675 0.230052 0.386104
0.815663 0.226650 0.379559
0.952215 0.223490 0.373479
1.000000 0.220693 0.368095
0.000000 0.382887 0.395650
0.077738 0.380090 0.390267
0.214290 0.376930 0.384186
0.361278 0.373528 0.377641
0.513486 0.370006 0.370863
0.665693 0.366484 0.364086
0.812682 0.363083 0.357541
0.949233 0.359923 0.351460
1.000000 0.357126 0.346077
0.000000 0.524164 0.372850
0.074651 0.521366 0.367466
0.211202 0.518206 0.361386
0.358191 0.514805 0.354841
0.510398 0.511283 0.348063
0.662606 0.507761 0.341286
0.809594 0.504359 0.334741
0.946146 0.501199 0.328660
1.000000 0.498402 0.323277
0.000000 0.665440 0.350050
0.071563 0.662642 0.344666
0.208115 0.659483 0.338586
0.355104 0.656081 0.332041
0.507311 0.652559 0.325263
0.659518 0.649037 0.318486
0.806507 0.645636 0.311941
0.943059 0.642476 0.305860
1.000000 0.639678 0.300477
0.000000 0.801873 0.328031
0.068582 0.799075 0.322648
0.205133 0.795915 0.316568
0.352122 0.792514 0.310022
0.504329 0.788992 0.303245
0.656537 0.785470 0.296467
0.803525 0.782068 0.289922
0.940077 0.778909 0.283842
1.000000 0.776111 0.278458
0.000000 0.928618 0.307576
0.065812 0.925820 0.302193
0.202364 0.922660 0.296113
0.349352 0.919259 0.289567
0.501560 0.915737 0.282790
0.653767 0.912215 0.276012
0.800755 0.908813 0.269467
0.937307 0.905654 0.263387
1.000000 0.902856 0.258003
0.000000 1.000000 0.289467
0.063360 1.000000 0.284083
0.199911 1.000000 0.278003
0.346900 1.000000 0.271458
0.499107 1.000000 0.264680
0.651314 1.000000 0.257903
0.798303 1.000000 0.251357
0.934855 1.000000 0.245277
1.000000 1.000000 0.239894
0.000000 0.006300 0.607056
0.085630 0.003502 0.601673
0.222182 0.000342 0.595593
0.369170 0.000000 0.589047
0.521378 0.000000 0.582270
0.673585 0.000000 0.575492
0.820574 0.000000 0.568947
0.957125 0.000000 0.562867
1.000000 0.000000 0.557483
0.000000 0.118513 0.588947
0.083178 0.115716 0.583563
0.219729 0.112556 0.577483
0.366718 0.109155 0.570938
0.518925 0.105632 0.564160
0.671133 0.102110 0.557383
0.818121 0.098709 0.550837
0.954673 0.095549 0.544757
1.000000 0.092752 0.539374
0.000000 0.245258 0.568492
0.080408 0.242461 0.563108
0.216960 0.239301 0.557028
0.363948 0.235900 0.550483
0.516156 0.232378 0.543705
0.668363 0.228855 0.536928
0.815352 0.225454 0.530382
0.951903 0.222294 0.524302
1.000000 0.219497 0.518919
0.000000 0.381691 0.546473
0.077426 0.378894 0.541090
0.213978 0.375734 0.535009
0.360967 0.372332 0.528464
0.513174 0.368810 0.521687
0.665381 0.365288 0.514909
0.812370 0.361887 0.508364
0.948922 0.358727 0.502284
1.000000 0.355929 0.496900
0.000000 0.522967 0.523673
0.074339 0.520170 0.518290
0.210891 0.517010 0.512209
0.357879 0.513609 0.505664
0.510087 0.510087 0.498887
0.662294 0.506565 0.492109
0.809283 0.503163 0.485564
0.945834 0.500003 0.479483
1.000000 0.497206 0.474100
0.000000 0.664244 0.500873
0.071252 0.661446 0.495490
0.207803 0.658287 0.489409
0.354792 0.654885 0.482864
0.506999 0.651363 0.476087
0.659206 0.647841 0.469309
0.806195 0.644440 0.462764
0.942747 0.641280 0.456683
1.000000 0.638482 0.451300
0.000000 0.800677 0.478855
0.068270 0.797879 0.473471
0.204822 0.794719 0.467391
0.351810 0.791318 0.460846
0.504018 0.787796 0.454068
0.656225 0.784274 0.447291
0.803214 0.780872 0.440745
0.939765 0.777712 0.434665
1.000000 0.774915 0.429282
0.000000 0.927422 0.458400
0.065500 0.924624 0.453016
0.202052 0.921464 0.446936
0.349041 0.918063 0.440391
0.501248 0.914541 0.433613
0.653455 0.911019 0.426836
0.800444 0.907617 0.420290
0.936995 0.904457 0.414210
1.000000 0.901660 0.408827
0.000000 1.000000 0.440290
0.063048 1.000000 0.434907
0.199600 1.000000 0.428826
0.346588 1.000000 0.422281
0.498796 1.000000 0.415503
0.651003 1.000000 0.408726
0.797992 1.000000 0.402181
0.934543 1.000000 0.396100
1.000000 1.000000 0.390717
0.000000 0.005103 0.757880
0.085318 0.002306 0.752496
0.221870 0.000000 0.746416
0.368859 0.000000 0.739871
0.521066 0.000000 0.733093
0.673273 0.000000 0.726316
0.820262 0.000000 0.719770
0.956814 0.000000 0.713690
1.000000 0.000000 0.708307
0.000000 0.117317 0.739770
0.082866 0.114520 0.734387
0.219418 0.111360 0.728306
0.366407 0.107958 0.721761
0.518614 0.104436 0.714983
0.670821 0.100914 0.708206
0.817810 0.097513 0.701661
0.954361 0.094353 0.695580
1.000000 0.091556 0.690197
0.000000 0.244062 0.719315
0.080096 0.241265 0.713932
0.216648 0.238105 0.707851
0.363637 0.234704 0.701306
0.515844 0.231181 0.694528
0.668051 0.227659 0.687751
0.815040 0.224258 0.681206
0.951591 0.221098 0.675125
1.000000 0.218301 0.669742
0.000000 0.380495 0.697297
0.077115 0.377697 0.691913
0.213666 0.374538 0.685833
0.360655 0.371136 0.679288
0.512862 0.367614 0.672510
0.665070 0.364092 0.665733
0.812058 0.360691 0.659187
0.948610 0.357531 0.653107
1.000000 0.354733 0.647724
0.000000 0.521771 0.674496
0.074027 0.518974 0.669113
0.210579 0.515814 0.663033
0.357568 0.512413 0.656487
0.509775 0.508891 0.649710
0.661982 0.505368 0.642932
0.808971 0.501967 0.636387
0.945523 0.498807 0.630307
1.000000 0.496010 0.624923
0.000000 0.663048 0.651696
0.070940 0.660250 0.646313
0.207492 0.657090 0.640233
0.354480 0.653689 0.633687
0.506688 0.650167 0.626910
0.658895 0.646645 0.620132
0.805884 0.643243 0.613587
0.942435 0.640084 0.607507
1.000000 0.637286 0.602123
0.000000 0.799480 0.629678
0.067958 0.796683 0.624295
0.204510 0.793523 0.618214
0.351499 0.790122 0.611669
0.503706 0.786600 0.604891
0.655913 0.783077 0.598114
0.802902 0.779676 0.591569
0.939454 0.776516 0.585488
1.000000 0.773719 0.580105
0.000000 0.926226 0.609223
0.065189 0.923428 0.603840
0.201740 0.920268 0.597759
0.348729 0.916867 0.591214
0.500936 0.913345 0.584437
0.653143 0.909823 0.577659
0.800132 0.906421 0.571114
0.936684 0.903261 0.565033
1.000000 0.900464 0.559650
0.000000 1.000000 0.591113
0.062736 1.000000 0.585730
0.199288 1.000000 0.579649
0.346277 1.000000 0.573104
0.498484 1.000000 0.566327
0.650691 1.000000 0.559549
0.797680 1.000000 0.553004
0.934231 1.000000 0.546924
1.000000 1.000000 0.541540
0.000000 0.003948 0.903532
0.085017 0.001151 0.898149
0.221569 0.000000 0.892068
0.368558 0.000000 0.885523
0.520765 0.000000 0.878745
0.672972 0.000000 0.871968
0.819961 0.000000 0.865423
0.956513 0.000000 0.859342
1.000000 0.000000 0.853959
0.000000 0.116162 0.885422
0.082565 0.113365 0.880039
0.219117 0.110205 0.873958
0.366106 0.106803 0.867413
0.518313 0.103281 0.860636
0.670520 0.099759 0.853858
0.817509 0.096358 0.847313
0.954060 0.093198 0.841232
1.000000 0.090400 0.835849
0.000000 0.242907 0.864967
0.079795 0.240110 0.859584
0.216347 0.236950 0.853503
0.363336 0.233548 0.846958
0.515543 0.230026 0.840181
0.667750 0.226504 0.833403
0.814739 0.223103 0.826858
0.951291 0.219943 0.820778
1.000000 0.217146 0.815394
0.000000 0.379340 0.842949
0.076814 0.376542 0.837565
0.213365 0.373382 0.831485
0.360354 0.369981 0.824940
0.512561 0.366459 0.818162
0.664769 0.362937 0.811385
0.811757 0.359536 0.804840
0.948309 0.356376 0.798759
1.000000 0.353578 0.793376
0.000000 0.520616 0.820149
0.073726 0.517819 0.814765
0.210278 0.514659 0.808685
0.357267 0.511258 0.802140
0.509474 0.507735 0.795362
0.661681 0.504213 0.788585
0.808670 0.500812 0.782039
0.945222 0.497652 0.775959
1.000000 0.494855 0.770576
0.000000 0.661893 0.797349
0.070639 0.659095 0.791965
0.207191 0.655935 0.785885
0.354179 0.652534 0.779340
0.506387 0.649012 0.772562
0.658594 0.645490 0.765785
0.805583 0.642088 0.759239
0.942134 0.638929 0.753159
1.000000 0.636131 0.747776
0.000000 0.798325 0.775330
0.067657 0.795528 0.769947
0.204209 0.792368 0.763866
0.351198 0.788967 0.757321
0.503405 0.785444 0.750544
0.655612 0.781922 0.743766
0.802601 0.778521 0.737221
0.939153 0.775361 0.731141
1.000000 0.772564 0.725757
0.000000 0.925070 0.754875
0.064888 0.922273 0.749492
0.201439 0.919113 0.743411
0.348428 0.915712 0.736866
0.500635 0.912190 0.730089
0.652842 0.908667 0.723311
0.799831 0.905266 0.716766
0.936383 0.902106 0.710686
1.000000 0.899309 0.705302
0.000000 1.000000 0.736765
0.062435 1.000000 0.731382
0.198987 1.000000 0.725302
0.345976 1.000000 0.718757
0.498183 1.000000 0.711979
0.650390 1.000000 0.705201
0.797379 1.000000 0.698656
0.933930 1.000000 0.692576
1.000000 1.000000 0.687193
0.000000 0.002875 1.000000
0.084738 0.000078 1.000000
0.221289 0.000000 1.000000
0.368278 0.000000 1.000000
0.520485 0.000000 1.000000
0.672693 0.000000 1.000000
0.819681 0.000000 1.000000
0.956233 0.000000 0.994652
1.000000 0.000000 0.989269
0.000000 0.115089 1.000000
0.082286 0.112291 1.000000
0.218837 0.109132 1.000000
0.365826 0.105730 1.000000
0.518033 0.102208 0.995946
0.670240 0.098686 0.989168
0.817229 0.095285 0.982623
0.953781 0.092125 0.976543
1.000000 0.089327 0.971159
0.000000 0.241834 1.000000
0.079516 0.239037 0.994894
0.216067 0.235877 0.988813
0.363056 0.232475 0.982268
0.515263 0.228953 0.975491
0.667471 0.225431 0.968713
0.814459 0.222030 0.962168
0.951011 0.218870 0.956088
1.000000 0.216072 0.950704
0.000000 0.378267 0.978259
0.076534 0.375469 0.972875
0.213086 0.372309 0.966795
0.360075 0.368908 0.960250
0.512282 0.365386 0.953472
0.664489 0.361864 0.946695
0.811478 0.358462 0.940150
0.948029 0.355303 0.934069
1.000000 0.352505 0.928686
0.000000 0.519543 0.955459
0.073447 0.516746 0.950075
0.209998 0.513586 0.943995
0.356987 0.510184 0.937450
0.509194 0.506662 0.930672
0.661402 0.503140 0.923895
0.808390 0.499739 0.917350
0.944942 0.496579 0.911269
1.000000 0.493781 0.905886
0.000000 0.660820 0.932659
0.070359 0.658022 0.927275
0.206911 0.654862 0.921195
0.353900 0.651461 0.914650
0.506107 0.647939 0.907872
0.658314 0.644417 0.901095
0.805303 0.641015 0.894549
0.941855 0.637855 0.888469
1.000000 0.635058 0.883086
0.000000 0.797252 0.910640
0.067378 0.794455 0.905257
0.203929 0.791295 0.899176
0.350918 0.787893 0.892631
0.503125 0.784371 0.885854
0.655333 0.780849 0.879076
0.802321 0.777448 0.872531
0.938873 0.774288 0.866451
1.000000 0.771490 0.861067
0.000000 0.923997 0.890185
0.064608 0.921200 0.884802
0.201160 0.918040 0.878722
0.348148 0.914639 0.872176
0.500356 0.911116 0.865399
0.652563 0.907594 0.858621
0.799552 0.904193 0.852076
0.936103 0.901033 0.845996
1.000000 0.898236 0.840612
0.000000 1.000000 0.872075
0.062156 1.000000 0.866692
0.198707 1.000000 0.860612
0.345696 1.000000 0.854067
0.497903 1.000000 0.847289
0.650111 1.000000 0.840511
0.797099 1.000000 0.833966
0.933651 1.000000 0.827886
1.000000 1.000000 0.822503
0.000000 0.001925 1.000000
0.084490 0.000000 1.000000
0.221042 0.000000 1.000000
0.368031 0.000000 1.000000
0.520238 0.000000 1.000000
0.672445 0.000000 1.000000
0.819434 0.000000 1.000000
0.955985 0.000000 1.000000
1.000000 0.000000 1.000000
0.000000 0.114139 1.000000
0.082038 0.111341 1.000000
0.218590 0.108182 1.000000
0.365578 0.104780 1.000000
0.517786 0.101258 1.000000
0.669993 0.097736 1.000000
0.816982 0.094335 1.000000
0.953533 0.091175 1.000000
1.000000 0.088377 1.000000
0.000000 0.240884 1.000000
0.079268 0.238086 1.000000
0.215820 0.234927 1.000000
0.362809 0.231525 1.000000
0.515016 0.228003 1.000000
0.667223 0.224481 1.000000
0.814212 0.221080 1.000000
0.950763 0.217920 1.000000
1.000000 0.215122 1.000000
0.000000 0.377317 1.000000
0.076287 0.374519 1.000000
0.212838 0.371359 1.000000
0.359827 0.367958 1.000000
0.512034 0.364436 1.000000
0.664241 0.360914 1.000000
0.811230 0.357512 1.000000
0.947782 0.354353 1.000000
1.000000 0.351555 1.000000
0.000000 0.518593 1.000000
0.073199 0.515796 1.000000
0.209751 0.512636 1.000000
0.356740 0.509234 1.000000
0.508947 0.505712 1.000000
0.661154 0.502190 1.000000
0.808143 0.498789 1.000000
0.944694 0.495629 1.000000
1.000000 0.492831 1.000000
0.000000 0.659869 1.000000
0.070112 0.657072 1.000000
0.206663 0.653912 1.000000
0.353652 0.650511 1.000000
0.505859 0.646989 1.000000
0.658067 0.643467 1.000000
0.805055 0.640065 1.000000
0.941607 0.636905 1.000000
1.000000 0.634108 1.000000
0.000000 0.796302 1.000000
0.067130 0.793505 1.000000
0.203682 0.790345 1.000000
0.350671 0.786943 1.000000
0.502878 0.783421 1.000000
0.655085 0.779899 0.998873
0.802074 0.776498 0.992328
0.938625 0.773338 0.986247
1.000000 0.770540 0.980864
0.000000 0.923047 1.000000
0.064360 0.920250 1.000000
0.200912 0.917090 0.998518
0.347901 0.913688 0.991973
0.500108 0.910166 0.985196
0.652315 0.906644 0.978418
0.799304 0.903243 0.971873
0.935856 0.900083 0.965792
1.000000 0.897286 0.960409
0.000000 1.000000 0.991872
0.061908 1.000000 0.986489
0.198460 1.000000 0.980409
0.345448 1.000000 0.973863
0.497656 1.000000 0.967086
0.649863 1.000000 0.960308
0.796852 1.000000 0.953763
0.933403 1.000000 0.947683
1.000000 1.000000 0.942299
