app/src/main/assets/luts/Teal_Orange.cube
TITLE "Teal & Orange"
# Generated by editclips.online — free to use
DOMAIN_MIN 0.0 0.0 0.0
DOMAIN_MAX 1.0 1.0 1.0
LUT_3D_SIZE 5
0.000000 0.010674 0.055474
0.223322 0.004717 0.044010
0.522518 0.000000 0.030687
0.821713 0.000000 0.017365
1.000000 0.000000 0.005901
0.000000 0.249633 0.016909
0.218099 0.243675 0.005445
0.517295 0.236752 0.000000
0.816491 0.229829 0.000000
1.000000 0.223871 0.000000
0.000000 0.527342 0.000000
0.212031 0.521385 0.000000
0.511226 0.514461 0.000000
0.810422 0.507538 0.000000
1.000000 0.501580 0.000000
0.000000 0.805051 0.000000
0.205962 0.799094 0.000000
0.505158 0.792170 0.000000
0.804353 0.785247 0.000000
1.000000 0.779289 0.000000
0.000000 1.000000 0.000000
0.200739 1.000000 0.000000
0.499935 1.000000 0.000000
0.799131 1.000000 0.000000
1.000000 1.000000 0.000000
0.000000 0.008651 0.310581
0.222794 0.002693 0.299117
0.521990 0.000000 0.285794
0.821186 0.000000 0.272472
1.000000 0.000000 0.261008
0.000000 0.247610 0.272016
0.217572 0.241652 0.260552
0.516768 0.234729 0.247230
0.815964 0.227805 0.233907
1.000000 0.221848 0.222443
0.000000 0.525319 0.227198
0.211503 0.519361 0.215734
0.510699 0.512438 0.202411
0.809895 0.505514 0.189088
1.000000 0.499557 0.177625
0.000000 0.803028 0.182379
0.205434 0.797070 0.170915
0.504630 0.790147 0.157593
0.803826 0.783223 0.144270
1.000000 0.777266 0.132806
0.000000 1.000000 0.143814
0.200212 1.000000 0.132351
0.499408 1.000000 0.119028
0.798604 1.000000 0.105705
1.000000 1.000000 0.094241
0.000000 0.006300 0.607056
0.222182 0.000342 0.595593
0.521378 0.000000 0.582270
0.820574 0.000000 0.568947
1.000000 0.000000 0.557483
0.000000 0.245258 0.568492
0.216960 0.239301 0.557028
0.516156 0.232378 0.543705
0.815352 0.225454 0.530382
1.000000 0.219497 0.518919
0.000000 0.522967 0.523673
0.210891 0.517010 0.512209
0.510087 0.510087 0.498887
0.809283 0.503163 0.485564
1.000000 0.497206 0.474100
0.000000 0.800677 0.478855
0.204822 0.794719 0.467391
0.504018 0.787796 0.454068
0.803214 0.780872 0.440745
1.000000 0.774915 0.429282
0.000000 1.000000 0.440290
0.199600 1.000000 0.428826
0.498796 1.000000 0.415503
0.797992 1.000000 0.402181
1.000000 1.000000 0.390717
0.000000 0.003948 0.903532
0.221569 0.000000 0.892068
0.520765 0.000000 0.878745
0.819961 0.000000 0.865423
1.000000 0.000000 0.853959
0.000000 0.242907 0.864967
0.216347 0.236950 0.853503
0.515543 0.230026 0.840181
0.814739 0.223103 0.826858
1.000000 0.217146 0.815394
0.000000 0.520616 0.820149
0.210278 0.514659 0.808685
0.509474 0.507735 0.795362
0.808670 0.500812 0.782039
1.000000 0.494855 0.770576
0.000000 0.798325 0.775330
0.204209 0.792368 0.763866
0.503405 0.785444 0.750544
0.802601 0.778521 0.737221
1.000000 0.772564 0.725757
0.000000 1.000000 0.736765
0.198987 1.000000 0.725302
0.498183 1.000000 0.711979
0.797379 1.000000 0.698656
1.000000 1.000000 0.687193
0.000000 0.001925 1.000000
0.221042 0.000000 1.000000
0.520238 0.000000 1.000000
0.819434 0.000000 1.000000
1.000000 0.000000 1.000000
0.000000 0.240884 1.000000
0.215820 0.234927 1.000000
0.515016 0.228003 1.000000
0.814212 0.221080 1.000000
1.000000 0.215122 1.000000
0.000000 0.518593 1.000000
0.209751 0.512636 1.000000
0.508947 0.505712 1.000000
0.808143 0.498789 1.000000
1.000000 0.492831 1.000000
0.000000 0.796302 1.000000
0.203682 0.790345 1.000000
0.502878 0.783421 1.000000
0.802074 0.776498 0.992328
1.000000 0.770540 0.980864
0.000000 1.000000 0.991872
0.198460 1.000000 0.980409
0.497656 1.000000 0.967086
0.796852 1.000000 0.953763
1.000000 1.000000 0.942299
