app/src/main/assets/luts/Vintage_Fade.cube
TITLE "Vintage Fade"
# Generated by editclips.online — free to use
DOMAIN_MIN 0.0 0.0 0.0
DOMAIN_MAX 1.0 1.0 1.0
LUT_3D_SIZE 33
0.136455 0.112431 0.102135
0.159191 0.113717 0.103421
0.181927 0.115003 0.104707
0.204664 0.116290 0.105994
0.227400 0.117576 0.107280
0.250136 0.118862 0.108566
0.272872 0.120148 0.109852
0.295609 0.121435 0.111139
0.318345 0.122721 0.112425
0.341081 0.124007 0.113711
0.363817 0.125293 0.114997
0.386553 0.126579 0.116283
0.409290 0.127866 0.117570
0.432026 0.129152 0.118856
0.454762 0.130438 0.120142
0.477498 0.131724 0.121428
0.500235 0.133011 0.122715
0.522971 0.134297 0.124001
0.545707 0.135583 0.125287
0.568443 0.136869 0.126573
0.591180 0.138156 0.127860
0.613916 0.139442 0.129146
0.636652 0.140728 0.130432
0.659388 0.142014 0.131718
0.682124 0.143300 0.133004
0.704861 0.144587 0.134291
0.727597 0.145873 0.135577
0.750333 0.147159 0.136863
0.773069 0.148445 0.138149
0.795806 0.149732 0.139436
0.818542 0.151018 0.140722
0.841278 0.152304 0.142008
0.864014 0.153590 0.143294
0.140782 0.138208 0.106462
0.163518 0.139494 0.107748
0.186254 0.140780 0.109034
0.208991 0.142067 0.110321
0.231727 0.143353 0.111607
0.254463 0.144639 0.112893
0.277199 0.145925 0.114179
0.299935 0.147211 0.115465
0.322672 0.148498 0.116752
0.345408 0.149784 0.118038
0.368144 0.151070 0.119324
0.390880 0.152356 0.120610
0.413617 0.153643 0.121897
0.436353 0.154929 0.123183
0.459089 0.156215 0.124469
0.481825 0.157501 0.125755
0.504562 0.158788 0.127042
0.527298 0.160074 0.128328
0.550034 0.161360 0.129614
0.572770 0.162646 0.130900
0.595506 0.163932 0.132186
0.618243 0.165219 0.133473
0.640979 0.166505 0.134759
0.663715 0.167791 0.136045
0.686451 0.169077 0.137331
0.709188 0.170364 0.138618
0.731924 0.171650 0.139904
0.754660 0.172936 0.141190
0.777396 0.174222 0.142476
0.800133 0.175509 0.143763
0.822869 0.176795 0.145049
0.845605 0.178081 0.146335
0.868341 0.179367 0.147621
0.145109 0.163985 0.110789
0.167845 0.165271 0.112075
0.190581 0.166557 0.113361
0.213318 0.167844 0.114648
0.236054 0.169130 0.115934
0.258790 0.170416 0.117220
0.281526 0.171702 0.118506
0.304262 0.172988 0.119792
0.326999 0.174275 0.121079
0.349735 0.175561 0.122365
0.372471 0.176847 0.123651
0.395207 0.178133 0.124937
0.417944 0.179420 0.126224
0.440680 0.180706 0.127510
0.463416 0.181992 0.128796
0.486152 0.183278 0.130082
0.508889 0.184565 0.131369
0.531625 0.185851 0.132655
0.554361 0.187137 0.133941
0.577097 0.188423 0.135227
0.599833 0.189709 0.136513
0.622570 0.190996 0.137800
0.645306 0.192282 0.139086
0.668042 0.193568 0.140372
0.690778 0.194854 0.141658
0.713515 0.196141 0.142945
0.736251 0.197427 0.144231
0.758987 0.198713 0.145517
0.781723 0.199999 0.146803
0.804459 0.201285 0.148089
0.827196 0.202572 0.149376
0.849932 0.203858 0.150662
0.872668 0.205144 0.151948
0.149436 0.189762 0.115116
0.172172 0.191048 0.116402
0.194908 0.192334 0.117688
0.217644 0.193620 0.118974
0.240381 0.194907 0.120261
0.263117 0.196193 0.121547
0.285853 0.197479 0.122833
0.308589 0.198765 0.124119
0.331326 0.200052 0.125406
0.354062 0.201338 0.126692
0.376798 0.202624 0.127978
0.399534 0.203910 0.129264
0.422271 0.205197 0.130551
0.445007 0.206483 0.131837
0.467743 0.207769 0.133123
0.490479 0.209055 0.134409
0.513215 0.210341 0.135695
0.535952 0.211628 0.136982
0.558688 0.212914 0.138268
0.581424 0.214200 0.139554
0.604160 0.215486 0.140840
0.626897 0.216773 0.142127
0.649633 0.218059 0.143413
0.672369 0.219345 0.144699
0.695105 0.220631 0.145985
0.717842 0.221918 0.147272
0.740578 0.223204 0.148558
0.763314 0.224490 0.149844
0.786050 0.225776 0.151130
0.808786 0.227062 0.152416
0.831523 0.228349 0.153703
0.854259 0.229635 0.154989
0.876995 0.230921 0.156275
0.153763 0.215539 0.119443
0.176499 0.216825 0.120729
0.199235 0.218111 0.122015
0.221971 0.219397 0.123301
0.244708 0.220684 0.124588
0.267444 0.221970 0.125874
0.290180 0.223256 0.127160
0.312916 0.224542 0.128446
0.335653 0.225829 0.129733
0.358389 0.227115 0.131019
0.381125 0.228401 0.132305
0.403861 0.229687 0.133591
0.426598 0.230974 0.134878
0.449334 0.232260 0.136164
0.472070 0.233546 0.137450
0.494806 0.234832 0.138736
0.517542 0.236118 0.140022
0.540279 0.237405 0.141309
0.563015 0.238691 0.142595
0.585751 0.239977 0.143881
0.608487 0.241263 0.145167
0.631224 0.242550 0.146454
0.653960 0.243836 0.147740
0.676696 0.245122 0.149026
0.699432 0.246408 0.150312
0.722168 0.247694 0.151598
0.744905 0.248981 0.152885
0.767641 0.250267 0.154171
0.790377 0.251553 0.155457
0.813113 0.252839 0.156743
0.835850 0.254126 0.158030
0.858586 0.255412 0.159316
0.881322 0.256698 0.160602
0.158090 0.241316 0.123770
0.180826 0.242602 0.125056
0.203562 0.243888 0.126342
0.226298 0.245174 0.127628
0.249035 0.246461 0.128915
0.271771 0.247747 0.130201
0.294507 0.249033 0.131487
0.317243 0.250319 0.132773
0.339980 0.251606 0.134060
0.362716 0.252892 0.135346
0.385452 0.254178 0.136632
0.408188 0.255464 0.137918
0.430924 0.256750 0.139204
0.453661 0.258037 0.140491
0.476397 0.259323 0.141777
0.499133 0.260609 0.143063
0.521869 0.261895 0.144349
0.544606 0.263182 0.145636
0.567342 0.264468 0.146922
0.590078 0.265754 0.148208
0.612814 0.267040 0.149494
0.635551 0.268327 0.150781
0.658287 0.269613 0.152067
0.681023 0.270899 0.153353
0.703759 0.272185 0.154639
0.726495 0.273471 0.155925
0.749232 0.274758 0.157212
0.771968 0.276044 0.158498
0.794704 0.277330 0.159784
0.817440 0.278616 0.161070
0.840177 0.279903 0.162357
0.862913 0.281189 0.163643
0.885649 0.282475 0.164929
0.162417 0.267093 0.128097
0.185153 0.268379 0.129383
0.207889 0.269665 0.130669
0.230625 0.270951 0.131955
0.253362 0.272238 0.133242
0.276098 0.273524 0.134528
0.298834 0.274810 0.135814
0.321570 0.276096 0.137100
0.344307 0.277383 0.138387
0.367043 0.278669 0.139673
0.389779 0.279955 0.140959
0.412515 0.281241 0.142245
0.435251 0.282527 0.143531
0.457988 0.283814 0.144818
0.480724 0.285100 0.146104
0.503460 0.286386 0.147390
0.526196 0.287672 0.148676
0.548933 0.288959 0.149963
0.571669 0.290245 0.151249
0.594405 0.291531 0.152535
0.617141 0.292817 0.153821
0.639877 0.294103 0.155107
0.662614 0.295390 0.156394
0.685350 0.296676 0.157680
0.708086 0.297962 0.158966
0.730822 0.299248 0.160252
0.753559 0.300535 0.161539
0.776295 0.301821 0.162825
0.799031 0.303107 0.164111
0.821767 0.304393 0.165397
0.844504 0.305680 0.166684
0.867240 0.306966 0.167970
0.889976 0.308252 0.169256
0.166744 0.292870 0.132424
0.189480 0.294156 0.133710
0.212216 0.295442 0.134996
0.234952 0.296728 0.136282
0.257689 0.298015 0.137569
0.280425 0.299301 0.138855
0.303161 0.300587 0.140141
0.325897 0.301873 0.141427
0.348633 0.303159 0.142713
0.371370 0.304446 0.144000
0.394106 0.305732 0.145286
0.416842 0.307018 0.146572
0.439578 0.308304 0.147858
0.462315 0.309591 0.149145
0.485051 0.310877 0.150431
0.507787 0.312163 0.151717
0.530523 0.313449 0.153003
0.553260 0.314736 0.154290
0.575996 0.316022 0.155576
0.598732 0.317308 0.156862
0.621468 0.318594 0.158148
0.644204 0.319880 0.159434
0.666941 0.321167 0.160721
0.689677 0.322453 0.162007
0.712413 0.323739 0.163293
0.735149 0.325025 0.164579
0.757886 0.326312 0.165866
0.780622 0.327598 0.167152
0.803358 0.328884 0.168438
0.826094 0.330170 0.169724
0.848831 0.331457 0.171011
0.871567 0.332743 0.172297
0.894303 0.334029 0.173583
0.171071 0.318647 0.136751
0.193807 0.319933 0.138037
0.216543 0.321219 0.139323
0.239279 0.322505 0.140609
0.262016 0.323792 0.141896
0.284752 0.325078 0.143182
0.307488 0.326364 0.144468
0.330224 0.327650 0.145754
0.352960 0.328936 0.147040
0.375697 0.330223 0.148327
0.398433 0.331509 0.149613
0.421169 0.332795 0.150899
0.443905 0.334081 0.152185
0.466642 0.335368 0.153472
0.489378 0.336654 0.154758
0.512114 0.337940 0.156044
0.534850 0.339226 0.157330
0.557586 0.340512 0.158616
0.580323 0.341799 0.159903
0.603059 0.343085 0.161189
0.625795 0.344371 0.162475
0.648531 0.345657 0.163761
0.671268 0.346944 0.165048
0.694004 0.348230 0.166334
0.716740 0.349516 0.167620
0.739476 0.350802 0.168906
0.762213 0.352089 0.170193
0.784949 0.353375 0.171479
0.807685 0.354661 0.172765
0.830421 0.355947 0.174051
0.853157 0.357233 0.175337
0.875894 0.358520 0.176624
0.898630 0.359806 0.177910
0.175398 0.344424 0.141078
0.198134 0.345710 0.142364
0.220870 0.346996 0.143650
0.243606 0.348282 0.144936
0.266342 0.349568 0.146222
0.289079 0.350855 0.147509
0.311815 0.352141 0.148795
0.334551 0.353427 0.150081
0.357287 0.354713 0.151367
0.380024 0.356000 0.152654
0.402760 0.357286 0.153940
0.425496 0.358572 0.155226
0.448232 0.359858 0.156512
0.470969 0.361145 0.157799
0.493705 0.362431 0.159085
0.516441 0.363717 0.160371
0.539177 0.365003 0.161657
0.561913 0.366289 0.162943
0.584650 0.367576 0.164230
0.607386 0.368862 0.165516
0.630122 0.370148 0.166802
0.652858 0.371434 0.168088
0.675595 0.372721 0.169375
0.698331 0.374007 0.170661
0.721067 0.375293 0.171947
0.743803 0.376579 0.173233
0.766540 0.377866 0.174520
0.789276 0.379152 0.175806
0.812012 0.380438 0.177092
0.834748 0.381724 0.178378
0.857484 0.383010 0.179664
0.880221 0.384297 0.180951
0.902957 0.385583 0.182237
0.179725 0.370201 0.145405
0.202461 0.371487 0.146691
0.225197 0.372773 0.147977
0.247933 0.374059 0.149263
0.270669 0.375345 0.150549
0.293406 0.376632 0.151836
0.316142 0.377918 0.153122
0.338878 0.379204 0.154408
0.361614 0.380490 0.155694
0.384351 0.381777 0.156981
0.407087 0.383063 0.158267
0.429823 0.384349 0.159553
0.452559 0.385635 0.160839
0.475295 0.386921 0.162125
0.498032 0.388208 0.163412
0.520768 0.389494 0.164698
0.543504 0.390780 0.165984
0.566240 0.392066 0.167270
0.588977 0.393353 0.168557
0.611713 0.394639 0.169843
0.634449 0.395925 0.171129
0.657185 0.397211 0.172415
0.679922 0.398498 0.173702
0.702658 0.399784 0.174988
0.725394 0.401070 0.176274
0.748130 0.402356 0.177560
0.770866 0.403642 0.178846
0.793603 0.404929 0.180133
0.816339 0.406215 0.181419
0.839075 0.407501 0.182705
0.861811 0.408787 0.183991
0.884548 0.410074 0.185278
0.907284 0.411360 0.186564
0.184051 0.395977 0.149731
0.206788 0.397264 0.151018
0.229524 0.398550 0.152304
0.252260 0.399836 0.153590
0.274996 0.401122 0.154876
0.297733 0.402409 0.156163
0.320469 0.403695 0.157449
0.343205 0.404981 0.158735
0.365941 0.406267 0.160021
0.388678 0.407554 0.161308
0.411414 0.408840 0.162594
0.434150 0.410126 0.163880
0.456886 0.411412 0.165166
0.479622 0.412698 0.166452
0.502359 0.413985 0.167739
0.525095 0.415271 0.169025
0.547831 0.416557 0.170311
0.570567 0.417843 0.171597
0.593304 0.419130 0.172884
0.616040 0.420416 0.174170
0.638776 0.421702 0.175456
0.661512 0.422988 0.176742
0.684249 0.424275 0.178029
0.706985 0.425561 0.179315
0.729721 0.426847 0.180601
0.752457 0.428133 0.181887
0.775193 0.429419 0.183173
0.797930 0.430706 0.184460
0.820666 0.431992 0.185746
0.843402 0.433278 0.187032
0.866138 0.434564 0.188318
0.888875 0.435851 0.189605
0.911611 0.437137 0.190891
0.188378 0.421754 0.154058
0.211115 0.423041 0.155345
0.233851 0.424327 0.156631
0.256587 0.425613 0.157917
0.279323 0.426899 0.159203
0.302060 0.428186 0.160490
0.324796 0.429472 0.161776
0.347532 0.430758 0.163062
0.370268 0.432044 0.164348
0.393004 0.433330 0.165634
0.415741 0.434617 0.166921
0.438477 0.435903 0.168207
0.461213 0.437189 0.169493
0.483949 0.438475 0.170779
0.506686 0.439762 0.172066
0.529422 0.441048 0.173352
0.552158 0.442334 0.174638
0.574894 0.443620 0.175924
0.597631 0.444907 0.177211
0.620367 0.446193 0.178497
0.643103 0.447479 0.179783
0.665839 0.448765 0.181069
0.688575 0.450051 0.182355
0.711312 0.451338 0.183642
0.734048 0.452624 0.184928
0.756784 0.453910 0.186214
0.779520 0.455196 0.187500
0.802257 0.456483 0.188787
0.824993 0.457769 0.190073
0.847729 0.459055 0.191359
0.870465 0.460341 0.192645
0.893202 0.461628 0.193932
0.915938 0.462914 0.195218
0.192705 0.447531 0.158385
0.215442 0.448818 0.159672
0.238178 0.450104 0.160958
0.260914 0.451390 0.162244
0.283650 0.452676 0.163530
0.306387 0.453963 0.164817
0.329123 0.455249 0.166103
0.351859 0.456535 0.167389
0.374595 0.457821 0.168675
0.397331 0.459107 0.169961
0.420068 0.460394 0.171248
0.442804 0.461680 0.172534
0.465540 0.462966 0.173820
0.488276 0.464252 0.175106
0.511013 0.465539 0.176393
0.533749 0.466825 0.177679
0.556485 0.468111 0.178965
0.579221 0.469397 0.180251
0.601958 0.470684 0.181538
0.624694 0.471970 0.182824
0.647430 0.473256 0.184110
0.670166 0.474542 0.185396
0.692902 0.475828 0.186682
0.715639 0.477115 0.187969
0.738375 0.478401 0.189255
0.761111 0.479687 0.190541
0.783847 0.480973 0.191827
0.806584 0.482260 0.193114
0.829320 0.483546 0.194400
0.852056 0.484832 0.195686
0.874792 0.486118 0.196972
0.897529 0.487405 0.198259
0.920265 0.488691 0.199545
0.197032 0.473308 0.162712
0.219769 0.474595 0.163999
0.242505 0.475881 0.165285
0.265241 0.477167 0.166571
0.287977 0.478453 0.167857
0.310713 0.479739 0.169143
0.333450 0.481026 0.170430
0.356186 0.482312 0.171716
0.378922 0.483598 0.173002
0.401658 0.484884 0.174288
0.424395 0.486171 0.175575
0.447131 0.487457 0.176861
0.469867 0.488743 0.178147
0.492603 0.490029 0.179433
0.515340 0.491316 0.180720
0.538076 0.492602 0.182006
0.560812 0.493888 0.183292
0.583548 0.495174 0.184578
0.606284 0.496460 0.185864
0.629021 0.497747 0.187151
0.651757 0.499033 0.188437
0.674493 0.500319 0.189723
0.697229 0.501605 0.191009
0.719966 0.502892 0.192296
0.742702 0.504178 0.193582
0.765438 0.505464 0.194868
0.788174 0.506750 0.196154
0.810911 0.508037 0.197441
0.833647 0.509323 0.198727
0.856383 0.510609 0.200013
0.879119 0.511895 0.201299
0.901855 0.513181 0.202585
0.924592 0.514468 0.203872
0.201359 0.499085 0.167039
0.224096 0.500372 0.168326
0.246832 0.501658 0.169612
0.269568 0.502944 0.170898
0.292304 0.504230 0.172184
0.315040 0.505516 0.173470
0.337777 0.506803 0.174757
0.360513 0.508089 0.176043
0.383249 0.509375 0.177329
0.405985 0.510661 0.178615
0.428722 0.511948 0.179902
0.451458 0.513234 0.181188
0.474194 0.514520 0.182474
0.496930 0.515806 0.183760
0.519667 0.517093 0.185047
0.542403 0.518379 0.186333
0.565139 0.519665 0.187619
0.587875 0.520951 0.188905
0.610611 0.522237 0.190191
0.633348 0.523524 0.191478
0.656084 0.524810 0.192764
0.678820 0.526096 0.194050
0.701556 0.527382 0.195336
0.724293 0.528669 0.196623
0.747029 0.529955 0.197909
0.769765 0.531241 0.199195
0.792501 0.532527 0.200481
0.815238 0.533814 0.201768
0.837974 0.535100 0.203054
0.860710 0.536386 0.204340
0.883446 0.537672 0.205626
0.906182 0.538958 0.206912
0.928919 0.540245 0.208199
0.205686 0.524862 0.171366
0.228422 0.526148 0.172652
0.251159 0.527435 0.173939
0.273895 0.528721 0.175225
0.296631 0.530007 0.176511
0.319367 0.531293 0.177797
0.342104 0.532580 0.179084
0.364840 0.533866 0.180370
0.387576 0.535152 0.181656
0.410312 0.536438 0.182942
0.433049 0.537725 0.184229
0.455785 0.539011 0.185515
0.478521 0.540297 0.186801
0.501257 0.541583 0.188087
0.523993 0.542869 0.189373
0.546730 0.544156 0.190660
0.569466 0.545442 0.191946
0.592202 0.546728 0.193232
0.614938 0.548014 0.194518
0.637675 0.549301 0.195805
0.660411 0.550587 0.197091
0.683147 0.551873 0.198377
0.705883 0.553159 0.199663
0.728620 0.554446 0.200950
0.751356 0.555732 0.202236
0.774092 0.557018 0.203522
0.796828 0.558304 0.204808
0.819564 0.559590 0.206094
0.842301 0.560877 0.207381
0.865037 0.562163 0.208667
0.887773 0.563449 0.209953
0.910509 0.564735 0.211239
0.933246 0.566022 0.212526
0.210013 0.550639 0.175693
0.232749 0.551925 0.176979
0.255486 0.553212 0.178266
0.278222 0.554498 0.179552
0.300958 0.555784 0.180838
0.323694 0.557070 0.182124
0.346431 0.558357 0.183411
0.369167 0.559643 0.184697
0.391903 0.560929 0.185983
0.414639 0.562215 0.187269
0.437376 0.563502 0.188556
0.460112 0.564788 0.189842
0.482848 0.566074 0.191128
0.505584 0.567360 0.192414
0.528320 0.568646 0.193700
0.551057 0.569933 0.194987
0.573793 0.571219 0.196273
0.596529 0.572505 0.197559
0.619265 0.573791 0.198845
0.642002 0.575078 0.200132
0.664738 0.576364 0.201418
0.687474 0.577650 0.202704
0.710210 0.578936 0.203990
0.732947 0.580223 0.205277
0.755683 0.581509 0.206563
0.778419 0.582795 0.207849
0.801155 0.584081 0.209135
0.823891 0.585367 0.210421
0.846628 0.586654 0.211708
0.869364 0.587940 0.212994
0.892100 0.589226 0.214280
0.914836 0.590512 0.215566
0.937573 0.591799 0.216853
0.214340 0.576416 0.180020
0.237076 0.577702 0.181306
0.259813 0.578989 0.182593
0.282549 0.580275 0.183879
0.305285 0.581561 0.185165
0.328021 0.582847 0.186451
0.350758 0.584134 0.187738
0.373494 0.585420 0.189024
0.396230 0.586706 0.190310
0.418966 0.587992 0.191596
0.441702 0.589278 0.192882
0.464439 0.590565 0.194169
0.487175 0.591851 0.195455
0.509911 0.593137 0.196741
0.532647 0.594423 0.198027
0.555384 0.595710 0.199314
0.578120 0.596996 0.200600
0.600856 0.598282 0.201886
0.623592 0.599568 0.203172
0.646329 0.600855 0.204459
0.669065 0.602141 0.205745
0.691801 0.603427 0.207031
0.714537 0.604713 0.208317
0.737273 0.605999 0.209603
0.760010 0.607286 0.210890
0.782746 0.608572 0.212176
0.805482 0.609858 0.213462
0.828218 0.611144 0.214748
0.850955 0.612431 0.216035
0.873691 0.613717 0.217321
0.896427 0.615003 0.218607
0.919163 0.616289 0.219893
0.941900 0.617576 0.221180
0.218667 0.602193 0.184347
0.241403 0.603479 0.185633
0.264140 0.604766 0.186920
0.286876 0.606052 0.188206
0.309612 0.607338 0.189492
0.332348 0.608624 0.190778
0.355085 0.609911 0.192065
0.377821 0.611197 0.193351
0.400557 0.612483 0.194637
0.423293 0.613769 0.195923
0.446029 0.615055 0.197209
0.468766 0.616342 0.198496
0.491502 0.617628 0.199782
0.514238 0.618914 0.201068
0.536974 0.620200 0.202354
0.559711 0.621487 0.203641
0.582447 0.622773 0.204927
0.605183 0.624059 0.206213
0.627919 0.625345 0.207499
0.650656 0.626632 0.208786
0.673392 0.627918 0.210072
0.696128 0.629204 0.211358
0.718864 0.630490 0.212644
0.741600 0.631776 0.213930
0.764337 0.633063 0.215217
0.787073 0.634349 0.216503
0.809809 0.635635 0.217789
0.832545 0.636921 0.219075
0.855282 0.638208 0.220362
0.878018 0.639494 0.221648
0.900754 0.640780 0.222934
0.923490 0.642066 0.224220
0.946227 0.643353 0.225507
0.222994 0.627970 0.188674
0.245730 0.629256 0.189960
0.268467 0.630543 0.191247
0.291203 0.631829 0.192533
0.313939 0.633115 0.193819
0.336675 0.634401 0.195105
0.359411 0.635687 0.196391
0.382148 0.636974 0.197678
0.404884 0.638260 0.198964
0.427620 0.639546 0.200250
0.450356 0.640832 0.201536
0.473093 0.642119 0.202823
0.495829 0.643405 0.204109
0.518565 0.644691 0.205395
0.541301 0.645977 0.206681
0.564038 0.647264 0.207968
0.586774 0.648550 0.209254
0.609510 0.649836 0.210540
0.632246 0.651122 0.211826
0.654982 0.652408 0.213112
0.677719 0.653695 0.214399
0.700455 0.654981 0.215685
0.723191 0.656267 0.216971
0.745927 0.657553 0.218257
0.768664 0.658840 0.219544
0.791400 0.660126 0.220830
0.814136 0.661412 0.222116
0.836872 0.662698 0.223402
0.859609 0.663985 0.224689
0.882345 0.665271 0.225975
0.905081 0.666557 0.227261
0.927817 0.667843 0.228547
0.950553 0.669129 0.229833
0.227321 0.653747 0.193001
0.250057 0.655033 0.194287
0.272794 0.656320 0.195574
0.295530 0.657606 0.196860
0.318266 0.658892 0.198146
0.341002 0.660178 0.199432
0.363738 0.661464 0.200718
0.386475 0.662751 0.202005
0.409211 0.664037 0.203291
0.431947 0.665323 0.204577
0.454683 0.666609 0.205863
0.477420 0.667896 0.207150
0.500156 0.669182 0.208436
0.522892 0.670468 0.209722
0.545628 0.671754 0.211008
0.568365 0.673041 0.212295
0.591101 0.674327 0.213581
0.613837 0.675613 0.214867
0.636573 0.676899 0.216153
0.659309 0.678185 0.217439
0.682046 0.679472 0.218726
0.704782 0.680758 0.220012
0.727518 0.682044 0.221298
0.750254 0.683330 0.222584
0.772991 0.684617 0.223871
0.795727 0.685903 0.225157
0.818463 0.687189 0.226443
0.841199 0.688475 0.227729
0.863936 0.689762 0.229016
0.886672 0.691048 0.230302
0.909408 0.692334 0.231588
0.932144 0.693620 0.232874
0.954880 0.694906 0.234160
0.231648 0.679524 0.197328
0.254384 0.680810 0.198614
0.277120 0.682096 0.199900
0.299857 0.683383 0.201187
0.322593 0.684669 0.202473
0.345329 0.685955 0.203759
0.368065 0.687241 0.205045
0.390802 0.688528 0.206332
0.413538 0.689814 0.207618
0.436274 0.691100 0.208904
0.459010 0.692386 0.210190
0.481747 0.693673 0.211477
0.504483 0.694959 0.212763
0.527219 0.696245 0.214049
0.549955 0.697531 0.215335
0.572691 0.698817 0.216621
0.595428 0.700104 0.217908
0.618164 0.701390 0.219194
0.640900 0.702676 0.220480
0.663636 0.703962 0.221766
0.686373 0.705249 0.223053
0.709109 0.706535 0.224339
0.731845 0.707821 0.225625
0.754581 0.709107 0.226911
0.777318 0.710394 0.228198
0.800054 0.711680 0.229484
0.822790 0.712966 0.230770
0.845526 0.714252 0.232056
0.868262 0.715538 0.233342
0.890999 0.716825 0.234629
0.913735 0.718111 0.235915
0.936471 0.719397 0.237201
0.959207 0.720683 0.238487
0.235975 0.705301 0.201655
0.258711 0.706587 0.202941
0.281447 0.707873 0.204227
0.304184 0.709160 0.205514
0.326920 0.710446 0.206800
0.349656 0.711732 0.208086
0.372392 0.713018 0.209372
0.395129 0.714305 0.210659
0.417865 0.715591 0.211945
0.440601 0.716877 0.213231
0.463337 0.718163 0.214517
0.486074 0.719450 0.215804
0.508810 0.720736 0.217090
0.531546 0.722022 0.218376
0.554282 0.723308 0.219662
0.577018 0.724594 0.220948
0.599755 0.725881 0.222235
0.622491 0.727167 0.223521
0.645227 0.728453 0.224807
0.667963 0.729739 0.226093
0.690700 0.731026 0.227380
0.713436 0.732312 0.228666
0.736172 0.733598 0.229952
0.758908 0.734884 0.231238
0.781645 0.736171 0.232525
0.804381 0.737457 0.233811
0.827117 0.738743 0.235097
0.849853 0.740029 0.236383
0.872589 0.741315 0.237669
0.895326 0.742602 0.238956
0.918062 0.743888 0.240242
0.940798 0.745174 0.241528
0.963534 0.746460 0.242814
0.240302 0.731078 0.205982
0.263038 0.732364 0.207268
0.285774 0.733650 0.208554
0.308511 0.734937 0.209841
0.331247 0.736223 0.211127
0.353983 0.737509 0.212413
0.376719 0.738795 0.213699
0.399456 0.740082 0.214986
0.422192 0.741368 0.216272
0.444928 0.742654 0.217558
0.467664 0.743940 0.218844
0.490400 0.745226 0.220130
0.513137 0.746513 0.221417
0.535873 0.747799 0.222703
0.558609 0.749085 0.223989
0.581345 0.750371 0.225275
0.604082 0.751658 0.226562
0.626818 0.752944 0.227848
0.649554 0.754230 0.229134
0.672290 0.755516 0.230420
0.695027 0.756803 0.231707
0.717763 0.758089 0.232993
0.740499 0.759375 0.234279
0.763235 0.760661 0.235565
0.785971 0.761947 0.236851
0.808708 0.763234 0.238138
0.831444 0.764520 0.239424
0.854180 0.765806 0.240710
0.876916 0.767092 0.241996
0.899653 0.768379 0.243283
0.922389 0.769665 0.244569
0.945125 0.770951 0.245855
0.967861 0.772237 0.247141
0.244629 0.756855 0.210309
0.267365 0.758141 0.211595
0.290101 0.759427 0.212881
0.312838 0.760714 0.214168
0.335574 0.762000 0.215454
0.358310 0.763286 0.216740
0.381046 0.764572 0.218026
0.403783 0.765859 0.219313
0.426519 0.767145 0.220599
0.449255 0.768431 0.221885
0.471991 0.769717 0.223171
0.494727 0.771003 0.224457
0.517464 0.772290 0.225744
0.540200 0.773576 0.227030
0.562936 0.774862 0.228316
0.585672 0.776148 0.229602
0.608409 0.777435 0.230889
0.631145 0.778721 0.232175
0.653881 0.780007 0.233461
0.676617 0.781293 0.234747
0.699354 0.782580 0.236034
0.722090 0.783866 0.237320
0.744826 0.785152 0.238606
0.767562 0.786438 0.239892
0.790298 0.787724 0.241178
0.813035 0.789011 0.242465
0.835771 0.790297 0.243751
0.858507 0.791583 0.245037
0.881243 0.792869 0.246323
0.903980 0.794156 0.247610
0.926716 0.795442 0.248896
0.949452 0.796728 0.250182
0.972188 0.798014 0.251468
0.248956 0.782632 0.214636
0.271692 0.783918 0.215922
0.294428 0.785204 0.217208
0.317165 0.786491 0.218495
0.339901 0.787777 0.219781
0.362637 0.789063 0.221067
0.385373 0.790349 0.222353
0.408109 0.791635 0.223639
0.430846 0.792922 0.224926
0.453582 0.794208 0.226212
0.476318 0.795494 0.227498
0.499054 0.796780 0.228784
0.521791 0.798067 0.230071
0.544527 0.799353 0.231357
0.567263 0.800639 0.232643
0.589999 0.801925 0.233929
0.612736 0.803212 0.235216
0.635472 0.804498 0.236502
0.658208 0.805784 0.237788
0.680944 0.807070 0.239074
0.703680 0.808356 0.240360
0.726417 0.809643 0.241647
0.749153 0.810929 0.242933
0.771889 0.812215 0.244219
0.794625 0.813501 0.245505
0.817362 0.814788 0.246792
