app/src/main/assets/luts/Vintage_Fade.cube
TITLE "Vintage Fade"
# Generated by editclips.online — free to use
DOMAIN_MIN 0.0 0.0 0.0
DOMAIN_MAX 1.0 1.0 1.0
LUT_3D_SIZE 9
0.136455 0.112431 0.102135
0.227400 0.117576 0.107280
0.318345 0.122721 0.112425
0.409290 0.127866 0.117570
0.500235 0.133011 0.122715
0.591180 0.138156 0.127860
0.682124 0.143300 0.133004
0.773069 0.148445 0.138149
0.864014 0.153590 0.143294
0.153763 0.215539 0.119443
0.244708 0.220684 0.124588
0.335653 0.225829 0.129733
0.426598 0.230974 0.134878
0.517542 0.236118 0.140022
0.608487 0.241263 0.145167
0.699432 0.246408 0.150312
0.790377 0.251553 0.155457
0.881322 0.256698 0.160602
0.171071 0.318647 0.136751
0.262016 0.323792 0.141896
0.352960 0.328936 0.147040
0.443905 0.334081 0.152185
0.534850 0.339226 0.157330
0.625795 0.344371 0.162475
0.716740 0.349516 0.167620
0.807685 0.354661 0.172765
0.898630 0.359806 0.177910
0.188378 0.421754 0.154058
0.279323 0.426899 0.159203
0.370268 0.432044 0.164348
0.461213 0.437189 0.169493
0.552158 0.442334 0.174638
0.643103 0.447479 0.179783
0.734048 0.452624 0.184928
0.824993 0.457769 0.190073
0.915938 0.462914 0.195218
0.205686 0.524862 0.171366
0.296631 0.530007 0.176511
0.387576 0.535152 0.181656
0.478521 0.540297 0.186801
0.569466 0.545442 0.191946
0.660411 0.550587 0.197091
0.751356 0.555732 0.202236
0.842301 0.560877 0.207381
0.933246 0.566022 0.212526
0.222994 0.627970 0.188674
0.313939 0.633115 0.193819
0.404884 0.638260 0.198964
0.495829 0.643405 0.204109
0.586774 0.648550 0.209254
0.677719 0.653695 0.214399
0.768664 0.658840 0.219544
0.859609 0.663985 0.224689
0.950553 0.669129 0.229833
0.240302 0.731078 0.205982
0.331247 0.736223 0.211127
0.422192 0.741368 0.216272
0.513137 0.746513 0.221417
0.604082 0.751658 0.226562
0.695027 0.756803 0.231707
0.785971 0.761947 0.236851
0.876916 0.767092 0.241996
0.967861 0.772237 0.247141
0.257610 0.834186 0.223290
0.348555 0.839331 0.228435
0.439500 0.844476 0.233580
0.530445 0.849621 0.238725
0.621389 0.854765 0.243869
0.712334 0.859910 0.249014
0.803279 0.865055 0.254159
0.894224 0.870200 0.259304
0.985169 0.875345 0.264449
0.274918 0.937294 0.240598
0.365863 0.942439 0.245743
0.456807 0.947583 0.250887
0.547752 0.952728 0.256032
0.638697 0.957873 0.261177
0.729642 0.963018 0.266322
0.820587 0.968163 0.271467
0.911532 0.973308 0.276612
1.000000 0.978453 0.281757
0.138202 0.114178 0.189682
0.229147 0.119323 0.194827
0.320092 0.124468 0.199972
0.411037 0.129613 0.205117
0.501982 0.134758 0.210262
0.592927 0.139903 0.215407
0.683872 0.145048 0.220552
0.774817 0.150193 0.225697
0.865762 0.155338 0.230842
0.155510 0.217286 0.206990
0.246455 0.222431 0.212135
0.337400 0.227576 0.217280
0.428345 0.232721 0.222425
0.519290 0.237866 0.227570
0.610235 0.243011 0.232715
0.701180 0.248156 0.237860
0.792124 0.253300 0.243004
0.883069 0.258445 0.248149
0.172818 0.320394 0.224298
0.263763 0.325539 0.229443
0.354708 0.330684 0.234588
0.445653 0.335829 0.239733
0.536598 0.340974 0.244878
0.627542 0.346118 0.250022
0.718487 0.351263 0.255167
0.809432 0.356408 0.260312
0.900377 0.361553 0.265457
0.190126 0.423502 0.241606
0.281071 0.428647 0.246751
0.372016 0.433792 0.251896
0.462960 0.438936 0.257040
0.553905 0.444081 0.262185
0.644850 0.449226 0.267330
0.735795 0.454371 0.272475
0.826740 0.459516 0.277620
0.917685 0.464661 0.282765
0.207434 0.526610 0.258914
0.298378 0.531754 0.264058
0.389323 0.536899 0.269203
0.480268 0.542044 0.274348
0.571213 0.547189 0.279493
0.662158 0.552334 0.284638
0.753103 0.557479 0.289783
0.844048 0.562624 0.294928
0.934993 0.567769 0.300073
0.224741 0.629717 0.276221
0.315686 0.634862 0.281366
0.406631 0.640007 0.286511
0.497576 0.645152 0.291656
0.588521 0.650297 0.296801
0.679466 0.655442 0.301946
0.770411 0.660587 0.307091
0.861356 0.665732 0.312236
0.952301 0.670877 0.317381
0.242049 0.732825 0.293529
0.332994 0.737970 0.298674
0.423939 0.743115 0.303819
0.514884 0.748260 0.308964
0.605829 0.753405 0.314109
0.696774 0.758550 0.319254
0.787719 0.763695 0.324399
0.878664 0.768840 0.329544
0.969609 0.773985 0.334689
0.259357 0.835933 0.310837
0.350302 0.841078 0.315982
0.441247 0.846223 0.321127
0.532192 0.851368 0.326272
0.623137 0.856513 0.331417
0.714082 0.861658 0.336562
0.805027 0.866803 0.341707
0.895971 0.871947 0.346851
0.986916 0.877092 0.351996
0.276665 0.939041 0.328145
0.367610 0.944186 0.333290
0.458555 0.949331 0.338435
0.549500 0.954476 0.343580
0.640445 0.959621 0.348725
0.731389 0.964765 0.353869
0.822334 0.969910 0.359014
0.913279 0.975055 0.364159
1.000000 0.980200 0.369304
0.139949 0.115925 0.277229
0.230894 0.121070 0.282374
0.321839 0.126215 0.287519
0.412784 0.131360 0.292664
0.503729 0.136505 0.297809
0.594674 0.141650 0.302954
0.685619 0.146795 0.308099
0.776564 0.151940 0.313244
0.867509 0.157085 0.318389
0.157257 0.219033 0.294537
0.248202 0.224178 0.299682
0.339147 0.229323 0.304827
0.430092 0.234468 0.309972
0.521037 0.239613 0.315117
0.611982 0.244758 0.320262
0.702927 0.249903 0.325407
0.793872 0.255048 0.330552
0.884817 0.260193 0.335697
0.174565 0.322141 0.311845
0.265510 0.327286 0.316990
0.356455 0.332431 0.322135
0.447400 0.337576 0.327280
0.538345 0.342721 0.332425
0.629290 0.347866 0.337570
0.720235 0.353011 0.342715
0.811180 0.358156 0.347860
0.902124 0.363300 0.353004
0.191873 0.425249 0.329153
0.282818 0.430394 0.334298
0.373763 0.435539 0.339443
0.464708 0.440684 0.344588
0.555653 0.445829 0.349733
0.646598 0.450974 0.354878
0.737542 0.456118 0.360022
0.828487 0.461263 0.365167
0.919432 0.466408 0.370312
0.209181 0.528357 0.346461
0.300126 0.533502 0.351606
0.391071 0.538647 0.356751
0.482016 0.543792 0.361896
0.572960 0.548936 0.367040
0.663905 0.554081 0.372185
0.754850 0.559226 0.377330
0.845795 0.564371 0.382475
0.936740 0.569516 0.387620
0.226489 0.631465 0.363769
0.317434 0.636610 0.368914
0.408378 0.641754 0.374058
0.499323 0.646899 0.379203
0.590268 0.652044 0.384348
0.681213 0.657189 0.389493
0.772158 0.662334 0.394638
0.863103 0.667479 0.399783
0.954048 0.672624 0.404928
0.243796 0.734572 0.381076
0.334741 0.739717 0.386221
0.425686 0.744862 0.391366
0.516631 0.750007 0.396511
0.607576 0.755152 0.401656
0.698521 0.760297 0.406801
0.789466 0.765442 0.411946
0.880411 0.770587 0.417091
0.971356 0.775732 0.422236
0.261104 0.837680 0.398384
0.352049 0.842825 0.403529
0.442994 0.847970 0.408674
0.533939 0.853115 0.413819
0.624884 0.858260 0.418964
0.715829 0.863405 0.424109
0.806774 0.868550 0.429254
0.897719 0.873695 0.434399
0.988664 0.878840 0.439544
0.278412 0.940788 0.415692
0.369357 0.945933 0.420837
0.460302 0.951078 0.425982
0.551247 0.956223 0.431127
0.642192 0.961368 0.436272
0.733137 0.966513 0.441417
0.824082 0.971658 0.446562
0.915027 0.976803 0.451707
1.000000 0.981947 0.456851
0.141697 0.117673 0.364777
0.232642 0.122818 0.369922
0.323586 0.127962 0.375066
0.414531 0.133107 0.380211
0.505476 0.138252 0.385356
0.596421 0.143397 0.390501
0.687366 0.148542 0.395646
0.778311 0.153687 0.400791
0.869256 0.158832 0.405936
0.159004 0.220780 0.382084
0.249949 0.225925 0.387229
0.340894 0.231070 0.392374
0.431839 0.236215 0.397519
0.522784 0.241360 0.402664
0.613729 0.246505 0.407809
0.704674 0.251650 0.412954
0.795619 0.256795 0.418099
0.886564 0.261940 0.423244
0.176312 0.323888 0.399392
0.267257 0.329033 0.404537
0.358202 0.334178 0.409682
0.449147 0.339323 0.414827
0.540092 0.344468 0.419972
0.631037 0.349613 0.425117
0.721982 0.354758 0.430262
0.812927 0.359903 0.435407
0.903872 0.365048 0.440552
0.193620 0.426996 0.416700
0.284565 0.432141 0.421845
0.375510 0.437286 0.426990
0.466455 0.442431 0.432135
0.557400 0.447576 0.437280
0.648345 0.452721 0.442425
0.739290 0.457866 0.447570
0.830235 0.463011 0.452715
0.921180 0.468156 0.457860
0.210928 0.530104 0.434008
0.301873 0.535249 0.439153
0.392818 0.540394 0.444298
0.483763 0.545539 0.449443
0.574708 0.550684 0.454588
0.665653 0.555829 0.459733
0.756598 0.560974 0.464878
0.847542 0.566118 0.470022
0.938487 0.571263 0.475167
0.228236 0.633212 0.451316
0.319181 0.638357 0.456461
0.410126 0.643502 0.461606
0.501071 0.648647 0.466751
0.592016 0.653792 0.471896
0.682960 0.658936 0.477040
0.773905 0.664081 0.482185
0.864850 0.669226 0.487330
0.955795 0.674371 0.492475
0.245544 0.736320 0.468624
0.336489 0.741465 0.473769
0.427434 0.746610 0.478914
0.518378 0.751754 0.484058
0.609323 0.756899 0.489203
0.700268 0.762044 0.494348
0.791213 0.767189 0.499493
0.882158 0.772334 0.504638
0.973103 0.777479 0.509783
0.262852 0.839428 0.485932
0.353796 0.844572 0.491076
0.444741 0.849717 0.496221
0.535686 0.854862 0.501366
0.626631 0.860007 0.506511
0.717576 0.865152 0.511656
0.808521 0.870297 0.516801
0.899466 0.875442 0.521946
0.990411 0.880587 0.527091
0.280159 0.942535 0.503239
0.371104 0.947680 0.508384
0.462049 0.952825 0.513529
0.552994 0.957970 0.518674
0.643939 0.963115 0.523819
0.734884 0.968260 0.528964
0.825829 0.973405 0.534109
0.916774 0.978550 0.539254
1.000000 0.983695 0.544399
0.143444 0.119420 0.452324
0.234389 0.124565 0.457469
0.325334 0.129710 0.462614
0.416279 0.134855 0.467759
0.507224 0.140000 0.472904
0.598168 0.145144 0.478048
0.689113 0.150289 0.483193
0.780058 0.155434 0.488338
0.871003 0.160579 0.493483
0.160752 0.222528 0.469632
0.251697 0.227673 0.474777
0.342642 0.232818 0.479922
0.433586 0.237962 0.485066
0.524531 0.243107 0.490211
0.615476 0.248252 0.495356
0.706421 0.253397 0.500501
0.797366 0.258542 0.505646
0.888311 0.263687 0.510791
0.178060 0.325636 0.486940
0.269004 0.330780 0.492084
0.359949 0.335925 0.497229
0.450894 0.341070 0.502374
0.541839 0.346215 0.507519
0.632784 0.351360 0.512664
0.723729 0.356505 0.517809
0.814674 0.361650 0.522954
0.905619 0.366795 0.528099
0.195367 0.428743 0.504247
0.286312 0.433888 0.509392
0.377257 0.439033 0.514537
0.468202 0.444178 0.519682
0.559147 0.449323 0.524827
0.650092 0.454468 0.529972
0.741037 0.459613 0.535117
0.831982 0.464758 0.540262
0.922927 0.469903 0.545407
0.212675 0.531851 0.521555
0.303620 0.536996 0.526700
0.394565 0.542141 0.531845
0.485510 0.547286 0.536990
0.576455 0.552431 0.542135
0.667400 0.557576 0.547280
0.758345 0.562721 0.552425
0.849290 0.567866 0.557570
0.940235 0.573011 0.562715
0.229983 0.634959 0.538863
0.320928 0.640104 0.544008
0.411873 0.645249 0.549153
0.502818 0.650394 0.554298
0.593763 0.655539 0.559443
0.684708 0.660684 0.564588
0.775653 0.665829 0.569733
0.866598 0.670974 0.574878
0.957542 0.676118 0.580022
0.247291 0.738067 0.556171
0.338236 0.743212 0.561316
0.429181 0.748357 0.566461
0.520126 0.753502 0.571606
0.611071 0.758647 0.576751
0.702016 0.763792 0.581896
0.792960 0.768936 0.587040
0.883905 0.774081 0.592185
0.974850 0.779226 0.597330
0.264599 0.841175 0.573479
0.355544 0.846320 0.578624
0.446489 0.851465 0.583769
0.537434 0.856610 0.588914
0.628378 0.861754 0.594058
0.719323 0.866899 0.599203
0.810268 0.872044 0.604348
0.901213 0.877189 0.609493
0.992158 0.882334 0.614638
0.281907 0.944283 0.590787
0.372852 0.949428 0.595932
0.463796 0.954572 0.601076
0.554741 0.959717 0.606221
0.645686 0.964862 0.611366
0.736631 0.970007 0.616511
0.827576 0.975152 0.621656
0.918521 0.980297 0.626801
1.000000 0.985442 0.631946
0.145191 0.121167 0.539871
0.236136 0.126312 0.545016
0.327081 0.131457 0.550161
0.418026 0.136602 0.555306
0.508971 0.141747 0.560451
0.599916 0.146892 0.565596
0.690861 0.152037 0.570741
0.781806 0.157182 0.575886
0.872750 0.162326 0.581030
0.162499 0.224275 0.557179
0.253444 0.229420 0.562324
0.344389 0.234565 0.567469
0.435334 0.239710 0.572614
0.526279 0.244855 0.577759
0.617224 0.250000 0.582904
0.708168 0.255144 0.588048
0.799113 0.260289 0.593193
0.890058 0.265434 0.598338
0.179807 0.327383 0.574487
0.270752 0.332528 0.579632
0.361697 0.337673 0.584777
0.452642 0.342818 0.589922
0.543586 0.347962 0.595066
0.634531 0.353107 0.600211
0.725476 0.358252 0.605356
0.816421 0.363397 0.610501
0.907366 0.368542 0.615646
0.197115 0.430491 0.591795
0.288060 0.435636 0.596940
0.379004 0.440780 0.602084
0.469949 0.445925 0.607229
0.560894 0.451070 0.612374
0.651839 0.456215 0.617519
0.742784 0.461360 0.622664
0.833729 0.466505 0.627809
0.924674 0.471650 0.632954
0.214422 0.533598 0.609102
0.305367 0.538743 0.614247
0.396312 0.543888 0.619392
0.487257 0.549033 0.624537
0.578202 0.554178 0.629682
0.669147 0.559323 0.634827
0.760092 0.564468 0.639972
0.851037 0.569613 0.645117
0.941982 0.574758 0.650262
0.231730 0.636706 0.626410
0.322675 0.641851 0.631555
0.413620 0.646996 0.636700
0.504565 0.652141 0.641845
0.595510 0.657286 0.646990
0.686455 0.662431 0.652135
0.777400 0.667576 0.657280
0.868345 0.672721 0.662425
0.959290 0.677866 0.667570
0.249038 0.739814 0.643718
0.339983 0.744959 0.648863
0.430928 0.750104 0.654008
0.521873 0.755249 0.659153
0.612818 0.760394 0.664298
0.703763 0.765539 0.669443
0.794708 0.770684 0.674588
0.885653 0.775829 0.679733
0.976598 0.780974 0.684878
0.266346 0.842922 0.661026
0.357291 0.848067 0.666171
0.448236 0.853212 0.671316
0.539181 0.858357 0.676461
0.630126 0.863502 0.681606
0.721071 0.868647 0.686751
0.812016 0.873792 0.691896
0.902960 0.878936 0.697040
0.993905 0.884081 0.702185
0.283654 0.946030 0.678334
0.374599 0.951175 0.683479
0.465544 0.956320 0.688624
0.556489 0.961465 0.693769
0.647434 0.966610 0.698914
0.738378 0.971754 0.704058
0.829323 0.976899 0.709203
0.920268 0.982044 0.714348
1.000000 0.987189 0.719493
0.146938 0.122914 0.627418
0.237883 0.128059 0.632563
0.328828 0.133204 0.637708
0.419773 0.138349 0.642853
0.510718 0.143494 0.647998
0.601663 0.148639 0.653143
0.692608 0.153784 0.658288
0.783553 0.158929 0.663433
0.874498 0.164074 0.668578
0.164246 0.226022 0.644726
0.255191 0.231167 0.649871
0.346136 0.236312 0.655016
0.437081 0.241457 0.660161
0.528026 0.246602 0.665306
0.618971 0.251747 0.670451
0.709916 0.256892 0.675596
0.800861 0.262037 0.680741
0.891806 0.267182 0.685886
0.181554 0.329130 0.662034
0.272499 0.334275 0.667179
0.363444 0.339420 0.672324
0.454389 0.344565 0.677469
0.545334 0.349710 0.682614
0.636279 0.354855 0.687759
0.727224 0.360000 0.692904
0.818168 0.365144 0.698048
0.909113 0.370289 0.703193
0.198862 0.432238 0.679342
0.289807 0.437383 0.684487
0.380752 0.442528 0.689632
0.471697 0.447673 0.694777
0.562642 0.452818 0.699922
0.653586 0.457962 0.705066
0.744531 0.463107 0.710211
0.835476 0.468252 0.715356
0.926421 0.473397 0.720501
0.216170 0.535346 0.696650
0.307115 0.540491 0.701795
0.398060 0.545636 0.706940
0.489004 0.550780 0.712084
0.579949 0.555925 0.717229
0.670894 0.561070 0.722374
0.761839 0.566215 0.727519
0.852784 0.571360 0.732664
0.943729 0.576505 0.737809
0.233478 0.638454 0.713958
0.324422 0.643598 0.719102
0.415367 0.648743 0.724247
0.506312 0.653888 0.729392
0.597257 0.659033 0.734537
0.688202 0.664178 0.739682
0.779147 0.669323 0.744827
0.870092 0.674468 0.749972
0.961037 0.679613 0.755117
0.250785 0.741561 0.731265
0.341730 0.746706 0.736410
0.432675 0.751851 0.741555
0.523620 0.756996 0.746700
0.614565 0.762141 0.751845
0.705510 0.767286 0.756990
0.796455 0.772431 0.762135
0.887400 0.777576 0.767280
0.978345 0.782721 0.772425
0.268093 0.844669 0.748573
0.359038 0.849814 0.753718
0.449983 0.854959 0.758863
0.540928 0.860104 0.764008
0.631873 0.865249 0.769153
0.722818 0.870394 0.774298
0.813763 0.875539 0.779443
0.904708 0.880684 0.784588
0.995653 0.885829 0.789733
0.285401 0.947777 0.765881
0.376346 0.952922 0.771026
0.467291 0.958067 0.776171
0.558236 0.963212 0.781316
0.649181 0.968357 0.786461
0.740126 0.973502 0.791606
0.831071 0.978647 0.796751
0.922016 0.983792 0.801896
1.000000 0.988936 0.807040
0.148686 0.124662 0.714966
0.239631 0.129807 0.720111
0.330575 0.134951 0.725255
0.421520 0.140096 0.730400
0.512465 0.145241 0.735545
0.603410 0.150386 0.740690
0.694355 0.155531 0.745835
0.785300 0.160676 0.750980
0.876245 0.165821 0.756125
0.165993 0.227769 0.732273
0.256938 0.232914 0.737418
0.347883 0.238059 0.742563
0.438828 0.243204 0.747708
0.529773 0.248349 0.752853
0.620718 0.253494 0.757998
0.711663 0.258639 0.763143
0.802608 0.263784 0.768288
0.893553 0.268929 0.773433
0.183301 0.330877 0.749581
0.274246 0.336022 0.754726
0.365191 0.341167 0.759871
0.456136 0.346312 0.765016
0.547081 0.351457 0.770161
0.638026 0.356602 0.775306
0.728971 0.361747 0.780451
0.819916 0.366892 0.785596
0.910861 0.372037 0.790741
0.200609 0.433985 0.766889
0.291554 0.439130 0.772034
0.382499 0.444275 0.777179
0.473444 0.449420 0.782324
0.564389 0.454565 0.787469
0.655334 0.459710 0.792614
0.746279 0.464855 0.797759
0.837224 0.470000 0.802904
0.928168 0.475144 0.808048
0.217917 0.537093 0.784197
0.308862 0.542238 0.789342
0.399807 0.547383 0.794487
0.490752 0.552528 0.799632
0.581697 0.557673 0.804777
0.672642 0.562818 0.809922
0.763586 0.567962 0.815066
0.854531 0.573107 0.820211
0.945476 0.578252 0.825356
0.235225 0.640201 0.801505
0.326170 0.645346 0.806650
0.417115 0.650491 0.811795
0.508060 0.655636 0.816940
0.599004 0.660780 0.822084
0.689949 0.665925 0.827229
0.780894 0.671070 0.832374
0.871839 0.676215 0.837519
0.962784 0.681360 0.842664
0.252533 0.743309 0.818813
0.343478 0.748454 0.823958
0.434422 0.753598 0.829102
0.525367 0.758743 0.834247
0.616312 0.763888 0.839392
0.707257 0.769033 0.844537
0.798202 0.774178 0.849682
0.889147 0.779323 0.854827
0.980092 0.784468 0.859972
0.269840 0.846416 0.836120
0.360785 0.851561 0.841265
0.451730 0.856706 0.846410
0.542675 0.861851 0.851555
0.633620 0.866996 0.856700
0.724565 0.872141 0.861845
0.815510 0.877286 0.866990
0.906455 0.882431 0.872135
0.997400 0.887576 0.877280
0.287148 0.949524 0.853428
0.378093 0.954669 0.858573
0.469038 0.959814 0.863718
0.559983 0.964959 0.868863
0.650928 0.970104 0.874008
0.741873 0.975249 0.879153
0.832818 0.980394 0.884298
0.923763 0.985539 0.889443
1.000000 0.990684 0.894588
0.150433 0.126409 0.802513
0.241378 0.131554 0.807658
0.332323 0.136699 0.812803
0.423268 0.141844 0.817948
0.514213 0.146989 0.823093
0.605157 0.152133 0.828237
0.696102 0.157278 0.833382
0.787047 0.162423 0.838527
0.877992 0.167568 0.843672
0.167741 0.229517 0.819821
0.258686 0.234662 0.824966
0.349631 0.239807 0.830111
0.440575 0.244951 0.835255
0.531520 0.250096 0.840400
0.622465 0.255241 0.845545
0.713410 0.260386 0.850690
0.804355 0.265531 0.855835
0.895300 0.270676 0.860980
0.185049 0.332625 0.837129
0.275993 0.337769 0.842273
0.366938 0.342914 0.847418
0.457883 0.348059 0.852563
0.548828 0.353204 0.857708
0.639773 0.358349 0.862853
0.730718 0.363494 0.867998
0.821663 0.368639 0.873143
0.912608 0.373784 0.878288
0.202356 0.435732 0.854436
0.293301 0.440877 0.859581
0.384246 0.446022 0.864726
0.475191 0.451167 0.869871
0.566136 0.456312 0.875016
0.657081 0.461457 0.880161
0.748026 0.466602 0.885306
0.838971 0.471747 0.890451
0.929916 0.476892 0.895596
0.219664 0.538840 0.871744
0.310609 0.543985 0.876889
0.401554 0.549130 0.882034
0.492499 0.554275 0.887179
0.583444 0.559420 0.892324
0.674389 0.564565 0.897469
0.765334 0.569710 0.902614
0.856279 0.574855 0.907759
0.947224 0.580000 0.912904
0.236972 0.641948 0.889052
0.327917 0.647093 0.894197
0.418862 0.652238 0.899342
0.509807 0.657383 0.904487
0.600752 0.662528 0.909632
0.691697 0.667673 0.914777
0.782642 0.672818 0.919922
0.873586 0.677962 0.925066
0.964531 0.683107 0.930211
0.254280 0.745056 0.906360
0.345225 0.750201 0.911505
0.436170 0.755346 0.916650
0.527115 0.760491 0.921795
0.618060 0.765636 0.926940
0.709004 0.770780 0.932084
0.799949 0.775925 0.937229
0.890894 0.781070 0.942374
0.981839 0.786215 0.947519
0.271588 0.848164 0.923668
0.362533 0.853309 0.928813
0.453478 0.858454 0.933958
0.544422 0.863598 0.939102
0.635367 0.868743 0.944247
0.726312 0.873888 0.949392
0.817257 0.879033 0.954537
0.908202 0.884178 0.959682
0.999147 0.889323 0.964827
0.288896 0.951272 0.940976
0.379840 0.956416 0.946120
0.470785 0.961561 0.951265
0.561730 0.966706 0.956410
0.652675 0.971851 0.961555
0.743620 0.976996 0.966700
0.834565 0.982141 0.971845
0.925510 0.987286 0.976990
1.000000 0.992431 0.982135
