app/src/main/assets/luts/Vintage_Fade.cube
TITLE "Vintage Fade"
# Generated by editclips.online — free to use
DOMAIN_MIN 0.0 0.0 0.0
DOMAIN_MAX 1.0 1.0 1.0
LUT_3D_SIZE 5
0.136455 0.112431 0.102135
0.318345 0.122721 0.112425
0.500235 0.133011 0.122715
0.682124 0.143300 0.133004
0.864014 0.153590 0.143294
0.171071 0.318647 0.136751
0.352960 0.328936 0.147040
0.534850 0.339226 0.157330
0.716740 0.349516 0.167620
0.898630 0.359806 0.177910
0.205686 0.524862 0.171366
0.387576 0.535152 0.181656
0.569466 0.545442 0.191946
0.751356 0.555732 0.202236
0.933246 0.566022 0.212526
0.240302 0.731078 0.205982
0.422192 0.741368 0.216272
0.604082 0.751658 0.226562
0.785971 0.761947 0.236851
0.967861 0.772237 0.247141
0.274918 0.937294 0.240598
0.456807 0.947583 0.250887
0.638697 0.957873 0.261177
0.820587 0.968163 0.271467
1.000000 0.978453 0.281757
0.139949 0.115925 0.277229
0.321839 0.126215 0.287519
0.503729 0.136505 0.297809
0.685619 0.146795 0.308099
0.867509 0.157085 0.318389
0.174565 0.322141 0.311845
0.356455 0.332431 0.322135
0.538345 0.342721 0.332425
0.720235 0.353011 0.342715
0.902124 0.363300 0.353004
0.209181 0.528357 0.346461
0.391071 0.538647 0.356751
0.572960 0.548936 0.367040
0.754850 0.559226 0.377330
0.936740 0.569516 0.387620
0.243796 0.734572 0.381076
0.425686 0.744862 0.391366
0.607576 0.755152 0.401656
0.789466 0.765442 0.411946
0.971356 0.775732 0.422236
0.278412 0.940788 0.415692
0.460302 0.951078 0.425982
0.642192 0.961368 0.436272
0.824082 0.971658 0.446562
1.000000 0.981947 0.456851
0.143444 0.119420 0.452324
0.325334 0.129710 0.462614
0.507224 0.140000 0.472904
0.689113 0.150289 0.483193
0.871003 0.160579 0.493483
0.178060 0.325636 0.486940
0.359949 0.335925 0.497229
0.541839 0.346215 0.507519
0.723729 0.356505 0.517809
0.905619 0.366795 0.528099
0.212675 0.531851 0.521555
0.394565 0.542141 0.531845
0.576455 0.552431 0.542135
0.758345 0.562721 0.552425
0.940235 0.573011 0.562715
0.247291 0.738067 0.556171
0.429181 0.748357 0.566461
0.611071 0.758647 0.576751
0.792960 0.768936 0.587040
0.974850 0.779226 0.597330
0.281907 0.944283 0.590787
0.463796 0.954572 0.601076
0.645686 0.964862 0.611366
0.827576 0.975152 0.621656
1.000000 0.985442 0.631946
0.146938 0.122914 0.627418
0.328828 0.133204 0.637708
0.510718 0.143494 0.647998
0.692608 0.153784 0.658288
0.874498 0.164074 0.668578
0.181554 0.329130 0.662034
0.363444 0.339420 0.672324
0.545334 0.349710 0.682614
0.727224 0.360000 0.692904
0.909113 0.370289 0.703193
0.216170 0.535346 0.696650
0.398060 0.545636 0.706940
0.579949 0.555925 0.717229
0.761839 0.566215 0.727519
0.943729 0.576505 0.737809
0.250785 0.741561 0.731265
0.432675 0.751851 0.741555
0.614565 0.762141 0.751845
0.796455 0.772431 0.762135
0.978345 0.782721 0.772425
0.285401 0.947777 0.765881
0.467291 0.958067 0.776171
0.649181 0.968357 0.786461
0.831071 0.978647 0.796751
1.000000 0.988936 0.807040
0.150433 0.126409 0.802513
0.332323 0.136699 0.812803
0.514213 0.146989 0.823093
0.696102 0.157278 0.833382
0.877992 0.167568 0.843672
0.185049 0.332625 0.837129
0.366938 0.342914 0.847418
0.548828 0.353204 0.857708
0.730718 0.363494 0.867998
0.912608 0.373784 0.878288
0.219664 0.538840 0.871744
0.401554 0.549130 0.882034
0.583444 0.559420 0.892324
0.765334 0.569710 0.902614
0.947224 0.580000 0.912904
0.254280 0.745056 0.906360
0.436170 0.755346 0.916650
0.618060 0.765636 0.926940
0.799949 0.775925 0.937229
0.981839 0.786215 0.947519
0.288896 0.951272 0.940976
0.470785 0.961561 0.951265
0.652675 0.971851 0.961555
0.834565 0.982141 0.971845
1.000000 0.992431 0.982135
