app/src/main/assets/luts/Warm_Film.cube
TITLE "Warm Film"
# Generated by editclips.online — free to use
DOMAIN_MIN 0.0 0.0 0.0
DOMAIN_MAX 1.0 1.0 1.0
LUT_3D_SIZE 9
0.083250 0.042400 0.016750
0.187973 0.042400 0.016750
0.304719 0.042400 0.016750
0.429480 0.042400 0.016750
0.558250 0.042400 0.016750
0.687020 0.042400 0.016750
0.811781 0.042400 0.016750
0.928527 0.042400 0.016750
1.000000 0.042400 0.016750
0.083250 0.147123 0.016750
0.187973 0.147123 0.016750
0.304719 0.147123 0.016750
0.429480 0.147123 0.016750
0.558250 0.147123 0.016750
0.687020 0.147123 0.016750
0.811781 0.147123 0.016750
0.928527 0.147123 0.016750
1.000000 0.147123 0.016750
0.083250 0.263869 0.016750
0.187973 0.263869 0.016750
0.304719 0.263869 0.016750
0.429480 0.263869 0.016750
0.558250 0.263869 0.016750
0.687020 0.263869 0.016750
0.811781 0.263869 0.016750
0.928527 0.263869 0.016750
1.000000 0.263869 0.016750
0.083250 0.388630 0.016750
0.187973 0.388630 0.016750
0.304719 0.388630 0.016750
0.429480 0.388630 0.016750
0.558250 0.388630 0.016750
0.687020 0.388630 0.016750
0.811781 0.388630 0.016750
0.928527 0.388630 0.016750
1.000000 0.388630 0.016750
0.083250 0.517400 0.016750
0.187973 0.517400 0.016750
0.304719 0.517400 0.016750
0.429480 0.517400 0.016750
0.558250 0.517400 0.016750
0.687020 0.517400 0.016750
0.811781 0.517400 0.016750
0.928527 0.517400 0.016750
1.000000 0.517400 0.016750
0.083250 0.646170 0.016750
0.187973 0.646170 0.016750
0.304719 0.646170 0.016750
0.429480 0.646170 0.016750
0.558250 0.646170 0.016750
0.687020 0.646170 0.016750
0.811781 0.646170 0.016750
0.928527 0.646170 0.016750
1.000000 0.646170 0.016750
0.083250 0.770931 0.016750
0.187973 0.770931 0.016750
0.304719 0.770931 0.016750
0.429480 0.770931 0.016750
0.558250 0.770931 0.016750
0.687020 0.770931 0.016750
0.811781 0.770931 0.016750
0.928527 0.770931 0.016750
1.000000 0.770931 0.016750
0.083250 0.887677 0.016750
0.187973 0.887677 0.016750
0.304719 0.887677 0.016750
0.429480 0.887677 0.016750
0.558250 0.887677 0.016750
0.687020 0.887677 0.016750
0.811781 0.887677 0.016750
0.928527 0.887677 0.016750
1.000000 0.887677 0.016750
0.083250 0.992400 0.016750
0.187973 0.992400 0.016750
0.304719 0.992400 0.016750
0.429480 0.992400 0.016750
0.558250 0.992400 0.016750
0.687020 0.992400 0.016750
0.811781 0.992400 0.016750
0.928527 0.992400 0.016750
1.000000 0.992400 0.016750
0.083250 0.042400 0.121473
0.187973 0.042400 0.121473
0.304719 0.042400 0.121473
0.429480 0.042400 0.121473
0.558250 0.042400 0.121473
0.687020 0.042400 0.121473
0.811781 0.042400 0.121473
0.928527 0.042400 0.121473
1.000000 0.042400 0.121473
0.083250 0.147123 0.121473
0.187973 0.147123 0.121473
0.304719 0.147123 0.121473
0.429480 0.147123 0.121473
0.558250 0.147123 0.121473
0.687020 0.147123 0.121473
0.811781 0.147123 0.121473
0.928527 0.147123 0.121473
1.000000 0.147123 0.121473
0.083250 0.263869 0.121473
0.187973 0.263869 0.121473
0.304719 0.263869 0.121473
0.429480 0.263869 0.121473
0.558250 0.263869 0.121473
0.687020 0.263869 0.121473
0.811781 0.263869 0.121473
0.928527 0.263869 0.121473
1.000000 0.263869 0.121473
0.083250 0.388630 0.121473
0.187973 0.388630 0.121473
0.304719 0.388630 0.121473
0.429480 0.388630 0.121473
0.558250 0.388630 0.121473
0.687020 0.388630 0.121473
0.811781 0.388630 0.121473
0.928527 0.388630 0.121473
1.000000 0.388630 0.121473
0.083250 0.517400 0.121473
0.187973 0.517400 0.121473
0.304719 0.517400 0.121473
0.429480 0.517400 0.121473
0.558250 0.517400 0.121473
0.687020 0.517400 0.121473
0.811781 0.517400 0.121473
0.928527 0.517400 0.121473
1.000000 0.517400 0.121473
0.083250 0.646170 0.121473
0.187973 0.646170 0.121473
0.304719 0.646170 0.121473
0.429480 0.646170 0.121473
0.558250 0.646170 0.121473
0.687020 0.646170 0.121473
0.811781 0.646170 0.121473
0.928527 0.646170 0.121473
1.000000 0.646170 0.121473
0.083250 0.770931 0.121473
0.187973 0.770931 0.121473
0.304719 0.770931 0.121473
0.429480 0.770931 0.121473
0.558250 0.770931 0.121473
0.687020 0.770931 0.121473
0.811781 0.770931 0.121473
0.928527 0.770931 0.121473
1.000000 0.770931 0.121473
0.083250 0.887677 0.121473
0.187973 0.887677 0.121473
0.304719 0.887677 0.121473
0.429480 0.887677 0.121473
0.558250 0.887677 0.121473
0.687020 0.887677 0.121473
0.811781 0.887677 0.121473
0.928527 0.887677 0.121473
1.000000 0.887677 0.121473
0.083250 0.992400 0.121473
0.187973 0.992400 0.121473
0.304719 0.992400 0.121473
0.429480 0.992400 0.121473
0.558250 0.992400 0.121473
0.687020 0.992400 0.121473
0.811781 0.992400 0.121473
0.928527 0.992400 0.121473
1.000000 0.992400 0.121473
0.083250 0.042400 0.238219
0.187973 0.042400 0.238219
0.304719 0.042400 0.238219
0.429480 0.042400 0.238219
0.558250 0.042400 0.238219
0.687020 0.042400 0.238219
0.811781 0.042400 0.238219
0.928527 0.042400 0.238219
1.000000 0.042400 0.238219
0.083250 0.147123 0.238219
0.187973 0.147123 0.238219
0.304719 0.147123 0.238219
0.429480 0.147123 0.238219
0.558250 0.147123 0.238219
0.687020 0.147123 0.238219
0.811781 0.147123 0.238219
0.928527 0.147123 0.238219
1.000000 0.147123 0.238219
0.083250 0.263869 0.238219
0.187973 0.263869 0.238219
0.304719 0.263869 0.238219
0.429480 0.263869 0.238219
0.558250 0.263869 0.238219
0.687020 0.263869 0.238219
0.811781 0.263869 0.238219
0.928527 0.263869 0.238219
1.000000 0.263869 0.238219
0.083250 0.388630 0.238219
0.187973 0.388630 0.238219
0.304719 0.388630 0.238219
0.429480 0.388630 0.238219
0.558250 0.388630 0.238219
0.687020 0.388630 0.238219
0.811781 0.388630 0.238219
0.928527 0.388630 0.238219
1.000000 0.388630 0.238219
0.083250 0.517400 0.238219
0.187973 0.517400 0.238219
0.304719 0.517400 0.238219
0.429480 0.517400 0.238219
0.558250 0.517400 0.238219
0.687020 0.517400 0.238219
0.811781 0.517400 0.238219
0.928527 0.517400 0.238219
1.000000 0.517400 0.238219
0.083250 0.646170 0.238219
0.187973 0.646170 0.238219
0.304719 0.646170 0.238219
0.429480 0.646170 0.238219
0.558250 0.646170 0.238219
0.687020 0.646170 0.238219
0.811781 0.646170 0.238219
0.928527 0.646170 0.238219
1.000000 0.646170 0.238219
0.083250 0.770931 0.238219
0.187973 0.770931 0.238219
0.304719 0.770931 0.238219
0.429480 0.770931 0.238219
0.558250 0.770931 0.238219
0.687020 0.770931 0.238219
0.811781 0.770931 0.238219
0.928527 0.770931 0.238219
1.000000 0.770931 0.238219
0.083250 0.887677 0.238219
0.187973 0.887677 0.238219
0.304719 0.887677 0.238219
0.429480 0.887677 0.238219
0.558250 0.887677 0.238219
0.687020 0.887677 0.238219
0.811781 0.887677 0.238219
0.928527 0.887677 0.238219
1.000000 0.887677 0.238219
0.083250 0.992400 0.238219
0.187973 0.992400 0.238219
0.304719 0.992400 0.238219
0.429480 0.992400 0.238219
0.558250 0.992400 0.238219
0.687020 0.992400 0.238219
0.811781 0.992400 0.238219
0.928527 0.992400 0.238219
1.000000 0.992400 0.238219
0.083250 0.042400 0.362980
0.187973 0.042400 0.362980
0.304719 0.042400 0.362980
0.429480 0.042400 0.362980
0.558250 0.042400 0.362980
0.687020 0.042400 0.362980
0.811781 0.042400 0.362980
0.928527 0.042400 0.362980
1.000000 0.042400 0.362980
0.083250 0.147123 0.362980
0.187973 0.147123 0.362980
0.304719 0.147123 0.362980
0.429480 0.147123 0.362980
0.558250 0.147123 0.362980
0.687020 0.147123 0.362980
0.811781 0.147123 0.362980
0.928527 0.147123 0.362980
1.000000 0.147123 0.362980
0.083250 0.263869 0.362980
0.187973 0.263869 0.362980
0.304719 0.263869 0.362980
0.429480 0.263869 0.362980
0.558250 0.263869 0.362980
0.687020 0.263869 0.362980
0.811781 0.263869 0.362980
0.928527 0.263869 0.362980
1.000000 0.263869 0.362980
0.083250 0.388630 0.362980
0.187973 0.388630 0.362980
0.304719 0.388630 0.362980
0.429480 0.388630 0.362980
0.558250 0.388630 0.362980
0.687020 0.388630 0.362980
0.811781 0.388630 0.362980
0.928527 0.388630 0.362980
1.000000 0.388630 0.362980
0.083250 0.517400 0.362980
0.187973 0.517400 0.362980
0.304719 0.517400 0.362980
0.429480 0.517400 0.362980
0.558250 0.517400 0.362980
0.687020 0.517400 0.362980
0.811781 0.517400 0.362980
0.928527 0.517400 0.362980
1.000000 0.517400 0.362980
0.083250 0.646170 0.362980
0.187973 0.646170 0.362980
0.304719 0.646170 0.362980
0.429480 0.646170 0.362980
0.558250 0.646170 0.362980
0.687020 0.646170 0.362980
0.811781 0.646170 0.362980
0.928527 0.646170 0.362980
1.000000 0.646170 0.362980
0.083250 0.770931 0.362980
0.187973 0.770931 0.362980
0.304719 0.770931 0.362980
0.429480 0.770931 0.362980
0.558250 0.770931 0.362980
0.687020 0.770931 0.362980
0.811781 0.770931 0.362980
0.928527 0.770931 0.362980
1.000000 0.770931 0.362980
0.083250 0.887677 0.362980
0.187973 0.887677 0.362980
0.304719 0.887677 0.362980
0.429480 0.887677 0.362980
0.558250 0.887677 0.362980
0.687020 0.887677 0.362980
0.811781 0.887677 0.362980
0.928527 0.887677 0.362980
1.000000 0.887677 0.362980
0.083250 0.992400 0.362980
0.187973 0.992400 0.362980
0.304719 0.992400 0.362980
0.429480 0.992400 0.362980
0.558250 0.992400 0.362980
0.687020 0.992400 0.362980
0.811781 0.992400 0.362980
0.928527 0.992400 0.362980
1.000000 0.992400 0.362980
0.083250 0.042400 0.491750
0.187973 0.042400 0.491750
0.304719 0.042400 0.491750
0.429480 0.042400 0.491750
0.558250 0.042400 0.491750
0.687020 0.042400 0.491750
0.811781 0.042400 0.491750
0.928527 0.042400 0.491750
1.000000 0.042400 0.491750
0.083250 0.147123 0.491750
0.187973 0.147123 0.491750
0.304719 0.147123 0.491750
0.429480 0.147123 0.491750
0.558250 0.147123 0.491750
0.687020 0.147123 0.491750
0.811781 0.147123 0.491750
0.928527 0.147123 0.491750
1.000000 0.147123 0.491750
0.083250 0.263869 0.491750
0.187973 0.263869 0.491750
0.304719 0.263869 0.491750
0.429480 0.263869 0.491750
0.558250 0.263869 0.491750
0.687020 0.263869 0.491750
0.811781 0.263869 0.491750
0.928527 0.263869 0.491750
1.000000 0.263869 0.491750
0.083250 0.388630 0.491750
0.187973 0.388630 0.491750
0.304719 0.388630 0.491750
0.429480 0.388630 0.491750
0.558250 0.388630 0.491750
0.687020 0.388630 0.491750
0.811781 0.388630 0.491750
0.928527 0.388630 0.491750
1.000000 0.388630 0.491750
0.083250 0.517400 0.491750
0.187973 0.517400 0.491750
0.304719 0.517400 0.491750
0.429480 0.517400 0.491750
0.558250 0.517400 0.491750
0.687020 0.517400 0.491750
0.811781 0.517400 0.491750
0.928527 0.517400 0.491750
1.000000 0.517400 0.491750
0.083250 0.646170 0.491750
0.187973 0.646170 0.491750
0.304719 0.646170 0.491750
0.429480 0.646170 0.491750
0.558250 0.646170 0.491750
0.687020 0.646170 0.491750
0.811781 0.646170 0.491750
0.928527 0.646170 0.491750
1.000000 0.646170 0.491750
0.083250 0.770931 0.491750
0.187973 0.770931 0.491750
0.304719 0.770931 0.491750
0.429480 0.770931 0.491750
0.558250 0.770931 0.491750
0.687020 0.770931 0.491750
0.811781 0.770931 0.491750
0.928527 0.770931 0.491750
1.000000 0.770931 0.491750
0.083250 0.887677 0.491750
0.187973 0.887677 0.491750
0.304719 0.887677 0.491750
0.429480 0.887677 0.491750
0.558250 0.887677 0.491750
0.687020 0.887677 0.491750
0.811781 0.887677 0.491750
0.928527 0.887677 0.491750
1.000000 0.887677 0.491750
0.083250 0.992400 0.491750
0.187973 0.992400 0.491750
0.304719 0.992400 0.491750
0.429480 0.992400 0.491750
0.558250 0.992400 0.491750
0.687020 0.992400 0.491750
0.811781 0.992400 0.491750
0.928527 0.992400 0.491750
1.000000 0.992400 0.491750
0.083250 0.042400 0.620520
0.187973 0.042400 0.620520
0.304719 0.042400 0.620520
0.429480 0.042400 0.620520
0.558250 0.042400 0.620520
0.687020 0.042400 0.620520
0.811781 0.042400 0.620520
0.928527 0.042400 0.620520
1.000000 0.042400 0.620520
0.083250 0.147123 0.620520
0.187973 0.147123 0.620520
0.304719 0.147123 0.620520
0.429480 0.147123 0.620520
0.558250 0.147123 0.620520
0.687020 0.147123 0.620520
0.811781 0.147123 0.620520
0.928527 0.147123 0.620520
1.000000 0.147123 0.620520
0.083250 0.263869 0.620520
0.187973 0.263869 0.620520
0.304719 0.263869 0.620520
0.429480 0.263869 0.620520
0.558250 0.263869 0.620520
0.687020 0.263869 0.620520
0.811781 0.263869 0.620520
0.928527 0.263869 0.620520
1.000000 0.263869 0.620520
0.083250 0.388630 0.620520
0.187973 0.388630 0.620520
0.304719 0.388630 0.620520
0.429480 0.388630 0.620520
0.558250 0.388630 0.620520
0.687020 0.388630 0.620520
0.811781 0.388630 0.620520
0.928527 0.388630 0.620520
1.000000 0.388630 0.620520
0.083250 0.517400 0.620520
0.187973 0.517400 0.620520
0.304719 0.517400 0.620520
0.429480 0.517400 0.620520
0.558250 0.517400 0.620520
0.687020 0.517400 0.620520
0.811781 0.517400 0.620520
0.928527 0.517400 0.620520
1.000000 0.517400 0.620520
0.083250 0.646170 0.620520
0.187973 0.646170 0.620520
0.304719 0.646170 0.620520
0.429480 0.646170 0.620520
0.558250 0.646170 0.620520
0.687020 0.646170 0.620520
0.811781 0.646170 0.620520
0.928527 0.646170 0.620520
1.000000 0.646170 0.620520
0.083250 0.770931 0.620520
0.187973 0.770931 0.620520
0.304719 0.770931 0.620520
0.429480 0.770931 0.620520
0.558250 0.770931 0.620520
0.687020 0.770931 0.620520
0.811781 0.770931 0.620520
0.928527 0.770931 0.620520
1.000000 0.770931 0.620520
0.083250 0.887677 0.620520
0.187973 0.887677 0.620520
0.304719 0.887677 0.620520
0.429480 0.887677 0.620520
0.558250 0.887677 0.620520
0.687020 0.887677 0.620520
0.811781 0.887677 0.620520
0.928527 0.887677 0.620520
1.000000 0.887677 0.620520
0.083250 0.992400 0.620520
0.187973 0.992400 0.620520
0.304719 0.992400 0.620520
0.429480 0.992400 0.620520
0.558250 0.992400 0.620520
0.687020 0.992400 0.620520
0.811781 0.992400 0.620520
0.928527 0.992400 0.620520
1.000000 0.992400 0.620520
0.083250 0.042400 0.745281
0.187973 0.042400 0.745281
0.304719 0.042400 0.745281
0.429480 0.042400 0.745281
0.558250 0.042400 0.745281
0.687020 0.042400 0.745281
0.811781 0.042400 0.745281
0.928527 0.042400 0.745281
1.000000 0.042400 0.745281
0.083250 0.147123 0.745281
0.187973 0.147123 0.745281
0.304719 0.147123 0.745281
0.429480 0.147123 0.745281
0.558250 0.147123 0.745281
0.687020 0.147123 0.745281
0.811781 0.147123 0.745281
0.928527 0.147123 0.745281
1.000000 0.147123 0.745281
0.083250 0.263869 0.745281
0.187973 0.263869 0.745281
0.304719 0.263869 0.745281
0.429480 0.263869 0.745281
0.558250 0.263869 0.745281
0.687020 0.263869 0.745281
0.811781 0.263869 0.745281
0.928527 0.263869 0.745281
1.000000 0.263869 0.745281
0.083250 0.388630 0.745281
0.187973 0.388630 0.745281
0.304719 0.388630 0.745281
0.429480 0.388630 0.745281
0.558250 0.388630 0.745281
0.687020 0.388630 0.745281
0.811781 0.388630 0.745281
0.928527 0.388630 0.745281
1.000000 0.388630 0.745281
0.083250 0.517400 0.745281
0.187973 0.517400 0.745281
0.304719 0.517400 0.745281
0.429480 0.517400 0.745281
0.558250 0.517400 0.745281
0.687020 0.517400 0.745281
0.811781 0.517400 0.745281
0.928527 0.517400 0.745281
1.000000 0.517400 0.745281
0.083250 0.646170 0.745281
0.187973 0.646170 0.745281
0.304719 0.646170 0.745281
0.429480 0.646170 0.745281
0.558250 0.646170 0.745281
0.687020 0.646170 0.745281
0.811781 0.646170 0.745281
0.928527 0.646170 0.745281
1.000000 0.646170 0.745281
0.083250 0.770931 0.745281
0.187973 0.770931 0.745281
0.304719 0.770931 0.745281
0.429480 0.770931 0.745281
0.558250 0.770931 0.745281
0.687020 0.770931 0.745281
0.811781 0.770931 0.745281
0.928527 0.770931 0.745281
1.000000 0.770931 0.745281
0.083250 0.887677 0.745281
0.187973 0.887677 0.745281
0.304719 0.887677 0.745281
0.429480 0.887677 0.745281
0.558250 0.887677 0.745281
0.687020 0.887677 0.745281
0.811781 0.887677 0.745281
0.928527 0.887677 0.745281
1.000000 0.887677 0.745281
0.083250 0.992400 0.745281
0.187973 0.992400 0.745281
0.304719 0.992400 0.745281
0.429480 0.992400 0.745281
0.558250 0.992400 0.745281
0.687020 0.992400 0.745281
0.811781 0.992400 0.745281
0.928527 0.992400 0.745281
1.000000 0.992400 0.745281
0.083250 0.042400 0.862027
0.187973 0.042400 0.862027
0.304719 0.042400 0.862027
0.429480 0.042400 0.862027
0.558250 0.042400 0.862027
0.687020 0.042400 0.862027
0.811781 0.042400 0.862027
0.928527 0.042400 0.862027
1.000000 0.042400 0.862027
0.083250 0.147123 0.862027
0.187973 0.147123 0.862027
0.304719 0.147123 0.862027
0.429480 0.147123 0.862027
0.558250 0.147123 0.862027
0.687020 0.147123 0.862027
0.811781 0.147123 0.862027
0.928527 0.147123 0.862027
1.000000 0.147123 0.862027
0.083250 0.263869 0.862027
0.187973 0.263869 0.862027
0.304719 0.263869 0.862027
0.429480 0.263869 0.862027
0.558250 0.263869 0.862027
0.687020 0.263869 0.862027
0.811781 0.263869 0.862027
0.928527 0.263869 0.862027
1.000000 0.263869 0.862027
0.083250 0.388630 0.862027
0.187973 0.388630 0.862027
0.304719 0.388630 0.862027
0.429480 0.388630 0.862027
0.558250 0.388630 0.862027
0.687020 0.388630 0.862027
0.811781 0.388630 0.862027
0.928527 0.388630 0.862027
1.000000 0.388630 0.862027
0.083250 0.517400 0.862027
0.187973 0.517400 0.862027
0.304719 0.517400 0.862027
0.429480 0.517400 0.862027
0.558250 0.517400 0.862027
0.687020 0.517400 0.862027
0.811781 0.517400 0.862027
0.928527 0.517400 0.862027
1.000000 0.517400 0.862027
0.083250 0.646170 0.862027
0.187973 0.646170 0.862027
0.304719 0.646170 0.862027
0.429480 0.646170 0.862027
0.558250 0.646170 0.862027
0.687020 0.646170 0.862027
0.811781 0.646170 0.862027
0.928527 0.646170 0.862027
1.000000 0.646170 0.862027
0.083250 0.770931 0.862027
0.187973 0.770931 0.862027
0.304719 0.770931 0.862027
0.429480 0.770931 0.862027
0.558250 0.770931 0.862027
0.687020 0.770931 0.862027
0.811781 0.770931 0.862027
0.928527 0.770931 0.862027
1.000000 0.770931 0.862027
0.083250 0.887677 0.862027
0.187973 0.887677 0.862027
0.304719 0.887677 0.862027
0.429480 0.887677 0.862027
0.558250 0.887677 0.862027
0.687020 0.887677 0.862027
0.811781 0.887677 0.862027
0.928527 0.887677 0.862027
1.000000 0.887677 0.862027
0.083250 0.992400 0.862027
0.187973 0.992400 0.862027
0.304719 0.992400 0.862027
0.429480 0.992400 0.862027
0.558250 0.992400 0.862027
0.687020 0.992400 0.862027
0.811781 0.992400 0.862027
0.928527 0.992400 0.862027
1.000000 0.992400 0.862027
0.083250 0.042400 0.966750
0.187973 0.042400 0.966750
0.304719 0.042400 0.966750
0.429480 0.042400 0.966750
0.558250 0.042400 0.966750
0.687020 0.042400 0.966750
0.811781 0.042400 0.966750
0.928527 0.042400 0.966750
1.000000 0.042400 0.966750
0.083250 0.147123 0.966750
0.187973 0.147123 0.966750
0.304719 0.147123 0.966750
0.429480 0.147123 0.966750
0.558250 0.147123 0.966750
0.687020 0.147123 0.966750
0.811781 0.147123 0.966750
0.928527 0.147123 0.966750
1.000000 0.147123 0.966750
0.083250 0.263869 0.966750
0.187973 0.263869 0.966750
0.304719 0.263869 0.966750
0.429480 0.263869 0.966750
0.558250 0.263869 0.966750
0.687020 0.263869 0.966750
0.811781 0.263869 0.966750
0.928527 0.263869 0.966750
1.000000 0.263869 0.966750
0.083250 0.388630 0.966750
0.187973 0.388630 0.966750
0.304719 0.388630 0.966750
0.429480 0.388630 0.966750
0.558250 0.388630 0.966750
0.687020 0.388630 0.966750
0.811781 0.388630 0.966750
0.928527 0.388630 0.966750
1.000000 0.388630 0.966750
0.083250 0.517400 0.966750
0.187973 0.517400 0.966750
0.304719 0.517400 0.966750
0.429480 0.517400 0.966750
0.558250 0.517400 0.966750
0.687020 0.517400 0.966750
0.811781 0.517400 0.966750
0.928527 0.517400 0.966750
1.000000 0.517400 0.966750
0.083250 0.646170 0.966750
0.187973 0.646170 0.966750
0.304719 0.646170 0.966750
0.429480 0.646170 0.966750
0.558250 0.646170 0.966750
0.687020 0.646170 0.966750
0.811781 0.646170 0.966750
0.928527 0.646170 0.966750
1.000000 0.646170 0.966750
0.083250 0.770931 0.966750
0.187973 0.770931 0.966750
0.304719 0.770931 0.966750
0.429480 0.770931 0.966750
0.558250 0.770931 0.966750
0.687020 0.770931 0.966750
0.811781 0.770931 0.966750
0.928527 0.770931 0.966750
1.000000 0.770931 0.966750
0.083250 0.887677 0.966750
0.187973 0.887677 0.966750
0.304719 0.887677 0.966750
0.429480 0.887677 0.966750
0.558250 0.887677 0.966750
0.687020 0.887677 0.966750
0.811781 0.887677 0.966750
0.928527 0.887677 0.966750
1.000000 0.887677 0.966750
0.083250 0.992400 0.966750
0.187973 0.992400 0.966750
0.304719 0.992400 0.966750
0.429480 0.992400 0.966750
0.558250 0.992400 0.966750
0.687020 0.992400 0.966750
0.811781 0.992400 0.966750
0.928527 0.992400 0.966750
1.000000 0.992400 0.966750
