app/src/main/assets/luts/Warm_Film.cube
TITLE "Warm Film"
# Generated by editclips.online — free to use
DOMAIN_MIN 0.0 0.0 0.0
DOMAIN_MAX 1.0 1.0 1.0
LUT_3D_SIZE 5
0.083250 0.042400 0.016750
0.304719 0.042400 0.016750
0.558250 0.042400 0.016750
0.811781 0.042400 0.016750
1.000000 0.042400 0.016750
0.083250 0.263869 0.016750
0.304719 0.263869 0.016750
0.558250 0.263869 0.016750
0.811781 0.263869 0.016750
1.000000 0.263869 0.016750
0.083250 0.517400 0.016750
0.304719 0.517400 0.016750
0.558250 0.517400 0.016750
0.811781 0.517400 0.016750
1.000000 0.517400 0.016750
0.083250 0.770931 0.016750
0.304719 0.770931 0.016750
0.558250 0.770931 0.016750
0.811781 0.770931 0.016750
1.000000 0.770931 0.016750
0.083250 0.992400 0.016750
0.304719 0.992400 0.016750
0.558250 0.992400 0.016750
0.811781 0.992400 0.016750
1.000000 0.992400 0.016750
0.083250 0.042400 0.238219
0.304719 0.042400 0.238219
0.558250 0.042400 0.238219
0.811781 0.042400 0.238219
1.000000 0.042400 0.238219
0.083250 0.263869 0.238219
0.304719 0.263869 0.238219
0.558250 0.263869 0.238219
0.811781 0.263869 0.238219
1.000000 0.263869 0.238219
0.083250 0.517400 0.238219
0.304719 0.517400 0.238219
0.558250 0.517400 0.238219
0.811781 0.517400 0.238219
1.000000 0.517400 0.238219
0.083250 0.770931 0.238219
0.304719 0.770931 0.238219
0.558250 0.770931 0.238219
0.811781 0.770931 0.238219
1.000000 0.770931 0.238219
0.083250 0.992400 0.238219
0.304719 0.992400 0.238219
0.558250 0.992400 0.238219
0.811781 0.992400 0.238219
1.000000 0.992400 0.238219
0.083250 0.042400 0.491750
0.304719 0.042400 0.491750
0.558250 0.042400 0.491750
0.811781 0.042400 0.491750
1.000000 0.042400 0.491750
0.083250 0.263869 0.491750
0.304719 0.263869 0.491750
0.558250 0.263869 0.491750
0.811781 0.263869 0.491750
1.000000 0.263869 0.491750
0.083250 0.517400 0.491750
0.304719 0.517400 0.491750
0.558250 0.517400 0.491750
0.811781 0.517400 0.491750
1.000000 0.517400 0.491750
0.083250 0.770931 0.491750
0.304719 0.770931 0.491750
0.558250 0.770931 0.491750
0.811781 0.770931 0.491750
1.000000 0.770931 0.491750
0.083250 0.992400 0.491750
0.304719 0.992400 0.491750
0.558250 0.992400 0.491750
0.811781 0.992400 0.491750
1.000000 0.992400 0.491750
0.083250 0.042400 0.745281
0.304719 0.042400 0.745281
0.558250 0.042400 0.745281
0.811781 0.042400 0.745281
1.000000 0.042400 0.745281
0.083250 0.263869 0.745281
0.304719 0.263869 0.745281
0.558250 0.263869 0.745281
0.811781 0.263869 0.745281
1.000000 0.263869 0.745281
0.083250 0.517400 0.745281
0.304719 0.517400 0.745281
0.558250 0.517400 0.745281
0.811781 0.517400 0.745281
1.000000 0.517400 0.745281
0.083250 0.770931 0.745281
0.304719 0.770931 0.745281
0.558250 0.770931 0.745281
0.811781 0.770931 0.745281
1.000000 0.770931 0.745281
0.083250 0.992400 0.745281
0.304719 0.992400 0.745281
0.558250 0.992400 0.745281
0.811781 0.992400 0.745281
1.000000 0.992400 0.745281
0.083250 0.042400 0.966750
0.304719 0.042400 0.966750
0.558250 0.042400 0.966750
0.811781 0.042400 0.966750
1.000000 0.042400 0.966750
0.083250 0.263869 0.966750
0.304719 0.263869 0.966750
0.558250 0.263869 0.966750
0.811781 0.263869 0.966750
1.000000 0.263869 0.966750
0.083250 0.517400 0.966750
0.304719 0.517400 0.966750
0.558250 0.517400 0.966750
0.811781 0.517400 0.966750
1.000000 0.517400 0.966750
0.083250 0.770931 0.966750
0.304719 0.770931 0.966750
0.558250 0.770931 0.966750
0.811781 0.770931 0.966750
1.000000 0.770931 0.966750
0.083250 0.992400 0.966750
0.304719 0.992400 0.966750
0.558250 0.992400 0.966750
0.811781 0.992400 0.966750
1.000000 0.992400 0.966750
