app/src/main/assets/luts/Warm_Film.cube
TITLE "Warm Film"
# Generated by editclips.online — free to use
DOMAIN_MIN 0.0 0.0 0.0
DOMAIN_MAX 1.0 1.0 1.0
LUT_3D_SIZE 33
0.083250 0.042400 0.016750
0.108084 0.042400 0.016750
0.133858 0.042400 0.016750
0.160508 0.042400 0.016750
0.187973 0.042400 0.016750
0.216189 0.042400 0.016750
0.245093 0.042400 0.016750
0.274624 0.042400 0.016750
0.304719 0.042400 0.016750
0.335314 0.042400 0.016750
0.366348 0.042400 0.016750
0.397758 0.042400 0.016750
0.429480 0.042400 0.016750
0.461454 0.042400 0.016750
0.493615 0.042400 0.016750
0.525901 0.042400 0.016750
0.558250 0.042400 0.016750
0.590599 0.042400 0.016750
0.622885 0.042400 0.016750
0.655046 0.042400 0.016750
0.687020 0.042400 0.016750
0.718742 0.042400 0.016750
0.750152 0.042400 0.016750
0.781186 0.042400 0.016750
0.811781 0.042400 0.016750
0.841876 0.042400 0.016750
0.871407 0.042400 0.016750
0.900311 0.042400 0.016750
0.928527 0.042400 0.016750
0.955992 0.042400 0.016750
0.982642 0.042400 0.016750
1.000000 0.042400 0.016750
1.000000 0.042400 0.016750
0.083250 0.067234 0.016750
0.108084 0.067234 0.016750
0.133858 0.067234 0.016750
0.160508 0.067234 0.016750
0.187973 0.067234 0.016750
0.216189 0.067234 0.016750
0.245093 0.067234 0.016750
0.274624 0.067234 0.016750
0.304719 0.067234 0.016750
0.335314 0.067234 0.016750
0.366348 0.067234 0.016750
0.397758 0.067234 0.016750
0.429480 0.067234 0.016750
0.461454 0.067234 0.016750
0.493615 0.067234 0.016750
0.525901 0.067234 0.016750
0.558250 0.067234 0.016750
0.590599 0.067234 0.016750
0.622885 0.067234 0.016750
0.655046 0.067234 0.016750
0.687020 0.067234 0.016750
0.718742 0.067234 0.016750
0.750152 0.067234 0.016750
0.781186 0.067234 0.016750
0.811781 0.067234 0.016750
0.841876 0.067234 0.016750
0.871407 0.067234 0.016750
0.900311 0.067234 0.016750
0.928527 0.067234 0.016750
0.955992 0.067234 0.016750
0.982642 0.067234 0.016750
1.000000 0.067234 0.016750
1.000000 0.067234 0.016750
0.083250 0.093008 0.016750
0.108084 0.093008 0.016750
0.133858 0.093008 0.016750
0.160508 0.093008 0.016750
0.187973 0.093008 0.016750
0.216189 0.093008 0.016750
0.245093 0.093008 0.016750
0.274624 0.093008 0.016750
0.304719 0.093008 0.016750
0.335314 0.093008 0.016750
0.366348 0.093008 0.016750
0.397758 0.093008 0.016750
0.429480 0.093008 0.016750
0.461454 0.093008 0.016750
0.493615 0.093008 0.016750
0.525901 0.093008 0.016750
0.558250 0.093008 0.016750
0.590599 0.093008 0.016750
0.622885 0.093008 0.016750
0.655046 0.093008 0.016750
0.687020 0.093008 0.016750
0.718742 0.093008 0.016750
0.750152 0.093008 0.016750
0.781186 0.093008 0.016750
0.811781 0.093008 0.016750
0.841876 0.093008 0.016750
0.871407 0.093008 0.016750
0.900311 0.093008 0.016750
0.928527 0.093008 0.016750
0.955992 0.093008 0.016750
0.982642 0.093008 0.016750
1.000000 0.093008 0.016750
1.000000 0.093008 0.016750
0.083250 0.119658 0.016750
0.108084 0.119658 0.016750
0.133858 0.119658 0.016750
0.160508 0.119658 0.016750
0.187973 0.119658 0.016750
0.216189 0.119658 0.016750
0.245093 0.119658 0.016750
0.274624 0.119658 0.016750
0.304719 0.119658 0.016750
0.335314 0.119658 0.016750
0.366348 0.119658 0.016750
0.397758 0.119658 0.016750
0.429480 0.119658 0.016750
0.461454 0.119658 0.016750
0.493615 0.119658 0.016750
0.525901 0.119658 0.016750
0.558250 0.119658 0.016750
0.590599 0.119658 0.016750
0.622885 0.119658 0.016750
0.655046 0.119658 0.016750
0.687020 0.119658 0.016750
0.718742 0.119658 0.016750
0.750152 0.119658 0.016750
0.781186 0.119658 0.016750
0.811781 0.119658 0.016750
0.841876 0.119658 0.016750
0.871407 0.119658 0.016750
0.900311 0.119658 0.016750
0.928527 0.119658 0.016750
0.955992 0.119658 0.016750
0.982642 0.119658 0.016750
1.000000 0.119658 0.016750
1.000000 0.119658 0.016750
0.083250 0.147123 0.016750
0.108084 0.147123 0.016750
0.133858 0.147123 0.016750
0.160508 0.147123 0.016750
0.187973 0.147123 0.016750
0.216189 0.147123 0.016750
0.245093 0.147123 0.016750
0.274624 0.147123 0.016750
0.304719 0.147123 0.016750
0.335314 0.147123 0.016750
0.366348 0.147123 0.016750
0.397758 0.147123 0.016750
0.429480 0.147123 0.016750
0.461454 0.147123 0.016750
0.493615 0.147123 0.016750
0.525901 0.147123 0.016750
0.558250 0.147123 0.016750
0.590599 0.147123 0.016750
0.622885 0.147123 0.016750
0.655046 0.147123 0.016750
0.687020 0.147123 0.016750
0.718742 0.147123 0.016750
0.750152 0.147123 0.016750
0.781186 0.147123 0.016750
0.811781 0.147123 0.016750
0.841876 0.147123 0.016750
0.871407 0.147123 0.016750
0.900311 0.147123 0.016750
0.928527 0.147123 0.016750
0.955992 0.147123 0.016750
0.982642 0.147123 0.016750
1.000000 0.147123 0.016750
1.000000 0.147123 0.016750
0.083250 0.175339 0.016750
0.108084 0.175339 0.016750
0.133858 0.175339 0.016750
0.160508 0.175339 0.016750
0.187973 0.175339 0.016750
0.216189 0.175339 0.016750
0.245093 0.175339 0.016750
0.274624 0.175339 0.016750
0.304719 0.175339 0.016750
0.335314 0.175339 0.016750
0.366348 0.175339 0.016750
0.397758 0.175339 0.016750
0.429480 0.175339 0.016750
0.461454 0.175339 0.016750
0.493615 0.175339 0.016750
0.525901 0.175339 0.016750
0.558250 0.175339 0.016750
0.590599 0.175339 0.016750
0.622885 0.175339 0.016750
0.655046 0.175339 0.016750
0.687020 0.175339 0.016750
0.718742 0.175339 0.016750
0.750152 0.175339 0.016750
0.781186 0.175339 0.016750
0.811781 0.175339 0.016750
0.841876 0.175339 0.016750
0.871407 0.175339 0.016750
0.900311 0.175339 0.016750
0.928527 0.175339 0.016750
0.955992 0.175339 0.016750
0.982642 0.175339 0.016750
1.000000 0.175339 0.016750
1.000000 0.175339 0.016750
0.083250 0.204243 0.016750
0.108084 0.204243 0.016750
0.133858 0.204243 0.016750
0.160508 0.204243 0.016750
0.187973 0.204243 0.016750
0.216189 0.204243 0.016750
0.245093 0.204243 0.016750
0.274624 0.204243 0.016750
0.304719 0.204243 0.016750
0.335314 0.204243 0.016750
0.366348 0.204243 0.016750
0.397758 0.204243 0.016750
0.429480 0.204243 0.016750
0.461454 0.204243 0.016750
0.493615 0.204243 0.016750
0.525901 0.204243 0.016750
0.558250 0.204243 0.016750
0.590599 0.204243 0.016750
0.622885 0.204243 0.016750
0.655046 0.204243 0.016750
0.687020 0.204243 0.016750
0.718742 0.204243 0.016750
0.750152 0.204243 0.016750
0.781186 0.204243 0.016750
0.811781 0.204243 0.016750
0.841876 0.204243 0.016750
0.871407 0.204243 0.016750
0.900311 0.204243 0.016750
0.928527 0.204243 0.016750
0.955992 0.204243 0.016750
0.982642 0.204243 0.016750
1.000000 0.204243 0.016750
1.000000 0.204243 0.016750
0.083250 0.233774 0.016750
0.108084 0.233774 0.016750
0.133858 0.233774 0.016750
0.160508 0.233774 0.016750
0.187973 0.233774 0.016750
0.216189 0.233774 0.016750
0.245093 0.233774 0.016750
0.274624 0.233774 0.016750
0.304719 0.233774 0.016750
0.335314 0.233774 0.016750
0.366348 0.233774 0.016750
0.397758 0.233774 0.016750
0.429480 0.233774 0.016750
0.461454 0.233774 0.016750
0.493615 0.233774 0.016750
0.525901 0.233774 0.016750
0.558250 0.233774 0.016750
0.590599 0.233774 0.016750
0.622885 0.233774 0.016750
0.655046 0.233774 0.016750
0.687020 0.233774 0.016750
0.718742 0.233774 0.016750
0.750152 0.233774 0.016750
0.781186 0.233774 0.016750
0.811781 0.233774 0.016750
0.841876 0.233774 0.016750
0.871407 0.233774 0.016750
0.900311 0.233774 0.016750
0.928527 0.233774 0.016750
0.955992 0.233774 0.016750
0.982642 0.233774 0.016750
1.000000 0.233774 0.016750
1.000000 0.233774 0.016750
0.083250 0.263869 0.016750
0.108084 0.263869 0.016750
0.133858 0.263869 0.016750
0.160508 0.263869 0.016750
0.187973 0.263869 0.016750
0.216189 0.263869 0.016750
0.245093 0.263869 0.016750
0.274624 0.263869 0.016750
0.304719 0.263869 0.016750
0.335314 0.263869 0.016750
0.366348 0.263869 0.016750
0.397758 0.263869 0.016750
0.429480 0.263869 0.016750
0.461454 0.263869 0.016750
0.493615 0.263869 0.016750
0.525901 0.263869 0.016750
0.558250 0.263869 0.016750
0.590599 0.263869 0.016750
0.622885 0.263869 0.016750
0.655046 0.263869 0.016750
0.687020 0.263869 0.016750
0.718742 0.263869 0.016750
0.750152 0.263869 0.016750
0.781186 0.263869 0.016750
0.811781 0.263869 0.016750
0.841876 0.263869 0.016750
0.871407 0.263869 0.016750
0.900311 0.263869 0.016750
0.928527 0.263869 0.016750
0.955992 0.263869 0.016750
0.982642 0.263869 0.016750
1.000000 0.263869 0.016750
1.000000 0.263869 0.016750
0.083250 0.294464 0.016750
0.108084 0.294464 0.016750
0.133858 0.294464 0.016750
0.160508 0.294464 0.016750
0.187973 0.294464 0.016750
0.216189 0.294464 0.016750
0.245093 0.294464 0.016750
0.274624 0.294464 0.016750
0.304719 0.294464 0.016750
0.335314 0.294464 0.016750
0.366348 0.294464 0.016750
0.397758 0.294464 0.016750
0.429480 0.294464 0.016750
0.461454 0.294464 0.016750
0.493615 0.294464 0.016750
0.525901 0.294464 0.016750
0.558250 0.294464 0.016750
0.590599 0.294464 0.016750
0.622885 0.294464 0.016750
0.655046 0.294464 0.016750
0.687020 0.294464 0.016750
0.718742 0.294464 0.016750
0.750152 0.294464 0.016750
0.781186 0.294464 0.016750
0.811781 0.294464 0.016750
0.841876 0.294464 0.016750
0.871407 0.294464 0.016750
0.900311 0.294464 0.016750
0.928527 0.294464 0.016750
0.955992 0.294464 0.016750
0.982642 0.294464 0.016750
1.000000 0.294464 0.016750
1.000000 0.294464 0.016750
0.083250 0.325498 0.016750
0.108084 0.325498 0.016750
0.133858 0.325498 0.016750
0.160508 0.325498 0.016750
0.187973 0.325498 0.016750
0.216189 0.325498 0.016750
0.245093 0.325498 0.016750
0.274624 0.325498 0.016750
0.304719 0.325498 0.016750
0.335314 0.325498 0.016750
0.366348 0.325498 0.016750
0.397758 0.325498 0.016750
0.429480 0.325498 0.016750
0.461454 0.325498 0.016750
0.493615 0.325498 0.016750
0.525901 0.325498 0.016750
0.558250 0.325498 0.016750
0.590599 0.325498 0.016750
0.622885 0.325498 0.016750
0.655046 0.325498 0.016750
0.687020 0.325498 0.016750
0.718742 0.325498 0.016750
0.750152 0.325498 0.016750
0.781186 0.325498 0.016750
0.811781 0.325498 0.016750
0.841876 0.325498 0.016750
0.871407 0.325498 0.016750
0.900311 0.325498 0.016750
0.928527 0.325498 0.016750
0.955992 0.325498 0.016750
0.982642 0.325498 0.016750
1.000000 0.325498 0.016750
1.000000 0.325498 0.016750
0.083250 0.356908 0.016750
0.108084 0.356908 0.016750
0.133858 0.356908 0.016750
0.160508 0.356908 0.016750
0.187973 0.356908 0.016750
0.216189 0.356908 0.016750
0.245093 0.356908 0.016750
0.274624 0.356908 0.016750
0.304719 0.356908 0.016750
0.335314 0.356908 0.016750
0.366348 0.356908 0.016750
0.397758 0.356908 0.016750
0.429480 0.356908 0.016750
0.461454 0.356908 0.016750
0.493615 0.356908 0.016750
0.525901 0.356908 0.016750
0.558250 0.356908 0.016750
0.590599 0.356908 0.016750
0.622885 0.356908 0.016750
0.655046 0.356908 0.016750
0.687020 0.356908 0.016750
0.718742 0.356908 0.016750
0.750152 0.356908 0.016750
0.781186 0.356908 0.016750
0.811781 0.356908 0.016750
0.841876 0.356908 0.016750
0.871407 0.356908 0.016750
0.900311 0.356908 0.016750
0.928527 0.356908 0.016750
0.955992 0.356908 0.016750
0.982642 0.356908 0.016750
1.000000 0.356908 0.016750
1.000000 0.356908 0.016750
0.083250 0.388630 0.016750
0.108084 0.388630 0.016750
0.133858 0.388630 0.016750
0.160508 0.388630 0.016750
0.187973 0.388630 0.016750
0.216189 0.388630 0.016750
0.245093 0.388630 0.016750
0.274624 0.388630 0.016750
0.304719 0.388630 0.016750
0.335314 0.388630 0.016750
0.366348 0.388630 0.016750
0.397758 0.388630 0.016750
0.429480 0.388630 0.016750
0.461454 0.388630 0.016750
0.493615 0.388630 0.016750
0.525901 0.388630 0.016750
0.558250 0.388630 0.016750
0.590599 0.388630 0.016750
0.622885 0.388630 0.016750
0.655046 0.388630 0.016750
0.687020 0.388630 0.016750
0.718742 0.388630 0.016750
0.750152 0.388630 0.016750
0.781186 0.388630 0.016750
0.811781 0.388630 0.016750
0.841876 0.388630 0.016750
0.871407 0.388630 0.016750
0.900311 0.388630 0.016750
0.928527 0.388630 0.016750
0.955992 0.388630 0.016750
0.982642 0.388630 0.016750
1.000000 0.388630 0.016750
1.000000 0.388630 0.016750
0.083250 0.420604 0.016750
0.108084 0.420604 0.016750
0.133858 0.420604 0.016750
0.160508 0.420604 0.016750
0.187973 0.420604 0.016750
0.216189 0.420604 0.016750
0.245093 0.420604 0.016750
0.274624 0.420604 0.016750
0.304719 0.420604 0.016750
0.335314 0.420604 0.016750
0.366348 0.420604 0.016750
0.397758 0.420604 0.016750
0.429480 0.420604 0.016750
0.461454 0.420604 0.016750
0.493615 0.420604 0.016750
0.525901 0.420604 0.016750
0.558250 0.420604 0.016750
0.590599 0.420604 0.016750
0.622885 0.420604 0.016750
0.655046 0.420604 0.016750
0.687020 0.420604 0.016750
0.718742 0.420604 0.016750
0.750152 0.420604 0.016750
0.781186 0.420604 0.016750
0.811781 0.420604 0.016750
0.841876 0.420604 0.016750
0.871407 0.420604 0.016750
0.900311 0.420604 0.016750
0.928527 0.420604 0.016750
0.955992 0.420604 0.016750
0.982642 0.420604 0.016750
1.000000 0.420604 0.016750
1.000000 0.420604 0.016750
0.083250 0.452765 0.016750
0.108084 0.452765 0.016750
0.133858 0.452765 0.016750
0.160508 0.452765 0.016750
0.187973 0.452765 0.016750
0.216189 0.452765 0.016750
0.245093 0.452765 0.016750
0.274624 0.452765 0.016750
0.304719 0.452765 0.016750
0.335314 0.452765 0.016750
0.366348 0.452765 0.016750
0.397758 0.452765 0.016750
0.429480 0.452765 0.016750
0.461454 0.452765 0.016750
0.493615 0.452765 0.016750
0.525901 0.452765 0.016750
0.558250 0.452765 0.016750
0.590599 0.452765 0.016750
0.622885 0.452765 0.016750
0.655046 0.452765 0.016750
0.687020 0.452765 0.016750
0.718742 0.452765 0.016750
0.750152 0.452765 0.016750
0.781186 0.452765 0.016750
0.811781 0.452765 0.016750
0.841876 0.452765 0.016750
0.871407 0.452765 0.016750
0.900311 0.452765 0.016750
0.928527 0.452765 0.016750
0.955992 0.452765 0.016750
0.982642 0.452765 0.016750
1.000000 0.452765 0.016750
1.000000 0.452765 0.016750
0.083250 0.485051 0.016750
0.108084 0.485051 0.016750
0.133858 0.485051 0.016750
0.160508 0.485051 0.016750
0.187973 0.485051 0.016750
0.216189 0.485051 0.016750
0.245093 0.485051 0.016750
0.274624 0.485051 0.016750
0.304719 0.485051 0.016750
0.335314 0.485051 0.016750
0.366348 0.485051 0.016750
0.397758 0.485051 0.016750
0.429480 0.485051 0.016750
0.461454 0.485051 0.016750
0.493615 0.485051 0.016750
0.525901 0.485051 0.016750
0.558250 0.485051 0.016750
0.590599 0.485051 0.016750
0.622885 0.485051 0.016750
0.655046 0.485051 0.016750
0.687020 0.485051 0.016750
0.718742 0.485051 0.016750
0.750152 0.485051 0.016750
0.781186 0.485051 0.016750
0.811781 0.485051 0.016750
0.841876 0.485051 0.016750
0.871407 0.485051 0.016750
0.900311 0.485051 0.016750
0.928527 0.485051 0.016750
0.955992 0.485051 0.016750
0.982642 0.485051 0.016750
1.000000 0.485051 0.016750
1.000000 0.485051 0.016750
0.083250 0.517400 0.016750
0.108084 0.517400 0.016750
0.133858 0.517400 0.016750
0.160508 0.517400 0.016750
0.187973 0.517400 0.016750
0.216189 0.517400 0.016750
0.245093 0.517400 0.016750
0.274624 0.517400 0.016750
0.304719 0.517400 0.016750
0.335314 0.517400 0.016750
0.366348 0.517400 0.016750
0.397758 0.517400 0.016750
0.429480 0.517400 0.016750
0.461454 0.517400 0.016750
0.493615 0.517400 0.016750
0.525901 0.517400 0.016750
0.558250 0.517400 0.016750
0.590599 0.517400 0.016750
0.622885 0.517400 0.016750
0.655046 0.517400 0.016750
0.687020 0.517400 0.016750
0.718742 0.517400 0.016750
0.750152 0.517400 0.016750
0.781186 0.517400 0.016750
0.811781 0.517400 0.016750
0.841876 0.517400 0.016750
0.871407 0.517400 0.016750
0.900311 0.517400 0.016750
0.928527 0.517400 0.016750
0.955992 0.517400 0.016750
0.982642 0.517400 0.016750
1.000000 0.517400 0.016750
1.000000 0.517400 0.016750
0.083250 0.549749 0.016750
0.108084 0.549749 0.016750
0.133858 0.549749 0.016750
0.160508 0.549749 0.016750
0.187973 0.549749 0.016750
0.216189 0.549749 0.016750
0.245093 0.549749 0.016750
0.274624 0.549749 0.016750
0.304719 0.549749 0.016750
0.335314 0.549749 0.016750
0.366348 0.549749 0.016750
0.397758 0.549749 0.016750
0.429480 0.549749 0.016750
0.461454 0.549749 0.016750
0.493615 0.549749 0.016750
0.525901 0.549749 0.016750
0.558250 0.549749 0.016750
0.590599 0.549749 0.016750
0.622885 0.549749 0.016750
0.655046 0.549749 0.016750
0.687020 0.549749 0.016750
0.718742 0.549749 0.016750
0.750152 0.549749 0.016750
0.781186 0.549749 0.016750
0.811781 0.549749 0.016750
0.841876 0.549749 0.016750
0.871407 0.549749 0.016750
0.900311 0.549749 0.016750
0.928527 0.549749 0.016750
0.955992 0.549749 0.016750
0.982642 0.549749 0.016750
1.000000 0.549749 0.016750
1.000000 0.549749 0.016750
0.083250 0.582035 0.016750
0.108084 0.582035 0.016750
0.133858 0.582035 0.016750
0.160508 0.582035 0.016750
0.187973 0.582035 0.016750
0.216189 0.582035 0.016750
0.245093 0.582035 0.016750
0.274624 0.582035 0.016750
0.304719 0.582035 0.016750
0.335314 0.582035 0.016750
0.366348 0.582035 0.016750
0.397758 0.582035 0.016750
0.429480 0.582035 0.016750
0.461454 0.582035 0.016750
0.493615 0.582035 0.016750
0.525901 0.582035 0.016750
0.558250 0.582035 0.016750
0.590599 0.582035 0.016750
0.622885 0.582035 0.016750
0.655046 0.582035 0.016750
0.687020 0.582035 0.016750
0.718742 0.582035 0.016750
0.750152 0.582035 0.016750
0.781186 0.582035 0.016750
0.811781 0.582035 0.016750
0.841876 0.582035 0.016750
0.871407 0.582035 0.016750
0.900311 0.582035 0.016750
0.928527 0.582035 0.016750
0.955992 0.582035 0.016750
0.982642 0.582035 0.016750
1.000000 0.582035 0.016750
1.000000 0.582035 0.016750
0.083250 0.614196 0.016750
0.108084 0.614196 0.016750
0.133858 0.614196 0.016750
0.160508 0.614196 0.016750
0.187973 0.614196 0.016750
0.216189 0.614196 0.016750
0.245093 0.614196 0.016750
0.274624 0.614196 0.016750
0.304719 0.614196 0.016750
0.335314 0.614196 0.016750
0.366348 0.614196 0.016750
0.397758 0.614196 0.016750
0.429480 0.614196 0.016750
0.461454 0.614196 0.016750
0.493615 0.614196 0.016750
0.525901 0.614196 0.016750
0.558250 0.614196 0.016750
0.590599 0.614196 0.016750
0.622885 0.614196 0.016750
0.655046 0.614196 0.016750
0.687020 0.614196 0.016750
0.718742 0.614196 0.016750
0.750152 0.614196 0.016750
0.781186 0.614196 0.016750
0.811781 0.614196 0.016750
0.841876 0.614196 0.016750
0.871407 0.614196 0.016750
0.900311 0.614196 0.016750
0.928527 0.614196 0.016750
0.955992 0.614196 0.016750
0.982642 0.614196 0.016750
1.000000 0.614196 0.016750
1.000000 0.614196 0.016750
0.083250 0.646170 0.016750
0.108084 0.646170 0.016750
0.133858 0.646170 0.016750
0.160508 0.646170 0.016750
0.187973 0.646170 0.016750
0.216189 0.646170 0.016750
0.245093 0.646170 0.016750
0.274624 0.646170 0.016750
0.304719 0.646170 0.016750
0.335314 0.646170 0.016750
0.366348 0.646170 0.016750
0.397758 0.646170 0.016750
0.429480 0.646170 0.016750
0.461454 0.646170 0.016750
0.493615 0.646170 0.016750
0.525901 0.646170 0.016750
0.558250 0.646170 0.016750
0.590599 0.646170 0.016750
0.622885 0.646170 0.016750
0.655046 0.646170 0.016750
0.687020 0.646170 0.016750
0.718742 0.646170 0.016750
0.750152 0.646170 0.016750
0.781186 0.646170 0.016750
0.811781 0.646170 0.016750
0.841876 0.646170 0.016750
0.871407 0.646170 0.016750
0.900311 0.646170 0.016750
0.928527 0.646170 0.016750
0.955992 0.646170 0.016750
0.982642 0.646170 0.016750
1.000000 0.646170 0.016750
1.000000 0.646170 0.016750
0.083250 0.677892 0.016750
0.108084 0.677892 0.016750
0.133858 0.677892 0.016750
0.160508 0.677892 0.016750
0.187973 0.677892 0.016750
0.216189 0.677892 0.016750
0.245093 0.677892 0.016750
0.274624 0.677892 0.016750
0.304719 0.677892 0.016750
0.335314 0.677892 0.016750
0.366348 0.677892 0.016750
0.397758 0.677892 0.016750
0.429480 0.677892 0.016750
0.461454 0.677892 0.016750
0.493615 0.677892 0.016750
0.525901 0.677892 0.016750
0.558250 0.677892 0.016750
0.590599 0.677892 0.016750
0.622885 0.677892 0.016750
0.655046 0.677892 0.016750
0.687020 0.677892 0.016750
0.718742 0.677892 0.016750
0.750152 0.677892 0.016750
0.781186 0.677892 0.016750
0.811781 0.677892 0.016750
0.841876 0.677892 0.016750
0.871407 0.677892 0.016750
0.900311 0.677892 0.016750
0.928527 0.677892 0.016750
0.955992 0.677892 0.016750
0.982642 0.677892 0.016750
1.000000 0.677892 0.016750
1.000000 0.677892 0.016750
0.083250 0.709302 0.016750
0.108084 0.709302 0.016750
0.133858 0.709302 0.016750
0.160508 0.709302 0.016750
0.187973 0.709302 0.016750
0.216189 0.709302 0.016750
0.245093 0.709302 0.016750
0.274624 0.709302 0.016750
0.304719 0.709302 0.016750
0.335314 0.709302 0.016750
0.366348 0.709302 0.016750
0.397758 0.709302 0.016750
0.429480 0.709302 0.016750
0.461454 0.709302 0.016750
0.493615 0.709302 0.016750
0.525901 0.709302 0.016750
0.558250 0.709302 0.016750
0.590599 0.709302 0.016750
0.622885 0.709302 0.016750
0.655046 0.709302 0.016750
0.687020 0.709302 0.016750
0.718742 0.709302 0.016750
0.750152 0.709302 0.016750
0.781186 0.709302 0.016750
0.811781 0.709302 0.016750
0.841876 0.709302 0.016750
0.871407 0.709302 0.016750
0.900311 0.709302 0.016750
0.928527 0.709302 0.016750
0.955992 0.709302 0.016750
0.982642 0.709302 0.016750
1.000000 0.709302 0.016750
1.000000 0.709302 0.016750
0.083250 0.740336 0.016750
0.108084 0.740336 0.016750
0.133858 0.740336 0.016750
0.160508 0.740336 0.016750
0.187973 0.740336 0.016750
0.216189 0.740336 0.016750
0.245093 0.740336 0.016750
0.274624 0.740336 0.016750
0.304719 0.740336 0.016750
0.335314 0.740336 0.016750
0.366348 0.740336 0.016750
0.397758 0.740336 0.016750
0.429480 0.740336 0.016750
0.461454 0.740336 0.016750
0.493615 0.740336 0.016750
0.525901 0.740336 0.016750
0.558250 0.740336 0.016750
0.590599 0.740336 0.016750
0.622885 0.740336 0.016750
0.655046 0.740336 0.016750
0.687020 0.740336 0.016750
0.718742 0.740336 0.016750
0.750152 0.740336 0.016750
0.781186 0.740336 0.016750
0.811781 0.740336 0.016750
0.841876 0.740336 0.016750
0.871407 0.740336 0.016750
0.900311 0.740336 0.016750
0.928527 0.740336 0.016750
0.955992 0.740336 0.016750
0.982642 0.740336 0.016750
1.000000 0.740336 0.016750
1.000000 0.740336 0.016750
0.083250 0.770931 0.016750
0.108084 0.770931 0.016750
0.133858 0.770931 0.016750
0.160508 0.770931 0.016750
0.187973 0.770931 0.016750
0.216189 0.770931 0.016750
0.245093 0.770931 0.016750
0.274624 0.770931 0.016750
0.304719 0.770931 0.016750
0.335314 0.770931 0.016750
0.366348 0.770931 0.016750
0.397758 0.770931 0.016750
0.429480 0.770931 0.016750
0.461454 0.770931 0.016750
0.493615 0.770931 0.016750
0.525901 0.770931 0.016750
0.558250 0.770931 0.016750
0.590599 0.770931 0.016750
0.622885 0.770931 0.016750
0.655046 0.770931 0.016750
0.687020 0.770931 0.016750
0.718742 0.770931 0.016750
0.750152 0.770931 0.016750
0.781186 0.770931 0.016750
0.811781 0.770931 0.016750
0.841876 0.770931 0.016750
0.871407 0.770931 0.016750
0.900311 0.770931 0.016750
0.928527 0.770931 0.016750
0.955992 0.770931 0.016750
0.982642 0.770931 0.016750
1.000000 0.770931 0.016750
1.000000 0.770931 0.016750
0.083250 0.801026 0.016750
0.108084 0.801026 0.016750
0.133858 0.801026 0.016750
0.160508 0.801026 0.016750
0.187973 0.801026 0.016750
0.216189 0.801026 0.016750
0.245093 0.801026 0.016750
0.274624 0.801026 0.016750
0.304719 0.801026 0.016750
0.335314 0.801026 0.016750
0.366348 0.801026 0.016750
0.397758 0.801026 0.016750
0.429480 0.801026 0.016750
0.461454 0.801026 0.016750
0.493615 0.801026 0.016750
0.525901 0.801026 0.016750
0.558250 0.801026 0.016750
0.590599 0.801026 0.016750
0.622885 0.801026 0.016750
0.655046 0.801026 0.016750
0.687020 0.801026 0.016750
0.718742 0.801026 0.016750
0.750152 0.801026 0.016750
0.781186 0.801026 0.016750
0.811781 0.801026 0.016750
0.841876 0.801026 0.016750
0.871407 0.801026 0.016750
0.900311 0.801026 0.016750
0.928527 0.801026 0.016750
0.955992 0.801026 0.016750
0.982642 0.801026 0.016750
1.000000 0.801026 0.016750
1.000000 0.801026 0.016750
0.083250 0.830557 0.016750
0.108084 0.830557 0.016750
0.133858 0.830557 0.016750
0.160508 0.830557 0.016750
0.187973 0.830557 0.016750
0.216189 0.830557 0.016750
0.245093 0.830557 0.016750
0.274624 0.830557 0.016750
0.304719 0.830557 0.016750
0.335314 0.830557 0.016750
0.366348 0.830557 0.016750
0.397758 0.830557 0.016750
0.429480 0.830557 0.016750
0.461454 0.830557 0.016750
0.493615 0.830557 0.016750
0.525901 0.830557 0.016750
0.558250 0.830557 0.016750
0.590599 0.830557 0.016750
0.622885 0.830557 0.016750
0.655046 0.830557 0.016750
0.687020 0.830557 0.016750
0.718742 0.830557 0.016750
0.750152 0.830557 0.016750
0.781186 0.830557 0.016750
0.811781 0.830557 0.016750
0.841876 0.830557 0.016750
